muneebpandith/TeleoperationWork/DATASET/TRANSORMER_DATA/TRANSORMER_DATA/training_data_for_transformer1661443284.6352632.csv
J0,J1,J2,J3,J4,J5,J6,J7,J8,J9,J10,J11,J12,J13,J14,J15,ThetaXHG,ThetaYHG,ThetaZHG
0.033562919037850664,0.663369396555329,0.6484624690636904,1.092770765983059,-0.07060755372113332,0.7696082269028056,0.5122811798580006,1.2903479225156722,0.04028141575388,-0.18316759974861702,0.7335288095589269,0.7926369284258566,1.4927356628960544,0.23398030197589736,-0.29540419001939106,1.645776448593569,0.0069247716691134805,0.0,0.0
0.03308662548738256,0.6631993077691125,0.6482682244294649,1.0926592947392315,-0.07101451110627961,0.7698443429381231,0.5124600825625086,1.290428378060432,0.04028141575388,-0.18316759974861702,0.7335288095589269,0.7926369284258566,1.4924638758777053,0.2339118329015354,-0.2953581588788468,1.64575822787275,0.08819873645207865,0.0,0.0
0.028918740965388212,0.6617705122041679,0.6466452802565613,1.0917304223968085,-0.07459757131984443,0.7718482747055332,0.5139476277569266,1.2910806714018013,0.04028141575388,-0.18316759974861702,0.7335288095589269,0.7926369284258566,1.490174916537098,0.23333510766074292,-0.2949701384995188,1.6456026312428396,0.22453147132588647,0.0,0.0
0.02223614162305529,0.6595316601587582,0.6439876908746326,1.090173300966826,-0.08033799544765922,0.7751012569559592,0.5162828688330654,1.2920595258713237,0.04028141575388,-0.18316759974861702,0.7335288095589269,0.7926369284258566,1.4865070234942186,0.23240978317608188,-0.29434362247103696,1.6453243561999964,0.3047697989977606,0.0,0.0
0.012263006383369874,0.6563566415549167,0.6399509637141694,1.0877268573000973,-0.08925827200066841,0.780261607760859,0.5197919661822057,1.2934161273890417,0.04028141575388,-0.18316759974861702,0.7335288095589269,0.7926369284258566,1.4808053322551615,0.2309685106192517,-0.2933578998284224,1.6448196050930335,0.38567299298400176,0.0,0.0
0.0027735489408729913,0.6534739348893207,0.6358630795681554,1.0851292399289232,-0.09738458578152472,0.7851111428052105,0.522818444533825,1.2944197062688194,0.04028141575388,-0.18316759974861702,0.7335288095589269,0.7926369284258566,1.475607971776846,0.2296507280451632,-0.2924426166631022,1.6442570296605077,0.4014681407244614,0.0,0.0
-0.007670388425977658,0.6503589255307912,0.6309558627451539,1.0818847787704664,-0.10625792404354364,0.7907572466228773,0.5261517417574546,1.2953974439476024,0.04028141575388,-0.18316759974861702,0.7335288095589269,0.7926369284258566,1.4696710613845334,0.22814137094269415,-0.291379614443321,1.6435074168507107,0.41439058683606794,0.0,-0.0
-0.01820291019048966,0.6475637126337436,0.625996027815722,1.0784747430353983,-0.11524643626248983,0.7964350569520102,0.5291334367998505,1.2960145063581563,0.04028141575388,-0.18316759974861702,0.7335288095589269,0.7926369284258566,1.4639142945717496,0.22667341462223684,-0.2903294402617209,1.6426616948472972,0.4392667659626477,0.0,0.0
-0.029269033984205706,0.6448947157879988,0.6206229058393521,1.0746466136430726,-0.12507479399501933,0.8028217616362655,0.5321820094376452,1.296407561527017,0.04028141575388,-0.18316759974861702,0.7335288095589269,0.7926369284258566,1.4576140102582185,0.22506231530208495,-0.2891593968142161,1.6416095501604977,0.4574555473189042,0.0,0.0
-0.03936454024451927,0.6426770128302599,0.6154967609459244,1.0708704004682226,-0.1340244825090438,0.8088144485227791,0.5347454869178897,1.2964850298072035,0.04028141575388,-0.18316759974861702,0.7335288095589269,0.7926369284258566,1.4518707502578636,0.2235892382071253,-0.28807199724916843,1.640523652928433,0.46271402755587043,0.0,-0.0
-0.04937603418223575,0.6406767767229662,0.6102088797310296,1.0668651415935986,-0.14249985673472673,0.8148501892552481,0.5371657792123229,1.2964048837173485,0.04028141575388,-0.18316759974861702,0.7335288095589269,0.7926369284258566,1.4461784128849569,0.22212534075785514,-0.28697529102163016,1.6393323367530699,0.4635764675516766,0.0,-0.0
-0.05801089546542337,0.639335670857682,0.6058861246877965,1.0634804466385726,-0.1492271969990062,0.82015715978665,0.5392690891889479,1.2963097831755432,0.04028141575388,-0.18316759974861702,0.7335288095589269,0.7926369284258566,1.4414398664499337,0.22090361227082828,-0.2860465722521786,1.6382452871952613,0.46325277312183955,0.0,-0.0
-0.06748038550783997,0.6380193858054659,0.6009864626070608,1.0595651323205224,-0.15659699547366554,0.8260844350322768,0.5414346220232559,1.2960252146611309,0.04028141575388,-0.18316759974861702,0.7335288095589269,0.7926369284258566,1.4362442910780382,0.21956127769066575,-0.285013744167209,1.6369659754869306,0.4611118237604438,-0.0,-0.0
-0.07387064779809306,0.6372468455264692,0.5975612902130507,1.0567702620265713,-0.1615648999515287,0.8301635745072372,0.5427911774374633,1.2956999677437424,0.04028141575388,-0.18316759974861702,0.7335288095589269,0.7926369284258566,1.4327385018037928,0.21865351611530284,-0.2843059706588034,1.6360377829761497,0.45803894409702245,-0.0,-0.0
-0.08038546209269616,0.6367293633978396,0.5943936279057813,1.0541132940293203,-0.166285282474668,0.8340929690260214,0.5440135362938379,1.2953052997954286,0.04028141575388,-0.18316759974861702,0.7335288095589269,0.7926369284258566,1.429405001271674,0.21778911175798848,-0.283625943433865,1.6351133479088433,0.4583898140132624,0.0,0.0
-0.08615519331847703,0.6364095074861145,0.5916733587942496,1.0517851574046995,-0.17027679649012736,0.837730154617602,0.5451953019176093,1.2949887611190825,0.04028141575388,-0.18316759974861702,0.7335288095589269,0.7926369284258566,1.4264431969424614,0.2170200506791636,-0.2830157491704805,1.6342565076457038,0.4590432307927725,-0.0,0.0
-0.09140605621933852,0.6361716716071194,0.5891422916703457,1.0495954739681739,-0.17390791227342065,0.8410755434534992,0.5462246188547367,1.2946421963607708,0.04028141575388,-0.18316759974861702,0.7335288095589269,0.7926369284258566,1.4237472585920177,0.21631919680222955,-0.282455444683575,1.633447791585104,0.45934451484040933,0.0,-0.0
-0.09655492899709633,0.6359863798192292,0.5866105822882501,1.0473844192869206,-0.17746731980595343,0.8443874790321271,0.5471926085462138,1.2942501389455252,0.04028141575388,-0.18316759974861702,0.7335288095589269,0.7926369284258566,1.4211031321340986,0.21563108484114826,-0.28190151605374997,1.6326288383983216,0.4406651525697375,-0.0,-0.0
-0.09871108789930676,0.6359286257568932,0.5855298070293845,1.046432022267456,-0.17895742664120867,0.8457873561749215,0.5475809405721709,1.294064499100916,0.04028141575388,-0.18316759974861702,0.7335288095589269,0.7926369284258566,1.419995597565474,0.21534256360580145,-0.2816676769407224,1.6322751855496989,0.3644074620494386,-0.0,-0.0
-0.09886871099916088,0.6359231637103941,0.5854458443170287,1.0463583286542375,-0.17906601082343293,0.8458897731343433,0.5476087207110603,1.2940503145067985,0.04028141575388,-0.18316759974861702,0.7335288095589269,0.7926369284258566,1.4199148726467403,0.21532152526378207,-0.2816505772932602,1.6322490838257293,0.29438001440788053,-0.0,-0.0
-0.09684783794177416,0.6359688723576872,0.5864675360763398,1.0472622250440957,-0.17773939309448072,0.8445856811609798,0.5472331219375773,1.2942098824670025,0.04028141575388,-0.18316759974861702,0.7335288095589269,0.7926369284258566,1.420953047957868,0.2155921004049151,-0.28187054237997783,1.6325850739982026,0.24272295384353862,0.0,-0.0
-0.09324142733888335,0.6360207555862797,0.5881779452762763,1.0487831387058864,-0.1753644063388587,0.8421702485608095,0.5464873093672117,1.2944572617878705,0.04028141575388,-0.18316759974861702,0.7335288095589269,0.7926369284258566,1.4228112832990212,0.21607621326209647,-0.282263053217012,1.6331794482223858,0.2289158297724312,0.0,-0.0
-0.09069783359221345,0.6361037141898988,0.5894374441552489,1.0498868107299681,-0.17360634185472126,0.8405286665765027,0.5460163911825833,1.2946600786532434,0.04028141575388,-0.18316759974861702,0.7335288095589269,0.7926369284258566,1.4241175913682402,0.2164162944770713,-0.2825374699716029,1.6335884679742463,0.22861570003890305,0.0,-0.0
-0.08745501152486108,0.636224196736138,0.5910278923699539,1.051274227073472,-0.1713646537555818,0.8384454520824639,0.5454033811381309,1.2949027073694128,0.04028141575388,-0.18316759974861702,0.7335288095589269,0.7926369284258566,1.4257827943065144,0.2168495907000379,-0.2828859314395446,1.6341019766248648,0.2003162072125382,-0.0,-0.0
-0.08305643804267196,0.6364129607695885,0.5931588453992297,1.0531223099303946,-0.16832341212252327,0.8356364252603531,0.5445500770918225,1.295204253678639,0.04028141575388,-0.18316759974861702,0.7335288095589269,0.7926369284258566,1.4280411526693297,0.2174368484720919,-0.28335619455854844,1.6347847895482541,0.17663483195786778,-0.0,-0.0
-0.07840994816814591,0.636648469797897,0.5953723416756048,1.0550264212738734,-0.16527050898414009,0.832722073497328,0.5435770708427154,1.2954326757195724,0.04028141575388,-0.18316759974861702,0.7335288095589269,0.7926369284258566,1.4304263824597179,0.2180565462299684,-0.28384956589806026,1.6354865052816643,0.1560620306828908,0.0,-0.0
-0.07297110637089906,0.6369684840453379,0.5979171043816577,1.0571961790117528,-0.16150789856646872,0.8293055147906503,0.5424479267476309,1.2957116742476873,0.04028141575388,-0.18316759974861702,0.7335288095589269,0.7926369284258566,1.4332179297211252,0.21878111804388573,-0.2844229135311437,1.6362837641415064,0.148554044199524,0.0,-0.0
-0.06760989459051484,0.6373347296617097,0.6003725483284181,1.0592673896054867,-0.15779746533532757,0.8259716927590954,0.5412906339490621,1.2959304231402535,0.04028141575388,-0.18316759974861702,0.7335288095589269,0.7926369284258566,1.435969244633233,0.21949444115732683,-0.2849833344032078,1.6370419298107541,0.13482705457377533,0.0,-0.0
-0.06149091773271059,0.6378094590982497,0.603115782932843,1.0615559875014673,-0.15356074347352047,0.8222048633971677,0.5399201012488485,1.2961167869339372,0.04028141575388,-0.18316759974861702,0.7335288095589269,0.7926369284258566,1.4391091365400082,0.22030758951298202,-0.2856176942351039,1.6378762121187553,0.11393737021254666,0.0,-0.0
-0.05450521823382099,0.6384247732200599,0.6061708088746077,1.064071414307676,-0.1487213267243752,0.8179542539378524,0.5382908963321109,1.2962470395722907,0.04028141575388,-0.18316759974861702,0.7335288095589269,0.7926369284258566,1.4426935676300179,0.22123464612849028,-0.28633512048338144,1.6387883862027794,0.1056304932429169,-0.0,-0.0
-0.04811613519188814,0.6390634781927257,0.6088852568375527,1.0662713420869883,-0.1442923134712556,0.8141186508474698,0.5367336287333139,1.2962799580169713,0.04028141575388,-0.18316759974861702,0.7335288095589269,0.7926369284258566,1.4459718629111706,0.22208123566789306,-0.28698428088504835,1.639580786619357,0.10359499180499776,0.0,-0.0
-0.03902123820132544,0.6400707261501435,0.612646215581454,1.0692731450154842,-0.13798351224003744,0.8087263577273084,0.534429574262142,1.29621444919104,0.04028141575388,-0.18316759974861702,0.7335288095589269,0.7926369284258566,1.4506388349741568,0.2232847295163525,-0.2878993836270846,1.6406545042657519,0.0857962173972316,0.0,-0.0
-0.031431379507831626,0.6410267654382789,0.6156630921079234,1.0716254999692079,-0.13271348466150232,0.804306931510125,0.5324033871689732,1.2960260646159742,0.04028141575388,-0.18316759974861702,0.7335288095589269,0.7926369284258566,1.4545342261391196,0.22428718615053284,-0.28865252778103573,1.641486346722814,0.07347891484696432,0.0,-0.0
-0.023906223320887963,0.6420693046156264,0.6185541990609468,1.0738328056580044,-0.12748370874709655,0.7999919359415407,0.5303091064986535,1.2957283547119907,0.04028141575388,-0.18316759974861702,0.7335288095589269,0.7926369284258566,1.4583973917916664,0.22527960270261382,-0.28939067971656635,1.6422582253412792,0.07266916737950087,0.0,-0.0
-0.015101848174089041,0.6433980167048617,0.621821294907515,1.0762716070781428,-0.1213591188218991,0.7950210333620228,0.5277599513158415,1.295250976375811,0.04028141575388,-0.18316759974861702,0.7335288095589269,0.7926369284258566,1.4629187916851838,0.22643904946689664,-0.2902444957003356,1.643100196232522,0.058338853178896644,0.0,-0.0
-0.006743142956482198,0.6447795686648383,0.6247953353950246,1.0784286669931689,-0.1158287518747178,0.7904271749291455,0.5251788916073714,1.2945880646277044,0.04028141575388,-0.18316759974861702,0.7335288095589269,0.7926369284258566,1.467213455362418,0.2275380147136066,-0.291044323128744,1.6438318647043366,0.049314336618881974,-0.0,-0.0
0.001810831984521595,0.6463091951996447,0.6277153471712689,1.0804836368877864,-0.1101628058737656,0.7858069519228674,0.5224361754377537,1.2937753736776703,0.04028141575388,-0.18316759974861702,0.7335288095589269,0.7926369284258566,1.4716110019426951,0.2286609860976312,-0.29185250572366495,1.6445150511437157,0.04350816571663879,-0.0,-0.0
0.010628380146172817,0.6480072866546105,0.630595502406586,1.0824422807705725,-0.10400727842158734,0.781092452404273,0.5195509392202242,1.2928583984383486,0.04028141575388,-0.18316759974861702,0.7335288095589269,0.7926369284258566,1.4761472338332102,0.22981687392022865,-0.29267481566431314,1.6451502575650299,0.035709503723057825,-0.0,-0.0
0.020338954401122655,0.6500142318312708,0.6336203898807895,1.0844193136443891,-0.09721865232766704,0.7760023756912866,0.5162460350697208,1.2916784809341522,0.04028141575388,-0.18316759974861702,0.7335288095589269,0.7926369284258566,1.4811470727089546,0.23108799805727365,-0.2935683017024853,1.6457715486804265,0.03649695249613591,-0.0,0.0
0.029381158132520714,0.6520225688588535,0.6362866987243982,1.0860768918729353,-0.09088675438250753,0.7713677925610212,0.5130378089078241,1.2904041163165558,0.04028141575388,-0.18316759974861702,0.7335288095589269,0.7926369284258566,1.485807681403972,0.2322698427516976,-0.29438799296812035,1.6462699051555978,0.027820892010858116,-0.0,-0.0
0.03916863194382199,0.6543363137582436,0.6390214287218378,1.0876873336047759,-0.08402173613805532,0.7664579630278592,0.5094331327558553,1.2888461930908486,0.04028141575388,-0.18316759974861702,0.7335288095589269,0.7926369284258566,1.4908580293064408,0.2335473869973458,-0.2952629580205444,1.646728544059997,0.006613329885129849,-0.0,-0.0
0.05139777694820299,0.6574155854445787,0.6422338297726244,1.0894521904984422,-0.07542806752627568,0.7604687954531881,0.5047502837297768,1.2866559946263159,0.04028141575388,-0.18316759974861702,0.7335288095589269,0.7926369284258566,1.497176724318657,0.23514144444274612,-0.29633969624914236,1.647192263918455,-0.03364228738352136,-0.0,-0.0
0.06308328678911479,0.6605818359130923,0.6450591044815903,1.0908445626005598,-0.06719609901740876,0.7549213680221223,0.5000613408891954,1.2842689955061113,0.04028141575388,-0.18316759974861702,0.7335288095589269,0.7926369284258566,1.5032257570509575,0.23666217145117396,-0.29734897735881727,1.6475046208686057,-0.050549963053052205,0.0,-0.0
0.07497465993857942,0.6640207441621934,0.6476962209718327,1.0919765888590471,-0.05879807731703373,0.749449004126869,0.4950804802534128,1.2815498546775133,0.04028141575388,-0.18316759974861702,0.7335288095589269,0.7926369284258566,1.509393609521203,0.23820746328108994,-0.29835707819913787,1.647694967541494,-0.06412544726786767,-0.0,-0.0
0.0873417406962345,0.6678261958406134,0.6501863245504992,1.092853038524336,-0.05004051482315861,0.743943083807258,0.4896776007343519,1.2784102510936866,0.04028141575388,-0.18316759974861702,0.7335288095589269,0.7926369284258566,1.5158225469363777,0.23981239036267307,-0.299385479525071,1.64775742329734,-0.07144633182712239,0.0,-0.0
0.10073794598618112,0.6722059380112531,0.6525979976289858,1.0934637181301676,-0.04052608270676573,0.7381910125601908,0.48357244012369827,1.2746522671918532,0.04028141575388,-0.18316759974861702,0.7335288095589269,0.7926369284258566,1.5228042204838321,0.24154860376507942,-0.30047688052055366,1.6476715888517164,-0.07284922511112844,-0.0,-0.0
0.11154578139723362,0.6760698084452248,0.6544365277568773,1.0937495622366442,-0.032541990465860954,0.7335759037844684,0.47823569289688095,1.2711795150994376,0.04028141575388,-0.18316759974861702,0.7335288095589269,0.7926369284258566,1.528660761958305,0.24299875991763606,-0.3013691123030303,1.6474597667225652,-0.07862320526269477,-0.0,-0.0
0.12156935692048373,0.6800024807585272,0.6561869302437919,1.0939347224193183,-0.024769439959600483,0.729449603183868,0.47313890965784683,1.267731658294449,0.04028141575388,-0.18316759974861702,0.7335288095589269,0.7926369284258566,1.5340893742809723,0.24433796531536164,-0.30217791616397083,1.6471547807951723,-0.07875330306838507,0.0,-0.0
0.12961235401590793,0.6832900066125495,0.6574442159298036,1.093910257241769,-0.018515232560517757,0.72626029129778,0.46890830895595736,1.2647600075793555,0.04028141575388,-0.18316759974861702,0.7335288095589269,0.7926369284258566,1.5384567469816166,0.24541156830402752,-0.3028149073013815,1.6468284203371586,-0.0792069596348841,0.0,-0.0
0.13834148136788219,0.6872381596601331,0.65901807188672,1.0939361656996378,-0.011477460068178857,0.7229489795045386,0.4642714672960369,1.2614153186666677,0.04028141575388,-0.18316759974861702,0.7335288095589269,0.7926369284258566,1.54337085680787,0.2466160657396998,-0.30351914541051755,1.6463878807467287,-0.08131003967721588,-0.0,-0.0
