muneebpandith/TeleoperationWork/DATASET/MORE_DATA/training_data_for_transformer1686208017.4087443.csv
J0,J1,J2,J3,J4,J5,J6,J7,J8,J9,J10,J11,J12,J13,J14,J15,ThetaXHG,ThetaYHG,ThetaZHG
-0.046166663421913855,0.5627590295043245,0.6500496593279148,1.0882592024369402,-0.1314703199598922,0.8452643980939795,0.5949820486597192,1.3202351866380624,0.0014577246205850856,0.037169837828394246,0.7344343280347754,0.2378790530535346,1.3461624904629415,0.22364279452590552,-0.29271406149252804,1.6633803786860195,0.0,0.0,0.0
-0.034908182796253046,0.5636575076680094,0.654409900056142,1.0917496633897448,-0.12508009573080786,0.837760816590858,0.5922082720700905,1.320605749993353,0.0014577246205850856,0.037169837828394246,0.7344343280347754,0.2378790530535346,1.3501714588327265,0.2247094594839618,-0.2936957654266494,1.6656086705125335,-0.005673843154072026,0.0,0.0
-0.02271466975240937,0.564841115635597,0.6589181639779742,1.0952641250918287,-0.1181541776222298,0.8297737568982861,0.5890121339851379,1.320771829338381,0.0014577246205850856,0.037169837828394246,0.7344343280347754,0.2378790530535346,1.3545163222779373,0.2258641164754698,-0.294747654246023,1.667957169856983,-0.004877548671321128,0.0,-0.0
-0.00981823758054403,0.5662181521245505,0.663189157721795,1.0984989206262736,-0.11048573041286014,0.821429492790971,0.5854593944388339,1.3207435878251599,0.0014577246205850856,0.037169837828394246,0.7344343280347754,0.2378790530535346,1.3591265874659135,0.22708768149225964,-0.29585019976876414,1.6703732152841075,-0.018914957156070063,0.0,-0.0
0.0016704801793532044,0.5677659526275713,0.6669943029786977,1.1012653123329241,-0.10394511909538356,0.8142000897109536,0.5820428302372065,1.3203990487280988,0.0014577246205850856,0.037169837828394246,0.7344343280347754,0.2378790530535346,1.3632297409845997,0.22817508902015946,-0.2968189039104381,1.6724523637226394,-0.023194828891531072,0.0,0.0
0.013787573837512683,0.5696057145254915,0.6707948504201889,1.1039227427701224,-0.09703779788121308,0.8067178348338584,0.5782458843366247,1.3197936194040027,0.0014577246205850856,0.037169837828394246,0.7344343280347754,0.2378790530535346,1.367563493731465,0.22932209817339716,-0.2978304862963606,1.6745819809973685,-0.004331315769451796,0.0,0.0
0.02565139598901239,0.5716195577094174,0.6742971311906032,1.1062581571346466,-0.09026426350819655,0.799539859471815,0.5743284807393955,1.3189491002446567,0.0014577246205850856,0.037169837828394246,0.7344343280347754,0.2378790530535346,1.371814102735985,0.23044550220223203,-0.29881091469855103,1.6766024429273436,0.0032742369104595322,0.0,0.0
0.03656719199188366,0.5736627490927712,0.6773229348736577,1.1081686804752078,-0.08402122823356527,0.7930694773232883,0.5705439310226496,1.3179433171010722,0.0014577246205850856,0.037169837828394246,0.7344343280347754,0.2378790530535346,1.3757327527629588,0.2314796937333731,-0.29970436097799114,1.6784037769495888,-0.0026358126769294417,0.0,-0.0
0.04867717845174843,0.5761227377477598,0.6804793312868068,1.1100464178948521,-0.0770830113970269,0.7860289584101854,0.5661610859437817,1.316591783716384,0.0014577246205850856,0.037169837828394246,0.7344343280347754,0.2378790530535346,1.3800889615347998,0.2326278171516572,-0.30068709358578305,1.6803437881876908,-0.003925234100339708,0.0,-0.0
0.060977792766411514,0.5788384103687754,0.6834595541357236,1.1116824426874996,-0.07002048160165247,0.77903406771564,0.5615010468317733,1.3149505514742548,0.0014577246205850856,0.037169837828394246,0.7344343280347754,0.2378790530535346,1.3845248037879538,0.23379514360517653,-0.3016761406002016,1.682248990412319,-0.011128209597429804,0.0,-0.0
0.07537137969083674,0.5740891085058418,0.6716236714223792,1.1031558235225059,-0.06376212257950373,0.7705517482982928,0.5550374286767816,1.31217333379933,0.0014577246205850856,0.037169837828394246,0.7344343280347754,0.2378790530535346,1.4026139288655581,0.23854786892840404,-0.3056619368037311,1.6897283524405222,-0.010167836398339722,0.0,0.0
0.08776708573162696,0.5771602483724334,0.6742565390633133,1.10438305800684,-0.05660896073514096,0.763855455645662,0.5498837738202985,1.30991676890999,0.0014577246205850856,0.037169837828394246,0.7344343280347754,0.2378790530535346,1.4071313917914845,0.2397268035558756,-0.30661070965158815,1.6913047564578663,-0.01908288332592198,0.0,-0.0
0.09892024461802565,0.580126743499779,0.6764149856130917,1.105235104827884,-0.050154289434154016,0.757980913737008,0.5450503820628919,1.3076259177555525,0.0014577246205850856,0.037169837828394246,0.7344343280347754,0.2378790530535346,1.411209456082407,0.24078914490950218,-0.3074572208565331,1.6926632383233498,-0.0203672621759046,0.0,-0.0
0.11127037250997845,0.5836141698395634,0.678594343492263,1.1059272193762635,-0.04298707677242267,0.7516279687381515,0.5395012225962583,1.30482536993553,0.0014577246205850856,0.037169837828394246,0.7344343280347754,0.2378790530535346,1.4157396995302607,0.24196731500631632,-0.3083877359680744,1.6941079105268018,-0.020963963067872026,0.0,-0.0
0.11989366276747425,0.586206070651902,0.6799521377474546,1.1062157522169205,-0.03796632126923961,0.7473114547772122,0.5354730327148961,1.3026623889223996,0.0014577246205850856,0.037169837828394246,0.7344343280347754,0.2378790530535346,1.4189149315430991,0.24279153351743388,-0.30903235985789995,1.6950705457114832,-0.023264240412046368,0.0,-0.0
0.13223371960156674,0.5900722356931101,0.6817303229304423,1.1064335369806697,-0.030764249704088847,0.7412555071409287,0.529553851552112,1.299356095233409,0.0014577246205850856,0.037169837828394246,0.7344343280347754,0.2378790530535346,1.423471639057199,0.24397275793092013,-0.3099499264569989,1.6964020037511323,-0.022732976707702916,0.0,0.0
0.1439134284883711,0.5939449562683061,0.6831884885914514,1.106374397408555,-0.023625447828755836,0.7356799415110533,0.5237526760784686,1.2959525088722699,0.0014577246205850856,0.037169837828394246,0.7344343280347754,0.2378790530535346,1.4278029373854924,0.2450933445156969,-0.31081195483855856,1.6975996603295782,-0.02444003621680362,0.0,-0.0
0.1551342384662161,0.5979798921875882,0.6845895292926625,1.1062114736542177,-0.016471582932419786,0.7306426161295614,0.5181887851889002,1.2925454013672282,0.0014577246205850856,0.037169837828394246,0.7344343280347754,0.2378790530535346,1.4319725226649225,0.2461700373528459,-0.3116326277174929,1.698690719660519,-0.03153428585305331,0.0,-0.0
0.16524360249670766,0.6018488865516994,0.6857710942345461,1.105916876999327,-0.009831323774220265,0.7261247417600017,0.5128657900101041,1.2891475289078878,0.0014577246205850856,0.037169837828394246,0.7344343280347754,0.2378790530535346,1.4358454415432613,0.247168253238734,-0.3123868004322008,1.6996490485317062,-0.03399369991585981,0.0,-0.0
0.17353316393732426,0.6052446394066532,0.6867561388197368,1.1056140664102343,-0.004380264349815633,0.7225376262819767,0.5083756139182225,1.2861771176572774,0.0014577246205850856,0.037169837828394246,0.7344343280347754,0.2378790530535346,1.4390270172466464,0.2479868300375486,-0.3130002215177264,1.7003944241863058,-0.03357747666993693,0.0,-0.0
0.18303179715156104,0.6092611940003089,0.6877519614097594,1.1051116111394657,0.002134636537201853,0.7185300813626564,0.5031036051695762,1.2825931652793299,0.0014577246205850856,0.037169837828394246,0.7344343280347754,0.2378790530535346,1.4426855863801091,0.24892674025844247,-0.31369986938308486,1.701212111529508,-0.043666586158007045,0.0,-0.0
0.19311627287587332,0.613678985432425,0.6886459431573335,1.1043877474613761,0.009075164892430026,0.7145416123666213,0.4975289959799373,1.2786853021472546,0.0014577246205850856,0.037169837828394246,0.7344343280347754,0.2378790530535346,1.4465861806260238,0.24992710145018876,-0.3144388138998564,1.7020356809842287,-0.05631763389472898,-0.0,0.0
0.20141264026016104,0.617545662219606,0.6893882323609047,1.1037206258652275,0.015013249715615212,0.7113833636813839,0.49281234119561595,1.2752753935034518,0.0014577246205850856,0.037169837828394246,0.7344343280347754,0.2378790530535346,1.4498026442073646,0.25075046773975007,-0.3150420561565203,1.7026725507113956,-0.0516333742661518,0.0,-0.0
0.20864620691255914,0.6212456527117205,0.6902780649323341,1.1032358274050316,0.02051922833269267,0.7087530885186406,0.48863877278443735,1.272179417959261,0.0014577246205850856,0.037169837828394246,0.7344343280347754,0.2378790530535346,1.4526808164326137,0.25148608351830126,-0.3155773829613047,1.7032113507295459,-0.07136338736928353,0.0,-0.0
0.21403692431921562,0.6241185779389871,0.6909374666650191,1.1028328812096844,0.02489904703091383,0.7068733079755914,0.4854742997272085,1.2697772840149684,0.0014577246205850856,0.037169837828394246,0.7344343280347754,0.2378790530535346,1.4548930455511686,0.2520506920527459,-0.31598578915881437,1.7036041540112654,-0.05098526125411224,-0.0,0.0
0.21947413442937766,0.6271899804304975,0.6917239948977097,1.1024718095835002,0.02959740421842336,0.7050534567428557,0.4822503283750704,1.2672848315988428,0.0014577246205850856,0.037169837828394246,0.7344343280347754,0.2378790530535346,1.4571885091124461,0.25263589699874084,-0.31640713235047796,1.7039947571019205,-0.08339249968974739,-0.0,0.0
0.21366456625577876,0.6238482309256755,0.6909467541646711,1.1029311757976537,0.024566540505908428,0.7069439157949008,0.4857591331317722,1.2700413040275838,0.0014577246205850856,0.037169837828394246,0.7344343280347754,0.2378790530535346,1.4547288904755813,0.25200956761123855,-0.31595835004039696,1.7035950689635735,-0.03004143686630363,0.0,0.0
0.2192879949778623,0.6270207607871292,0.6917644902118961,1.1025626832832032,0.029425106116368213,0.7050579638930133,0.4824291681426142,1.2674700429633334,0.0014577246205850856,0.037169837828394246,0.7344343280347754,0.2378790530535346,1.4571024084115238,0.25261472556770215,-0.316394202850373,1.704000246663852,-0.10664505515840784,0.0,0.0
0.2225306428332997,0.6288847721417089,0.6921995866121944,1.10230774739896,0.03223291089200449,0.7040016197713612,0.48047205383453206,1.2659335461498513,0.0014577246205850856,0.037169837828394246,0.7344343280347754,0.2378790530535346,1.4584750632026622,0.2529642827573555,-0.31664471182170917,1.7042236921527918,-0.001128896250763875,-0.0,0.0
0.22861391871910156,0.6324192891469823,0.6929761534999953,1.1017833506094832,0.03750717623912883,0.7019744910305092,0.4766312729516256,1.2628948125807817,0.0014577246205850856,0.037169837828394246,0.7344343280347754,0.2378790530535346,1.4610546194493732,0.2536207284866492,-0.31711379580910004,1.7046317962130164,-0.1379367490555559,0.0,0.0
0.2293079163878077,0.6328305873319975,0.6930561979421187,1.101713608969185,0.03811034072655537,0.7017598466224692,0.476199023904475,1.2625462684746636,0.0014577246205850856,0.037169837828394246,0.7344343280347754,0.2378790530535346,1.4613498639674232,0.2536957631730918,-0.31716712361873534,1.7046759699148393,0.05797160451078328,-0.0,0.0
0.2362770388603263,0.6369701198738565,0.6938501519440144,1.1010018549664806,0.044370955240732216,0.6996220413281541,0.4718379439995759,1.2590171129094052,0.0014577246205850856,0.037169837828394246,0.7344343280347754,0.2378790530535346,1.4643158320329468,0.25444943187150054,-0.3177024295730244,1.7051168175782188,-0.19313066569594342,-0.0,0.0
0.23460569577767776,0.635914076843626,0.6936271751182983,1.101165898363174,0.04287510942339001,0.7001289076798476,0.4729343446572258,1.2599199013682183,0.0014577246205850856,0.037169837828394246,0.7344343280347754,0.2378790530535346,1.4635827962728583,0.25426344970348486,-0.317571157694628,1.705015088236935,0.16158851435981708,0.0,0.0
0.2435983197058137,0.6416895940561133,0.6950307799243035,1.100424917341596,0.05116501224879655,0.6975106136719772,0.4672670460515186,1.25525650500237,0.0014577246205850856,0.037169837828394246,0.7344343280347754,0.2378790530535346,1.4675131471942946,0.25526102112173904,-0.3182763641460391,1.7055701002926742,-0.28143436514162645,0.0,0.0
0.23636903197776638,0.63691140681303,0.6940449831748983,1.1011859847594632,0.04447658953147004,0.699491771164422,0.47196582139124027,1.2592177134922282,0.0014577246205850856,0.037169837828394246,0.7344343280347754,0.2378790530535346,1.464337540700804,0.2544566710736669,-0.31771246721020957,1.7051630810626344,0.3841150889387604,0.0,0.0
0.24661943548527135,0.6436547341319351,0.6957753221779129,1.100398625741109,0.05453027743793187,0.6964685480357081,0.46525347492084673,1.2536582315084657,0.0014577246205850856,0.037169837828394246,0.7344343280347754,0.2378790530535346,1.4689560051973811,0.25562844922660816,-0.31853948136363575,1.7058036555983227,-0.3895086325116544,0.0,0.0
0.23178288211447734,0.633355175917406,0.6933260438618705,1.101763599739377,0.03995746948343391,0.7003207541404702,0.4749635009422352,1.26195630823117,0.0014577246205850856,0.037169837828394246,0.7344343280347754,0.2378790530535346,1.4622499244047826,0.25393113701506714,-0.3173532419820302,1.7049762335748657,0.6201537396583586,0.0,0.0
0.24465374848808694,0.6418702992241164,0.6958894106949428,1.1010898609488715,0.052525728984668,0.69659083996308,0.46698580564301057,1.2554197861020528,0.0014577246205850856,0.037169837828394246,0.7344343280347754,0.2378790530535346,1.4680176216696266,0.25539614307635794,-0.3183916920791485,1.7058160845327468,-0.492646347170857,0.0,0.0
0.22739628481304883,0.6299673663589774,0.6929592213694145,1.1025842060029878,0.03558804907356013,0.701147000567165,0.4781955805208832,1.2649425610952214,0.0014577246205850856,0.037169837828394246,0.7344343280347754,0.2378790530535346,1.460228558759323,0.25342365146984236,-0.3170105008594489,1.7048310039379582,0.7159986643815985,0.0,0.0
0.24118645001458605,0.6389568304164278,0.6958442598864174,1.1020237605872654,0.04903090181837804,0.6970271002338662,0.46979077747296777,1.2581509264707476,0.0014577246205850856,0.037169837828394246,0.7344343280347754,0.2378790530535346,1.4663910163002907,0.2549906474857015,-0.31812585307819363,1.7057695842842722,-0.5763283814608268,0.0,0.0
0.22281165188348023,0.6264265133965539,0.692574069717527,1.1034414789313973,0.03102110818679286,0.7020155089058061,0.4815709193749392,1.2680551335165116,0.0014577246205850856,0.037169837828394246,0.7344343280347754,0.2378790530535346,1.4581173632690436,0.2528935120166162,-0.3166524783630257,1.704678855764097,0.7520731165478133,0.0,0.0
0.23979109097568524,0.637323190843598,0.6963034157804439,1.1029581122363346,0.047543255079266794,0.6967855419449595,0.47140491796988254,1.2599625258859193,0.0014577246205850856,0.037169837828394246,0.7344343280347754,0.2378790530535346,1.465682977650903,0.25481950215008625,-0.31802926108142593,1.7058840729579425,-0.6423733561751159,0.0,0.0
0.22276033844513135,0.6257653447822595,0.6932138114803919,1.1042054174531548,0.030859827754699982,0.7014656386100765,0.4822604417883583,1.2690444277512722,0.0014577246205850856,0.037169837828394246,0.7344343280347754,0.2378790530535346,1.4580243864413829,0.2528774004848709,-0.3166629578130271,1.7048567235859986,0.7661880833803846,0.0,0.0
0.24042480292585,0.6370966066243189,0.6970988577873829,1.1037071917013381,0.04804830938649775,0.6960157088527961,0.47169294443860693,1.2606419454663953,0.0014577246205850856,0.037169837828394246,0.7344343280347754,0.2378790530535346,1.4658914380363282,0.2548803558876427,-0.31809483068942673,1.70611210975739,-0.6641892270255138,0.0,0.0
0.22161354770970168,0.6243084134149139,0.6937090955468902,1.105113075283207,0.029615882283053615,0.7011700470734595,0.4837028585377259,1.2706974756090605,0.0014577246205850856,0.037169837828394246,0.7344343280347754,0.2378790530535346,1.4574331080012788,0.25273553710185503,-0.3165867786596291,1.70498361135095,0.7696500328900514,0.0,0.0
0.2375595070430964,0.6344945604345529,0.6972601477849989,1.1047134691806018,0.04512528632394761,0.6962078356101173,0.4742114817714125,1.263186386343889,0.0014577246205850856,0.037169837828394246,0.7344343280347754,0.2378790530535346,1.4645267044014079,0.25454225156063154,-0.31787974567914506,1.7061292468114677,-0.681924377504636,0.0,0.0
0.21872936349277813,0.6218154938574254,0.693739550099358,1.105973989786497,0.02669507963745294,0.7014846234226445,0.48610050978546304,1.2730505473856097,0.0014577246205850856,0.037169837828394246,0.7344343280347754,0.2378790530535346,1.4560777020480256,0.2523981109018494,-0.3163680406240784,1.7049640565886184,0.7743131539327416,0.0,0.0
0.2363966499934448,0.632988015914816,0.6977900064742132,1.1056663920726864,0.04385931333073903,0.6958824190152926,0.4757058177042505,1.2649083861823243,0.0014577246205850856,0.037169837828394246,0.7344343280347754,0.2378790530535346,1.4639211570023527,0.2543973219053222,-0.3178026024319061,1.7062659243137437,-0.6786064230690606,0.0,0.0
0.2188005185021397,0.6211885743670976,0.6944492470664565,1.106786655339911,0.026644694822406417,0.7008632023680135,0.48676034867461476,1.2740396085022179,0.0014577246205850856,0.037169837828394246,0.7344343280347754,0.2378790530535346,1.456035160561299,0.2523952698108919,-0.31638949359587054,1.7051628400677032,0.78090637574455,0.0,0.0
0.2368447562457272,0.6325989989998692,0.6985866636231992,1.1064714340835429,0.04417568158604503,0.6951362828905134,0.47614800877211966,1.2657340467419371,0.0014577246205850856,0.037169837828394246,0.7344343280347754,0.2378790530535346,1.4640423625082684,0.2544364060965622,-0.31785403764894066,1.7064927017689093,-0.6919773975858995,0.0,0.0
0.21792014671747384,0.6198944536709425,0.6950083778957364,1.1076951211353359,0.02565797792267794,0.700485471783537,0.48804821204832516,1.27556606745382,0.0014577246205850856,0.037169837828394246,0.7344343280347754,0.2378790530535346,1.455563063675683,0.25228370782839155,-0.31633520478288163,1.7053103444647157,0.7771978095673293,0.0,0.0
0.23667885013706597,0.6317174266192996,0.6993498167714196,1.1074128897237066,0.04387685846895703,0.6944919798805993,0.47706055526552776,1.2670013843501668,0.0014577246205850856,0.037169837828394246,0.7344343280347754,0.2378790530535346,1.4638789504088576,0.25440420053973845,-0.3178579199170725,1.706704195655273,-0.7037666250870376,0.0,0.0
0.21938324400514764,0.6201170043715587,0.6960684263444595,1.1085200309157826,0.02695412030391154,0.6993957954040153,0.48792124310830987,1.2759597161281406,0.0014577246205850856,0.037169837828394246,0.7344343280347754,0.2378790530535346,1.4561345751785568,0.252437753635114,-0.31647024589937106,1.705620434739906,0.7742282928078504,0.0,-0.0
0.23632375321334848,0.6308441725433562,0.6999378360154891,1.1082030702413428,0.04341662715561449,0.6940225230056972,0.4779500521181414,1.2681594109587737,0.0014577246205850856,0.037169837828394246,0.7344343280347754,0.2378790530535346,1.4636464612338962,0.2543528215781116,-0.3178435839521622,1.7068648993672848,-0.7065668681801459,-0.0,0.0
0.21547521785503362,0.6168810842538075,0.6959610623975414,1.109514546893641,0.023020299453039586,0.6999576441651016,0.4910163278563067,1.2789155254539517,0.0014577246205850856,0.037169837828394246,0.7344343280347754,0.2378790530535346,1.4543173668611893,0.2519835366669284,-0.3161710471699994,1.7055524920961045,0.7741483630414429,0.0,-0.0
0.23264253115962552,0.6276042457529719,0.7000331064325997,1.109369441367043,0.03967764267770761,0.694378340532454,0.4810686466132272,1.2712417172297692,0.0014577246205850856,0.037169837828394246,0.7344343280347754,0.2378790530535346,1.461909751063075,0.2539210523562014,-0.31756548343996466,1.7068559388566082,-0.7159181426132443,-0.0,-0.0
0.21382689218017997,0.6151575045468863,0.696283224150164,1.1103672242584812,0.021296841781830885,0.6998810593811641,0.49269341518246096,1.2806976022552368,0.0014577246205850856,0.037169837828394246,0.7344343280347754,0.2378790530535346,1.4535124833157647,0.25178632043954335,-0.31605330158241274,1.7056265969328084,0.76222805441878,-0.0,-0.0
0.2313776343104554,0.6260550204627453,0.7005125952138733,1.1102955998173702,0.03831517752484005,0.6941159839361228,0.48259451091509714,1.2729585504120264,0.0014577246205850856,0.037169837828394246,0.7344343280347754,0.2378790530535346,1.4612637773262895,0.2537653277615933,-0.31747974071394,1.7069778117638204,-0.7309920589847291,-0.0,-0.0
0.21479631368535296,0.6151353293898218,0.6971571291340033,1.1111170179532246,0.02212513574383399,0.6990141294594358,0.492783860900827,1.2812067005817374,0.0014577246205850856,0.037169837828394246,0.7344343280347754,0.2378790530535346,1.453872705559811,0.25188562034877027,-0.316146623368172,1.705880215342052,0.7389632371438549,-0.0,-0.0
0.23366011778716633,0.6268842366067001,0.7016662120245503,1.1109949464289537,0.040423625957867554,0.692844558902795,0.48189554198579193,1.2728442206612296,0.0014577246205850856,0.037169837828394246,0.7344343280347754,0.2378790530535346,1.4622043536349638,0.25401255627862435,-0.3176783112588447,1.707322264802841,-0.7100195871792782,-0.0,-0.0
0.2176517306104374,0.6162663108959968,0.6985048004847039,1.1118807286300219,0.02477881923305564,0.69750970137109,0.49180893877320775,1.2809147693274276,0.0014577246205850856,0.037169837828394246,0.7344343280347754,0.2378790530535346,1.4550631072494886,0.25219713559743906,-0.31639349551674867,1.706284321193231,0.7161557968723506,-0.0,-0.0
0.2355882363003732,0.627769541740184,0.7030142484214719,1.111839520930136,0.04273412568326204,0.6915534970705898,0.4810266779869122,1.272564395607381,0.0014577246205850856,0.037169837828394246,0.7344343280347754,0.2378790530535346,1.4632377399466963,0.2542828889576784,-0.3178915905889578,1.7076664223523825,-0.6973323668651839,-0.0,0.0
0.21906203570316113,0.6165176015875596,0.6995286079907334,1.1126651429840417,0.026073333794531084,0.6964415564460258,0.4916626135116,1.2812773111171085,0.0014577246205850856,0.037169837828394246,0.7344343280347754,0.2378790530535346,1.4556332242782446,0.25235060008537463,-0.31652719194392687,1.7065874644143744,0.7629007045043367,0.0,0.0
0.22901475926216322,0.6229297245235506,0.7020012554264885,1.1126063275738995,0.03604220094371703,0.6931602180905385,0.48565044668337864,1.2766041891199384,0.0014577246205850856,0.037169837828394246,0.7344343280347754,0.2378790530535346,1.4601704778999827,0.25350802911400155,-0.31735740247401073,1.7073457839073667,-0.5377462060404604,0.0,0.0
0.21133901356162643,0.6113834531365541,0.6983271157556966,1.1133725057228703,0.01879964990049281,0.6984701436027423,0.4964115776227356,1.2852393234664194,0.0014577246205850856,0.037169837828394246,0.7344343280347754,0.2378790530535346,1.452311461956351,0.2515078213086523,-0.3159361428269403,1.7061509296968298,0.7831725014651644,0.0,-0.0
0.2280177280519062,0.6216458640177146,0.7024413527323621,1.113410943211704,0.03495662180831764,0.6929029720502388,0.48691614657205695,1.2780434943237673,0.0014577246205850856,0.037169837828394246,0.7344343280347754,0.2378790530535346,1.4596555319357505,0.25338444826361006,-0.3172913584716831,1.7074595029955413,-0.6478263498411754,-0.0,-0.0
0.21587588127932283,0.613742837820762,0.6998881950231892,1.113903973663159,0.023117028764434534,0.6965787591193063,0.4942762874429119,1.2839258891675553,0.0014577246205850856,0.037169837828394246,0.7344343280347754,0.2378790530535346,1.4542624577731886,0.25201139719505394,-0.3163148233406868,1.70663052918746,0.4717954207196034,0.0,0.0
0.2281659243440175,0.6214223365365122,0.7028004562996778,1.1137903167592906,0.035043820745196616,0.6925758856761314,0.4871597173487194,1.2784541225310002,0.0014577246205850856,0.037169837828394246,0.7344343280347754,0.2378790530535346,1.4596851541143503,0.2533957782283006,-0.3173104297335054,1.7075613080919418,-0.5012334564401604,0.0,0.0
0.21083920004068746,0.6099168281094409,0.6988456233730739,1.1143074872613434,0.017626735349795412,0.697981650367719,0.4979889843642429,1.2871086698294565,0.0014577246205850856,0.037169837828394246,0.7344343280347754,0.2378790530535346,1.451753137919518,0.25137628710632004,-0.315874326969825,1.7063429940189652,0.7256523118409072,-0.0,-0.0
0.22905573005577146,0.6210933651632135,0.7033720978856673,1.1143863212603156,0.03527032290456733,0.6918551613408969,0.4876663733000477,1.2793259931992698,0.0014577246205850856,0.037169837828394246,0.7344343280347754,0.2378790530535346,1.4597663343000087,0.2534246642614177,-0.3173549303800764,1.7077852504991025,-0.7618340798815367,0.0,0.0
0.20882257391204215,0.6078938981505015,0.6991475056513343,1.1152455576064209,0.01553185591740983,0.6979758353441609,0.4999450608231433,1.2891388818884117,0.0014577246205850856,0.037169837828394246,0.7344343280347754,0.2378790530535346,1.4507811802994437,0.25113697162931964,-0.3157286290668641,1.7064079521857156,0.8235251693874478,-0.0,-0.0
0.22849649729256102,0.6201182350127887,0.7044911428112319,1.1156632257851873,0.03515849243701453,0.6910717508770957,0.4885511256995742,1.2806196813263004,0.0014577246205850856,0.037169837828394246,0.7344343280347754,0.2378790530535346,1.4596876900578757,0.25341497936794655,-0.31737819242688353,1.7080394585267236,-0.7659740149457356,-0.0,-0.0
0.2124511852347083,0.6096661580829228,0.701125542476263,1.116328718944106,0.01950946827356794,0.6959320350355258,0.49827888163627965,1.2883843016926257,0.0014577246205850856,0.037169837828394246,0.7344343280347754,0.2378790530535346,1.4525685864706563,0.251602158274954,-0.31608951465543916,1.7069466898640038,0.7272150215067444,0.0,0.0
0.22090249633724668,0.6148815120175545,0.7031947953241572,1.1163268676311666,0.02769996641979349,0.6931173454454246,0.4934568275405309,1.284730106233711,0.0014577246205850856,0.037169837828394246,0.7344343280347754,0.2378790530535346,1.4562854702599757,0.25255205334037,-0.3167747100589497,1.7076052112044386,-0.4152091185697251,-0.0,0.0
0.20471087427302084,0.6045986457360271,0.6995268293134105,1.116680354532392,0.011955648804316803,0.698257807066086,0.5029959974094482,1.292162052644848,0.0014577246205850856,0.037169837828394246,0.7344343280347754,0.2378790530535346,1.4491328788704498,0.2507274944321346,-0.3154686508454285,1.7064265786296284,0.7306248633349247,-0.0,0.0
0.21781632984155824,0.6124698888359771,0.702954258900593,1.1169361326349447,0.024618046642347152,0.6937069494034807,0.4957419732873595,1.2868148583229104,0.0014577246205850856,0.037169837828394246,0.7344343280347754,0.2378790530535346,1.4548722288403984,0.25219678786907085,-0.3165359335468612,1.7075091465936332,-0.5412765707028124,0.0,0.0
0.19968471470208632,0.6008480354096857,0.6983892065819438,1.1169814113799703,0.006466243572100426,0.6997532733913756,0.5066208356676446,1.2952001919658633,0.0014577246205850856,0.037169837828394246,0.7344343280347754,0.2378790530535346,1.4466322062526529,0.25009324431201674,-0.3150259429309266,1.7061127894227732,0.7585914496843439,-0.0,-0.0
0.21256495510667478,0.6085940683785893,0.702144838244596,1.117558444382547,0.019269412121984637,0.6950059752908481,0.49943398798169486,1.2900154163095865,0.0014577246205850856,0.037169837828394246,0.7344343280347754,0.2378790530535346,1.4524294488965377,0.2515792437825982,-0.3161107702901516,1.7072545856492478,-0.7117727496176116,-0.0,-0.0
0.1955460229492415,0.598094668619781,0.6979745878068716,1.1175608548346816,0.0027748834701041836,0.7006868379674944,0.5091333153990153,1.2973512468557429,0.0014577246205850856,0.037169837828394246,0.7344343280347754,0.2378790530535346,1.4449500935580142,0.24966745535473114,-0.314731697241969,1.705926500422833,0.6920593036734876,-0.0,-0.0
0.2268568293248076,0.616282649854788,0.7067825214605699,1.1189061633001314,0.032918649756056906,0.6892798800416721,0.4924467138206632,1.2854947638558516,0.0014577246205850856,0.037169837828394246,0.7344343280347754,0.2378790530535346,1.4585890225372082,0.25316650583978006,-0.31729462888611715,1.7086892036345525,-0.6678981216653009,0.0,0.0
0.20787580452139792,0.6037584294499055,0.702367608459827,1.1193875967349465,0.013848592531027402,0.6953081617068367,0.5041991718914371,1.294784153612882,0.0014577246205850856,0.037169837828394246,0.7344343280347754,0.2378790530535346,1.449932884643341,0.25096043466591716,-0.3157237922648781,1.7073302469117881,0.7763861859357676,0.0,0.0
0.22354297657513736,0.6132535427662891,0.7063792960693156,1.1195863948380453,0.029004798961680768,0.6899122811601975,0.49546270272360476,1.2883153838437342,0.0014577246205850856,0.037169837828394246,0.7344343280347754,0.2378790530535346,1.4567923630602007,0.2527162446597521,-0.3169963110117725,1.7086046681315614,-0.5887792647651043,0.0,0.0
0.20665825598748877,0.6022453374533722,0.7023159105048774,1.1198559575825469,0.012062511417531646,0.6954108444263492,0.5057628516365427,1.296349754142919,0.0014577246205850856,0.037169837828394246,0.7344343280347754,0.2378790530535346,1.4491101846635737,0.25075647735063616,-0.3155959059138862,1.7073530676156168,0.7821856359211179,0.0,0.0
0.21777137110817452,0.6089453678895856,0.7051970257585288,1.1200384783694486,0.022808149526905463,0.6915444511472159,0.4996096585130717,1.2918264070550975,0.0014577246205850856,0.037169837828394246,0.7344343280347754,0.2378790530535346,1.4539704703722707,0.2520011309050257,-0.31649935470568014,1.708269235431463,-0.412424230900736,0.0,0.0
0.19860908467212307,0.5969427059474742,0.7006844751289254,1.1202632272111606,0.004197603424829666,0.6978278119622077,0.5106820080371619,1.3002826655670343,0.0014577246205850856,0.037169837828394246,0.7344343280347754,0.2378790530535346,1.4455419711644661,0.24984783347135495,-0.3149518886230884,1.7068171553474096,0.7718520924246257,-0.0,-0.0
0.21732421613356398,0.607906385864023,0.7058569514640548,1.1209510586228082,0.02223622184045601,0.6910458178926563,0.5006487440529431,1.29313127641465,0.0014577246205850856,0.037169837828394246,0.7344343280347754,0.2378790530535346,1.4536906468645494,0.25193831100402325,-0.316480210168182,1.7084501894965982,-0.7852712597017187,-0.0,-0.0
0.2005700589535091,0.5974315322091098,0.7018916733693603,1.1211260102757181,0.005967611350977453,0.6965608181147047,0.5103060238369096,1.3004866992008675,0.0014577246205850856,0.037169837828394246,0.7344343280347754,0.2378790530535346,1.4463272264311584,0.2500567093530206,-0.3151274669304789,1.7071750795029943,0.6793373452508142,0.0,0.0
0.21497122139996055,0.6059251931105483,0.7058146201408774,1.1215855100350167,0.01985869648625789,0.6913864669710358,0.5025298485596662,1.294908858905836,0.0014577246205850856,0.037169837828394246,0.7344343280347754,0.2378790530535346,1.4526006382309464,0.25166560460214354,-0.316301618083412,1.708415526132132,-0.5361004894911341,0.0,0.0
0.19544255482006812,0.5938156980968998,0.7010910801807981,1.1216709144750703,0.0009139347121866932,0.6979043710050049,0.513680347053368,1.3033275592876994,0.0014577246205850856,0.037169837828394246,0.7344343280347754,0.2378790530535346,1.4440317612951135,0.249474669518162,-0.31472316385974297,1.7069008306251137,0.7848695022011732,-0.0,-0.0
0.21668967923892893,0.6061154242440425,0.7071100381068927,1.1226231223351752,0.021366740192635115,0.6900741468747317,0.502446793535814,1.2954370506568402,0.0014577246205850856,0.037169837828394246,0.7344343280347754,0.2378790530535346,1.4532596111950429,0.251844016805366,-0.31646013115384164,1.708796041491018,-0.8018600314989254,-0.0,0.0
0.1990344580778583,0.5951077895773724,0.702900328493419,1.1227742540720087,0.004228043769873513,0.695920699616466,0.5125851097092846,1.303124852019137,0.0014577246205850856,0.037169837828394246,0.7344343280347754,0.2378790530535346,1.4455107588423461,0.24986321742903844,-0.3150352893861039,1.7074437184840194,0.7880878192076501,0.0,0.0
