muneebpandith/TeleoperationWork/DATASET/MORE_DATA/training_data_for_transformer1686208132.7997792.csv
J0,J1,J2,J3,J4,J5,J6,J7,J8,J9,J10,J11,J12,J13,J14,J15,ThetaXHG,ThetaYHG,ThetaZHG
0.12991502532256222,0.6225775380733811,0.6469420724675812,1.087414891047967,0.008383308473608781,0.7908010232020243,0.4905000367288067,1.3056351113581748,0.0014560277678267496,0.03693573982356795,0.734471208461102,0.2378790530535346,1.4160735648031892,0.23186706709276916,-0.2928558383120243,1.6656886138438947,0.03441226347653536,0.0,0.0
0.12176185686623602,0.6186591421358025,0.6438154857697974,1.086019549885919,0.0006845312479171958,0.7942958175177914,0.4942744647939361,1.3079779793981197,0.0014560277678267496,0.03693573982356795,0.734471208461102,0.2378790530535346,1.412545377653942,0.23094014607727728,-0.2921279582232288,1.6645774344356101,0.24394384093154614,0.0,0.0
0.11374741242606155,0.6149487623771323,0.6406024271919504,1.0844743700881734,-0.006868148061964535,0.7978391452779947,0.4978457090450655,1.3100890976915944,0.0014560277678267496,0.03693573982356795,0.734471208461102,0.2378790530535346,1.4090879899048332,0.23003052731440296,-0.29140779285096435,1.6634452817290304,0.37382285029829126,0.0,0.0
0.10231013694481883,0.6098523443812023,0.6358221460357392,1.0820255164581623,-0.01762546868786258,0.8030448587760664,0.5027482774939547,1.3128363056629793,0.0014560277678267496,0.03693573982356795,0.734471208461102,0.2378790530535346,1.4041685225121572,0.22873446371215655,-0.29037336663765034,1.6617737815182052,0.47621560431189786,-0.0,-0.0
0.0947929972024541,0.606770591172378,0.632661027463894,1.0803020390269813,-0.02469474026553846,0.8067502826054581,0.5059267051350993,1.3144725355110995,0.0014560277678267496,0.03693573982356795,0.734471208461102,0.2378790530535346,1.400939809791931,0.2278822074411805,-0.28968527289634133,1.6606199167816342,0.3200489992309211,-0.0,-0.0
0.09403360285541588,0.6064713253170215,0.6323299520789541,1.0801131097339318,-0.025407614239615392,0.8071339338384461,0.5062354242456372,1.3146211606371099,0.0014560277678267496,0.03693573982356795,0.734471208461102,0.2378790530535346,1.4006144590987073,0.22779622175688474,-0.289615318668223,1.6604998654815915,0.05329011602564132,-0.0,-0.0
0.09462152141503545,0.6067020705894239,0.632587185329944,1.0802605393881108,-0.024855810573838767,0.8068361904488952,0.5059973805818369,1.3145073899039943,0.0014560277678267496,0.03693573982356795,0.734471208461102,0.2378790530535346,1.4008662819560278,0.22786278318399394,-0.28966951200677765,1.6605930812421894,-0.0027415795743629054,-0.0,-0.0
0.0961288259985414,0.607295529853764,0.6332448599605869,1.0806362129918945,-0.023440900680291258,0.8060742707835405,0.5053851700073951,1.3142131374562092,0.0014560277678267496,0.03693573982356795,0.734471208461102,0.2378790530535346,1.4015120269972459,0.22803344938681183,-0.28980838282797244,1.660831526175692,-0.0622972840770841,-0.0,-0.0
0.09702207412779644,0.6076500689583757,0.6336318410056211,1.0808553392160385,-0.022602107755290795,0.8056249302236337,0.5050194561780044,1.3140348542411322,0.0014560277678267496,0.03693573982356795,0.734471208461102,0.2378790530535346,1.4018948899450845,0.22813461300856006,-0.28989057338399066,1.660972008971527,-0.027784907855280053,-0.0,0.0
0.09553216005731044,0.6070558938931593,0.6329891013591411,1.0804933029538977,-0.0240014881535697,0.8063722558547506,0.5056323352266047,1.314336093335001,0.0014560277678267496,0.03693573982356795,0.734471208461102,0.2378790530535346,1.4012560992981553,0.22796585014567153,-0.28975358616525854,1.66073850061623,0.08224818444956769,0.0,0.0
0.09314347101514016,0.6061108128720389,0.6319513249293586,1.0799036195168283,-0.026244237834369074,0.8075321326643571,0.5065667468192921,1.314786627947109,0.0014560277678267496,0.03693573982356795,0.734471208461102,0.2378790530535346,1.4002324626902636,0.22769534918314357,-0.2895336839882523,1.6603619566563992,0.126189336175717,-0.0,-0.0
0.09089784796588006,0.6052336842273377,0.6309646917704811,1.079335298374868,-0.028351471091588625,0.8086724774193094,0.5074718236249812,1.315215635557855,0.0014560277678267496,0.03693573982356795,0.734471208461102,0.2378790530535346,1.399270878657991,0.22744114814674565,-0.2893265302047506,1.6600046884996218,0.15073778534725824,0.0,0.0
0.08751191448994722,0.6039272579294508,0.6294614539572289,1.07845858591564,-0.031527058598653596,0.8104041450326044,0.5088200741012882,1.31584051855633,0.0014560277678267496,0.03693573982356795,0.734471208461102,0.2378790530535346,1.3978220499042284,0.2270580030935581,-0.2890135827319879,1.6594613575490402,0.15766159270264968,-0.0,0.0
0.0846075811793164,0.602827501356465,0.6281518698503211,1.0776809322938188,-0.034248795652056796,0.8118511409015915,0.5099069084929366,1.3163224683357682,0.0014560277678267496,0.03693573982356795,0.734471208461102,0.2378790530535346,1.3965806239433336,0.22672952924616355,-0.2887443627797786,1.6589893005416205,0.13573379982637884,0.0,0.0
0.0836015337566141,0.6024527545572019,0.6276922499114576,1.077403925835525,-0.035190950883192476,0.812375713570525,0.5102939570324512,1.3164900867799478,0.0014560277678267496,0.03693573982356795,0.734471208461102,0.2378790530535346,1.3961509868889401,0.2266157978081586,-0.28865087085215846,1.6588239969542022,0.06293536944162702,-0.0,-0.0
0.08306065056197855,0.6022524351844842,0.6274440290406575,1.0772535754126493,-0.035697364505905514,0.8126586065341114,0.5105008756097568,1.316578648352871,0.0014560277678267496,0.03693573982356795,0.734471208461102,0.2378790530535346,1.3959200712449784,0.22655466130693572,-0.28860056243559473,1.6587347918701796,0.04710188346163978,-0.0,-0.0
0.08283860805286453,0.6021704557344972,0.6273418838435115,1.0771915395966387,-0.035905230368928634,0.8127749301709901,0.5105855611185289,1.3166146615857015,0.0014560277678267496,0.03693573982356795,0.734471208461102,0.2378790530535346,1.3958252916916551,0.2265295656492211,-0.28857990012844914,1.6586980981234822,0.03571722950307751,-0.0,-0.0
0.0827614897453415,0.60214201959779,0.6273063723950125,1.077169948925796,-0.035977421198657135,0.8128153581076832,0.5106149366861001,1.3166271205927365,0.0014560277678267496,0.03693573982356795,0.734471208461102,0.2378790530535346,1.3957923757092918,0.22652084987858023,-0.28857272243936777,1.658685343430147,0.026278244049797485,-0.0,-0.0
0.08253869974217516,0.6020599059027845,0.6272037468400158,1.0771075298531743,-0.036185972272085004,0.8129321791866773,0.5106997639234027,1.316663064870795,0.0014560277678267496,0.03693573982356795,0.734471208461102,0.2378790530535346,1.3956972856974836,0.22649567084268027,-0.28855198513982067,1.6586484854086956,0.03204136405818782,-0.0,-0.0
0.08165919616533018,0.6017361640734661,0.6267982127631188,1.0768606065059092,-0.037009222328774814,0.8133936624336201,0.5110342132581964,1.3168044024066987,0.0014560277678267496,0.03693573982356795,0.734471208461102,0.2378790530535346,1.3953219260675982,0.2263962753148983,-0.2884701049363628,1.6585028619491036,0.057717508522904554,0.0,0.0
0.08006554234123409,0.6011525281011103,0.6260605181998949,1.0764095139905228,-0.038500639321156584,0.8142320897429971,0.5116372187059534,1.3170565088747432,0.0014560277678267496,0.03693573982356795,0.734471208461102,0.2378790530535346,1.3946419578022655,0.22621619451016178,-0.2883216241631685,1.6582381364373688,0.08637525472337484,0.0,0.0
0.07844567890388744,0.600564788669567,0.6253054068213413,1.0759442404749957,-0.040016021934314944,0.8150578825090934,0.5122179804367147,1.317291620254885,0.0014560277678267496,0.03693573982356795,0.734471208461102,0.2378790530535346,1.3939511372760165,0.22603319432829386,-0.28817049000187883,1.6579674788421095,0.09301582860697749,0.0,0.0
0.07614302540367257,0.5997372571158474,0.6242243736899921,1.0752730690996868,-0.04216934385043588,0.8162809096198932,0.5130734698219948,1.317635010899415,0.0014560277678267496,0.03693573982356795,0.734471208461102,0.2378790530535346,1.3929696016822752,0.22577311780137574,-0.2879553442160568,1.6575804551425424,0.11257247595425016,-0.0,0.0
0.07184507580633315,0.5982137583820021,0.6221863534226525,1.0739943363167423,-0.0461864169086002,0.8185792952768088,0.5146490061125384,1.3182479012822081,0.0014560277678267496,0.03693573982356795,0.734471208461102,0.2378790530535346,1.3911387886893156,0.2252878370741076,-0.2875529516776758,1.6568520142321432,0.1909576069644869,0.0,0.0
0.06518539805850142,0.5959142433991337,0.6189698970085787,1.0719376683273774,-0.05240469426367529,0.8221854867194172,0.5170288856726256,1.319116728555109,0.0014560277678267496,0.03693573982356795,0.734471208461102,0.2378790530535346,1.3883054839678377,0.22453633948400903,-0.2869270581170971,1.655705782165151,0.28363704196694306,0.0,0.0
0.05776881123538975,0.5934592196199717,0.6152868936195623,1.069516919629096,-0.059319120194905345,0.8262782899702971,0.5195734110895064,1.31994562956158,0.0014560277678267496,0.03693573982356795,0.734471208461102,0.2378790530535346,1.3851561039814855,0.2237001674052615,-0.28622585334017686,1.6543990332708949,0.31103916325730696,0.0,0.0
0.04954661810663862,0.5910078775584591,0.6114203585264056,1.0669264904043396,-0.06653514542191845,0.8307714056734102,0.5222123878436029,1.320700628840356,0.0014560277678267496,0.03693573982356795,0.734471208461102,0.2378790530535346,1.381764432791317,0.222798676507184,-0.28546405756691895,1.6529525112556098,0.4068181358582416,0.0,0.0
0.04205867150427972,0.588901193271695,0.6077788887645554,1.0644118147889412,-0.07288335186910411,0.8350766458706287,0.5246285959717912,1.3213110035070714,0.0014560277678267496,0.03693573982356795,0.734471208461102,0.2378790530535346,1.3786821119896298,0.2219784576975704,-0.28476515673668895,1.6515993418662556,0.3769227677872634,0.0,0.0
0.03004353706841863,0.5858876993598576,0.6022403176071611,1.0605132267185,-0.08278984389932753,0.8419262319112449,0.5282353111662705,1.3220457491194189,0.0014560277678267496,0.03693573982356795,0.734471208461102,0.2378790530535346,1.3738731866871625,0.22069745684313236,-0.2836652911812681,1.649433208435195,0.5495682031344234,0.0,0.0
0.020532700578863562,0.5837261579674687,0.597641779651221,1.0571487934327393,-0.09035176418107886,0.8476539103046269,0.531045436408766,1.3224551276834233,0.0014560277678267496,0.03693573982356795,0.734471208461102,0.2378790530535346,1.3700767937134046,0.21968457418187157,-0.2827851684506559,1.6476550827130667,0.4889170652077645,0.0,0.0
0.005430782060526858,0.5805776951936655,0.590069380384709,1.051452712504067,-0.10233741721641584,0.8569325611536422,0.5352447937769372,1.3227698914380728,0.0014560277678267496,0.03693573982356795,0.734471208461102,0.2378790530535346,1.3640602957887442,0.2180774146078519,-0.28137526216674036,1.6447513660677149,0.6967147245617713,0.0,0.0
-0.004612347676284769,0.5789619332647322,0.5852966517454651,1.047720396855619,-0.10987658665272255,0.862967090505668,0.5376303625721031,1.3226354429621188,0.0014560277678267496,0.03693573982356795,0.734471208461102,0.2378790530535346,1.360276109914137,0.2170646688024049,-0.28047312986329453,1.6428389173348552,0.5634313741584912,0.0,0.0
-0.018480780222226448,0.5770232726199869,0.5785540646241186,1.0423154482174464,-0.12021502020821924,0.8719404818601795,0.5410237282438606,1.3222848179645896,0.0014560277678267496,0.03693573982356795,0.734471208461102,0.2378790530535346,1.3549010459909507,0.2156245266064053,-0.279177701719234,1.6400448923862145,0.7506433283127769,0.0,0.0
-0.024696406353762766,0.5763837977502742,0.5756111622138714,1.0398766169830176,-0.1245635456764048,0.8760630111034555,0.5424631542984374,1.322007416546298,0.0014560277678267496,0.03693573982356795,0.734471208461102,0.2378790530535346,1.3525560900557925,0.214995254910176,-0.2786036776325331,1.6387775272339575,0.5592775591787482,0.0,0.0
-0.03932585585039718,0.5751903240445593,0.5690533188526334,1.0343538995878274,-0.13417396866964193,0.8855863379537611,0.5456905587671661,1.3212719566947582,0.0014560277678267496,0.03693573982356795,0.734471208461102,0.2378790530535346,1.347173761027089,0.21354994095695487,-0.2772770628995017,1.6358197170863171,0.7578391421737753,0.0,-0.0
-0.045124140504328066,0.5748671382395615,0.5663090327693692,1.031974161409664,-0.13783066049854842,0.8895418862194022,0.5469328234497236,1.3208717505841256,0.0014560277678267496,0.03693573982356795,0.734471208461102,0.2378790530535346,1.3450435108071317,0.21297705312219503,-0.2767436354168761,1.6346044060277733,0.5223038367768187,0.0,0.0
-0.05833702122433217,0.5743429804530285,0.5602227119421541,1.0266226104108673,-0.146178375711586,0.8986586577455132,0.5496512042603547,1.3198101010936039,0.0014560277678267496,0.03693573982356795,0.734471208461102,0.2378790530535346,1.3401800034356512,0.21166836361973468,-0.2755180596019761,1.6317891122762054,0.7553124433684504,0.0,0.0
-0.061629116776036386,0.574298698383689,0.5586728206070326,1.025224899004622,-0.14812152644474383,0.9009050917968137,0.5502628418940869,1.3194928621411364,0.0014560277678267496,0.03693573982356795,0.734471208461102,0.2378790530535346,1.3390004491717116,0.21135055998535476,-0.27521647701572777,1.631083672840225,0.45844284786355666,0.0,-0.0
-0.0722891488729166,0.5743006180808478,0.5539549774710577,1.020919897591611,-0.15426769913953875,0.9082467640543858,0.5522539829299684,1.3184490646989673,0.0014560277678267496,0.03693573982356795,0.734471208461102,0.2378790530535346,1.3352693007798184,0.21034498599640988,-0.2742591238035173,1.6288347513684354,0.7532906679364114,0.0,-0.0
-0.07143097872638493,0.5742848109187927,0.5543500912892599,1.0212866622821175,-0.15379374527039946,0.9076498237566439,0.5521019359087997,1.318543276506158,0.0014560277678267496,0.03693573982356795,0.734471208461102,0.2378790530535346,1.3355695903940448,0.21042599223173772,-0.27433704568917544,1.6290202181979136,0.36369038690688715,0.0,-0.0
-0.08166185983187517,0.5744581032205517,0.5496544748560752,1.016933799917437,-0.159444232676896,0.9147578314571494,0.5539268193370306,1.317435159252524,0.0014560277678267496,0.03693573982356795,0.734471208461102,0.2378790530535346,1.3319895847074188,0.20946031996689138,-0.273408920393261,1.6268134191767478,0.7536673447585065,0.0,-0.0
-0.07634679790082502,0.5742737971658908,0.5521860502570954,1.019317242439146,-0.15650942453083236,0.9110121434346606,0.5530545858180964,1.3181040711451368,0.0014560277678267496,0.03693573982356795,0.734471208461102,0.2378790530535346,1.3338492832137816,0.20996239457737795,-0.27389632535694786,1.6279865142114298,0.21171837538148605,0.0,-0.0
-0.08685960120071747,0.574566839764151,0.5473947165827454,1.0148308952059382,-0.1622189132905319,0.9187398834645034,0.5550733865905824,1.3169335871626129,0.0014560277678267496,0.03693573982356795,0.734471208461102,0.2378790530535346,1.3300673386322606,0.20894181575757548,-0.2729107438745254,1.6256292006915065,0.7350911059737644,-0.0,-0.0
-0.07352875020036884,0.5739534528724755,0.5537071614535869,1.020833479032623,-0.15497989587297498,0.9087934178999083,0.552722852342798,1.318675479707264,0.0014560277678267496,0.03693573982356795,0.734471208461102,0.2378790530535346,1.334862873539194,0.21023709577182817,-0.27417496603785174,1.6286913742497617,0.00623097069361234,-0.0,-0.0
-0.08181938512273942,0.5742219035651274,0.5503257949173668,1.0176482745387625,-0.15926990472027375,0.9145760420362434,0.5542730150795523,1.317837023658517,0.0014560277678267496,0.03693573982356795,0.734471208461102,0.2378790530535346,1.332021621431783,0.2094705479597121,-0.27343688313298004,1.6269320796676399,0.7005565111333691,-0.0,-0.0
-0.062005640932082204,0.5733516730893208,0.5588686382375778,1.0257746025078323,-0.14875842626691227,0.9002448972965893,0.5507021894122553,1.3201726151238695,0.0014560277678267496,0.03693573982356795,0.734471208461102,0.2378790530535346,1.3389837840049443,0.21135018400154604,-0.27526117129986205,1.631322520456441,-0.17738336796487145,0.0,0.0
-0.07127749412668018,0.57345490034549,0.5551710994463371,1.0223655597462327,-0.15367901578977577,0.9067662519657157,0.5526339212075185,1.3194018709892232,0.0014560277678267496,0.03693573982356795,0.734471208461102,0.2378790530535346,1.33572582167791,0.21047209576912213,-0.27442545172561517,1.62935902466966,0.7121259794580557,0.0,0.0
-0.04560261656370904,0.572780149810256,0.5657935775459629,1.0323071259464314,-0.1400570351820317,0.8884698494414378,0.5476213570269479,1.3219531560689495,0.0014560277678267496,0.03693573982356795,0.734471208461102,0.2378790530535346,1.3447453936686002,0.2129050465023961,-0.27676196192728125,1.6349120659720346,-0.346683797086689,0.0,0.0
-0.054481443017331106,0.5726426227193697,0.5624866469967461,1.029347412857407,-0.144772169543115,0.8945685805741977,0.5496763235134102,1.3214702791151471,0.0014560277678267496,0.03693573982356795,0.734471208461102,0.2378790530535346,1.3416246012962951,0.2120651542695563,-0.27597531013573495,1.6331026723384432,0.7261391033507821,0.0,-0.0
-0.023908572469722954,0.5726816756991229,0.5743026527050179,1.0400960267675385,-0.12854400051015644,0.8732983530884783,0.5429816020791669,1.323608664247463,0.0014560277678267496,0.03693573982356795,0.734471208461102,0.2378790530535346,1.3523653986770754,0.21495817138280288,-0.2787080159423052,1.6394621994744096,-0.5085357435431449,0.0,-0.0
-0.032959075661603915,0.5721775674785122,0.5710448716139698,1.0373193222828094,-0.13334675693713113,0.87930544687579,0.5453456525173624,1.323461293142744,0.0014560277678267496,0.03693573982356795,0.734471208461102,0.2378790530535346,1.3491877628586837,0.21410471120742278,-0.2779251101381152,1.6377148375172368,0.7362029797969529,-0.0,-0.0
0.0011977805517084522,0.5733941381456404,0.5830832514932476,1.0478199622616895,-0.11519467026112834,0.856277862417212,0.5368343968543628,1.3245615002938709,0.0014560277678267496,0.03693573982356795,0.734471208461102,0.2378790530535346,1.3611968166979662,0.21733298760610806,-0.2809116208562171,1.6444668856792817,-0.6151212416847569,-0.0,-0.0
-0.009490947277307586,0.5724454101781485,0.5798799947342145,1.0452578258647933,-0.12089388068640067,0.8631197352988497,0.5400060819166367,1.3248611673638648,0.0014560277678267496,0.03693573982356795,0.734471208461102,0.2378790530535346,1.357427058570721,0.21632300311379374,-0.2800067060105168,1.6425226101708759,0.7521184048548356,-0.0,-0.0
0.022745714592032236,0.5749720120898991,0.5907567626606617,1.0542121364418193,-0.10376519596594436,0.8421880978367289,0.5309398125555671,1.3245703571364744,0.0014560277678267496,0.03693573982356795,0.734471208461102,0.2378790530535346,1.3687548722208083,0.2193612916796309,-0.28275564619430044,1.6485284867112966,-0.6872566452746728,-0.0,-0.0
0.013106167215056115,0.5737949975304973,0.5881876263072288,1.0523087716759756,-0.10891988302693718,0.8481506789901547,0.5340874534164435,1.3252099204824566,0.0014560277678267496,0.03693573982356795,0.734471208461102,0.2378790530535346,1.365345641025951,0.21844993998879073,-0.281955059445656,1.6468683756321703,0.7410206156438373,-0.0,-0.0
0.050078191405767115,0.577770849325821,0.5985786163436349,1.0602884728443245,-0.08917806331112586,0.8249237878471481,0.5225107079646965,1.3233987472544833,0.0014560277678267496,0.03693573982356795,0.734471208461102,0.2378790530535346,1.3783996478497205,0.2219432013711888,-0.2850504243800772,1.6533931593146243,-0.7011057569129552,-0.0,-0.0
0.03972727046221467,0.5760814983849032,0.5962464794789841,1.0587817471739278,-0.09473910812286526,0.8310398811397106,0.5262840287372791,1.3245987516494953,0.0014560277678267496,0.03693573982356795,0.734471208461102,0.2378790530535346,1.3747213639216256,0.22096288462541716,-0.284210189060931,1.6517353549218738,0.7414331313612531,-0.0,-0.0
0.07705094757593339,0.5815957442959037,0.6052348292925568,1.064940145015489,-0.07472626937307927,0.8085924871523792,0.5132182384309584,1.3209833473858374,0.0014560277678267496,0.03693573982356795,0.734471208461102,0.2378790530535346,1.3879541474569852,0.22449387037305424,-0.2872643047305352,1.657880542366306,-0.7066471132498705,-0.0,-0.0
0.06768693868556916,0.5796909988007106,0.6035047729080733,1.0640507057160185,-0.07978577285489018,0.8138651971369424,0.5169853164323495,1.3225385310562499,0.0014560277678267496,0.03693573982356795,0.734471208461102,0.2378790530535346,1.3846066514695068,0.22360452435066175,-0.2865199807724042,1.6564902533736203,0.7432023022532229,-0.0,-0.0
0.10448166825185558,0.5866631657191219,0.6108201309787638,1.0681877856105981,-0.05994771118970588,0.792787414077662,0.5026696195441205,1.3170812430101146,0.0014560277678267496,0.03693573982356795,0.734471208461102,0.2378790530535346,1.3977269241096157,0.22709429979242124,-0.2894644438361698,1.6621005150784243,-0.6959812006888568,-0.0,-0.0
0.09378982035954876,0.5840523199864042,0.6092875223299546,1.0677195534340176,-0.06576457064644127,0.7984979848777785,0.5073864630141591,1.3194201625441278,0.0014560277678267496,0.03693573982356795,0.734471208461102,0.2378790530535346,1.3938761807124649,0.22607473973051118,-0.2886312082249859,1.6606385837234792,0.7535287397210159,0.0,-0.0
0.13065263852362716,0.5924670613106259,0.6151684331252206,1.0700685801642,-0.04576688468070794,0.7783860156876016,0.49168902181283836,1.3121310576732583,0.0014560277678267496,0.03693573982356795,0.734471208461102,0.2378790530535346,1.4071073199710955,0.22958287993964074,-0.29152450864105345,1.665846201211753,-0.7007595637445134,-0.0,-0.0
0.1202062249306149,0.5895083699793185,0.6140882423477837,1.0701227103951396,-0.05149353399734674,0.7836676649903987,0.4966914139850857,1.3149611415103222,0.0014560277678267496,0.03693573982356795,0.734471208461102,0.2378790530535346,1.4033135774188605,0.22858186577929282,-0.290724572048156,1.664534162779946,0.7588666564444204,0.0,-0.0
0.15171777322287403,0.5980555368387209,0.6181442524962949,1.070796719818543,-0.03382686784215831,0.7669457357776068,0.4817034566836284,1.3068943245500562,0.0014560277678267496,0.03693573982356795,0.734471208461102,0.2378790530535346,1.4150098252853796,0.2316725324878927,-0.2932163042728887,1.6687378957994965,-0.7082837118931415,-0.0,-0.0
0.14375094218007423,0.595411119757019,0.6172655303364907,1.0709222608689404,-0.038404102612178664,0.770656421901841,0.48561727881345074,1.3093055134006406,0.0014560277678267496,0.03693573982356795,0.734471208461102,0.2378790530535346,1.4121070425168032,0.2309089313735676,-0.29261732550433434,1.6678157444098742,0.7566345184386254,-0.0,-0.0
0.17902928686371555,0.6066799584387721,0.6216073089138135,1.070916074739977,-0.018190193945100356,0.7539100468325777,0.46869686074146644,1.2992119605286565,0.0014560277678267496,0.03693573982356795,0.734471208461102,0.2378790530535346,1.4249195552818175,0.23428329224935113,-0.29528193246559753,1.672017684783746,-0.7150264419105313,-0.0,-0.0
0.1669393583771422,0.6021461997541837,0.6208096105605428,1.0717574797190037,-0.025204928197373952,0.7591640870148835,0.47512282496936803,1.303569640957857,0.0014560277678267496,0.03693573982356795,0.734471208461102,0.2378790530535346,1.420465287496054,0.23311623508996795,-0.29438726136784255,1.6707583028456512,0.760982799466406,-0.0,-0.0
0.19674262374327933,0.6128807783142136,0.6236683847164224,1.0706203975989483,-0.007545750462739396,0.7454432823901758,0.4594280183596702,1.2933575425690866,0.0014560277678267496,0.03693573982356795,0.734471208461102,0.2378790530535346,1.4316679807371653,0.23605693808364822,-0.29666450674966927,1.6741005486347207,-0.708019010252673,0.0,-0.0
0.18470639728147936,0.608024258015018,0.6232303538257289,1.0718878826070732,-0.014883873119520517,0.750410902821449,0.4661563495109871,1.298181887255357,0.0014560277678267496,0.03693573982356795,0.734471208461102,0.2378790530535346,1.4271983506777126,0.23488915601334656,-0.2957830814629847,1.6729422803161704,0.7608966272019757,-0.0,-0.0
0.21715810508666838,0.6209339749965757,0.6260377409343132,1.0699648200809195,0.005269524911450503,0.7366344215491791,0.44879348775693056,1.2862052569113709,0.0014560277678267496,0.03693573982356795,0.734471208461102,0.2378790530535346,1.4394609747003,0.23809924080156958,-0.29823053170378155,1.6763107426421548,-0.7093014625262982,-0.0,-0.0
0.20542156034280445,0.615631401539508,0.6256786737904487,1.071451235639047,-0.002117173183393893,0.7412800242814923,0.45590050807048527,1.2916017588806568,0.0014560277678267496,0.03693573982356795,0.734471208461102,0.2378790530535346,1.4349561617652622,0.2369262311090347,-0.29736080976131746,1.6752651991124385,0.771793865625234,0.0,-0.0
0.2254886064823737,0.6246012397548174,0.6273303401347498,1.0698538511692315,0.011824909345117554,0.7330740814050108,0.4442456511962441,1.283051603692759,0.0014560277678267496,0.03693573982356795,0.734471208461102,0.2378790530535346,1.4427955795981717,0.23897168731230028,-0.29889279523084433,1.6772066418916622,-0.7058290103591546,-0.0,0.0
0.2100200073976085,0.6169912268089011,0.6263075647497396,1.0715388750036614,0.0005933990628332626,0.7387306523823889,0.4534728310025239,1.2902433523496073,0.0014560277678267496,0.03693573982356795,0.734471208461102,0.2378790530535346,1.4367035985743721,0.23738773646926242,-0.29772729709092294,1.6758628781093265,0.7724629823333404,-0.0,0.0
0.2354073637515414,0.6291871884886806,0.6295464118100133,1.070242225940856,0.02004980004311368,0.728627207935453,0.4386814481624284,1.279238729977445,0.0014560277678267496,0.03693573982356795,0.734471208461102,0.2378790530535346,1.4468626075108868,0.2400364996114233,-0.29970303683109184,1.678316918911789,-0.7067431623117941,0.0,0.0
0.2213304507944863,0.6216160488776065,0.6281440916428856,1.0715791334469567,0.00916679184539663,0.7334719207829511,0.44726922630506555,1.2861411916565642,0.0014560277678267496,0.03693573982356795,0.734471208461102,0.2378790530535346,1.4411669296137266,0.23855826975806957,-0.29862544098836336,1.6771403872522694,0.7743863000118301,0.0,0.0
0.24648934204217998,0.6344708799521708,0.6313409956665519,1.0700224926405497,0.02849659609455963,0.7242580977498858,0.43259368772031,1.274822752974196,0.0014560277678267496,0.03693573982356795,0.734471208461102,0.2378790530535346,1.4512659104192125,0.24118627384499916,-0.30056572824174543,1.679423876430654,-0.7063330314570333,0.0,-0.0
0.23107845589295511,0.6258569016442534,0.6301404039425239,1.0718884687623835,0.016522402766295963,0.7292942987139873,0.4423178733858308,1.2828687988622691,0.0014560277678267496,0.03693573982356795,0.734471208461102,0.2378790530535346,1.444993859992082,0.23956172348395866,-0.2993933360653227,1.6782230443878665,0.7734871913387172,0.0,-0.0
0.256207984649637,0.6391567118993237,0.6328649242399493,1.0697662773055279,0.035912383160236996,0.7204580189947983,0.4272090025675502,1.270892765758036,0.0014560277678267496,0.03693573982356795,0.734471208461102,0.2378790530535346,1.4551295163890237,0.24219483354453716,-0.30132036907129284,1.6803809662022577,-0.706721553747511,0.0,-0.0
0.24185924422150812,0.6308691630556484,0.6320236750871618,1.071834925262393,0.024713235121665997,0.7249240331257648,0.43652936973172213,1.2787922736534805,0.0014560277678267496,0.03693573982356795,0.734471208461102,0.2378790530535346,1.449259143016301,0.2406770333784724,-0.300234685162964,1.6793346348350304,0.7740187959951822,-0.0,-0.0
0.2655475197249048,0.6440678961624979,0.6344284269771657,1.069468369696534,0.04426276742659692,0.7170885183213362,0.4218784864085013,1.266812450314264,0.0014560277678267496,0.03693573982356795,0.734471208461102,0.2378790530535346,1.4591331417401012,0.24323723696008467,-0.3020901730345083,1.6812921242829635,-0.7070511105579748,-0.0,-0.0
0.24844863298660883,0.6337418250919626,0.6335178193775208,1.0721636256784615,0.02999611125456244,0.7220408094788063,0.4332840174051811,1.2767399266429305,0.0014560277678267496,0.03693573982356795,0.734471208461102,0.2378790530535346,1.4519057927826788,0.241372117569416,-0.30076822979526363,1.6801025661968625,0.7740736273627431,-0.0,-0.0
0.2691766567287891,0.6459568718484824,0.6360904032220055,1.0702786347493813,0.048206329573521514,0.7152551454710908,0.4198326641657648,1.2655379149887456,0.0014560277678267496,0.03693573982356795,0.734471208461102,0.2378790530535346,1.4607991703312182,0.2436753459484305,-0.30242726119754904,1.6817848029907878,-0.7076132647911068,0.0,0.0
0.2534559250139306,0.6358319186946508,0.6345098270498819,1.0723188584068488,0.03383326902864821,0.7195463597842312,0.43040927577096166,1.2748881516655304,0.0014560277678267496,0.03693573982356795,0.734471208461102,0.2378790530535346,1.4539865368603928,0.24191857352583876,-0.30118697618947426,1.6807022755243581,0.77417958161436,0.0,-0.0
0.27463247503715155,0.6485167593757135,0.6369292935215205,1.0701410280943398,0.05310299296161694,0.7131001795989701,0.41688089920031474,1.2634343569978435,0.0014560277678267496,0.03693573982356795,0.734471208461102,0.2378790530535346,1.4630953408086487,0.24427539808808904,-0.3028764301292164,1.6823602761950962,-0.7079348841744401,0.0,-0.0
0.25860549641079833,0.6382123380678197,0.6358237678326105,1.072656272260394,0.038375563763696,0.7173187180307276,0.4278844542039985,1.2732902857074107,0.0014560277678267496,0.03693573982356795,0.734471208461102,0.2378790530535346,1.4561118640125523,0.2424765094151158,-0.3016131620831467,1.6813051723866705,0.7743932156120489,0.0,-0.0
0.2730744622093861,0.6471609323884829,0.6375557397113634,1.0711423484013487,0.05152130241743591,0.7129033208455002,0.4182291732600721,1.2650198919655393,0.0014560277678267496,0.03693573982356795,0.734471208461102,0.2378790530535346,1.4625344630464605,0.24413670982415028,-0.30279739124029026,1.6824275029893503,-0.7075236249292824,0.0,-0.0
0.25609310855573786,0.6359274384422016,0.6357034182300689,1.0733197731278845,0.03602871458127464,0.7175798762593466,0.43009825622422376,1.2755862220158796,0.0014560277678267496,0.03693573982356795,0.734471208461102,0.2378790530535346,1.4549480570558226,0.24218185791749622,-0.30142301421223616,1.681267121153831,0.7740628260327763,-0.0,-0.0
0.2742240931388768,0.6472485627806881,0.6383678759396397,1.071817562851376,0.05244114608328178,0.7119655536616026,0.4181387657778545,1.2654215715832118,0.0014560277678267496,0.03693573982356795,0.734471208461102,0.2378790530535346,1.4629602936426067,0.2442542598056455,-0.30290492720540674,1.6826986656659177,-0.7071435111957911,0.0,-0.0
0.25728263270162094,0.6360030498432842,0.6365591876107672,1.0740376993317844,0.03697603241571133,0.7166009133126944,0.43001744454023694,1.2760169387274414,0.0014560277678267496,0.03693573982356795,0.734471208461102,0.2378790530535346,1.4553895956435703,0.2423037364988377,-0.30153511016656864,1.6815518770238798,0.773580538168411,0.0,-0.0
0.2783639744780408,0.6487749417313688,0.6388217850297786,1.0716913017612326,0.05619509536404592,0.7103064955986703,0.4163948562229669,1.2643946134110307,0.0014560277678267496,0.03693573982356795,0.734471208461102,0.2378790530535346,1.4644664660430553,0.2446511688558738,-0.3032117588349891,1.6831596323395812,-0.7069668629751692,0.0,0.0
0.2610837316112198,0.6373845375505433,0.6374745325340471,1.0743628559977652,0.0403490146822391,0.7149185474592936,0.4286956375036114,1.275462564748886,0.0014560277678267496,0.03693573982356795,0.734471208461102,0.2378790530535346,1.4567082467821317,0.24265369152717647,-0.30181394736367323,1.6820242651739923,0.7744421981970026,0.0,0.0
0.279347167200144,0.6487485783286426,0.6395926517202057,1.0723671717729186,0.056963264176696476,0.7093959528087854,0.4164343718583307,1.2649293383800333,0.0014560277678267496,0.03693573982356795,0.734471208461102,0.2378790530535346,1.4648161117746052,0.2447493440218287,-0.30330607555869554,1.6834236682489816,-0.6832519098821271,0.0,0.0
0.2605874365822896,0.6365274806247228,0.63846265520667,1.075509592548608,0.039683215296796186,0.714195893543539,0.4294850012505657,1.2767122742373935,0.0014560277678267496,0.03693573982356795,0.734471208461102,0.2378790530535346,1.4566315334964572,0.24264231377056436,-0.3018329799502936,1.6822358807856752,0.8010871138715933,0.0,0.0
0.28040963913703815,0.6488931945003594,0.6408689347666425,1.0734252418708619,0.05773916428285565,0.7083938916451844,0.4165804871376488,1.2656283981131327,0.0014560277678267496,0.03693573982356795,0.734471208461102,0.2378790530535346,1.4651536139141377,0.24484527822030566,-0.30340150910311287,1.6837086146178033,-0.6633450017884037,0.0,0.0
0.2622000202497441,0.6367640649086437,0.6394498311289046,1.0762846220040798,0.04099802063784487,0.7130168821222569,0.42924961157431074,1.2770819479695577,0.0014560277678267496,0.03693573982356795,0.734471208461102,0.2378790530535346,1.4572275891539652,0.2428049943568966,-0.3019763952217062,1.6825677113354747,0.790844531139643,0.0,0.0
0.2782520969351153,0.6468283937572898,0.6413469918147483,1.07453400790946,0.05563131870029418,0.7083582071177018,0.41874981212326334,1.2680348973918767,0.0014560277678267496,0.03693573982356795,0.734471208461102,0.2378790530535346,1.464131986198818,0.2445894033555546,-0.30324499454825654,1.6837466054849526,-0.656359446768224,0.0,0.0
0.25874551697446946,0.6339311840695803,0.639727350367632,1.0774798208471503,0.037715203961966606,0.7134068005744574,0.4322152979167403,1.2801306811556876,0.0014560277678267496,0.03693573982356795,0.734471208461102,0.2378790530535346,1.4556571203381423,0.24240656954511483,-0.3017170100798973,1.6824977489017259,0.7750200063408766,0.0,0.0
0.2768974883566845,0.645175246899038,0.6420125002992239,1.0756666700362834,0.054237108538657285,0.708009164149734,0.42048954946396233,1.270133614388264,0.0014560277678267496,0.03693573982356795,0.734471208461102,0.2378790530535346,1.4634443591057231,0.24442082554155758,-0.3031538087259544,1.6838685824768218,-0.668911787161493,0.0,0.0
0.26077094240622867,0.6345647053015007,0.6406196237758605,1.0780389293515855,0.039434142267326805,0.7122376237722167,0.43156287940322763,1.2800348092865015,0.0014560277678267496,0.03693573982356795,0.734471208461102,0.2378790530535346,1.456447846835595,0.24261800113508109,-0.3018900857369875,1.6828216087595147,0.7763633847777299,0.0,0.0
0.28166207971593726,0.6475903537220113,0.6431632768987013,1.0758475443431135,0.05846764487392216,0.7060957392747115,0.41798215977658953,1.268403074602171,0.0014560277678267496,0.03693573982356795,0.734471208461102,0.2378790530535346,1.4654174915152598,0.24493735039232983,-0.30354136154219685,1.684376175802401,-0.6979137785594846,-0.0,0.0
0.26385917562219496,0.6356995160976575,0.6418089606297096,1.0786851382880964,0.042088543662223775,0.7106037812318498,0.4303921132022793,1.2796205734513257,0.0014560277678267496,0.03693573982356795,0.734471208461102,0.2378790530535346,1.457673593997315,0.24294378581045253,-0.30215031422485655,1.6832692400006033,0.7732291630683842,0.0,0.0
0.28278269443419796,0.6476165998083168,0.6439924621336032,1.0765544988567737,0.05935483286918043,0.7051401940986933,0.417970165835514,1.2689051300268925,0.0014560277678267496,0.03693573982356795,0.734471208461102,0.2378790530535346,1.4658095118724144,0.24504645870474037,-0.3036429726258068,1.6846451019430866,-0.7027765656074708,-0.0,0.0
0.26506332215734,0.635743958730975,0.6426832619511123,1.079425686940953,0.04304318248565269,0.7095980133413033,0.43035842286813536,1.280121846642073,0.0014560277678267496,0.03693573982356795,0.734471208461102,0.2378790530535346,1.458100127039255,0.24306202936067337,-0.3022597197784772,1.6835535788331828,0.7733627924991161,0.0,-0.0
0.2838693909730728,0.6476302194277106,0.6448092697911613,1.0772545849709836,0.060212644869491905,0.7042010767278136,0.41797184457251596,1.2694143519923382,0.0014560277678267496,0.03693573982356795,0.734471208461102,0.2378790530535346,1.4661875970634515,0.24515189333282783,-0.3037416364363406,1.6849092198749027,-0.7057680840543331,-0.0,0.0
0.26641199728115533,0.6358973225510128,0.6435563445169381,1.080127989561085,0.04413313020897721,0.7085654112795685,0.4302116749479067,1.2805144102162462,0.0014560277678267496,0.03693573982356795,0.734471208461102,0.2378790530535346,1.4585905141174749,0.2431966057691806,-0.30238004845260674,1.683843557817487,0.7741880474387793,-0.0,0.0
0.2869950871591801,0.6489603229795163,0.6458285922807265,1.077685215957798,0.06293757130718364,0.7027003561850343,0.4166021305582726,1.26872022373254,0.0014560277678267496,0.03693573982356795,0.734471208461102,0.2378790530535346,1.4674453423355511,0.24548436994938835,-0.3040002703724845,1.6853127568029906,-0.7029691384333676,0.0,0.0
0.27107891971184483,0.6381609334434173,0.6447924409191667,1.0804315167428475,0.048255144276987155,0.7065884963819408,0.4278675346170818,1.2790032374006812,0.0014560277678267496,0.03693573982356795,0.734471208461102,0.2378790530535346,1.4605083190361021,0.24369997012850417,-0.3027613717893258,1.6843693486807214,0.7801317354262303,0.0,0.0
0.29062805139752257,0.6507560715966129,0.6467575197199981,1.0778800016852574,0.06615470511222997,0.7011837134718072,0.41474627289301985,1.2675039227544866,0.0014560277678267496,0.03693573982356795,0.734471208461102,0.2378790530535346,1.468939009883737,0.2458762458835045,-0.30429583260230614,1.6857131118313544,-0.6636166094339176,0.0,0.0
0.2730029933584744,0.6386635036889422,0.6457492104314035,1.081086412759734,0.04986695463963165,0.7053677273122433,0.42736145352379773,1.2791090909264318,0.0014560277678267496,0.03693573982356795,0.734471208461102,0.2378790530535346,1.4612420664132446,0.24389775494907187,-0.30292695302422895,1.6847053079610608,0.7846576690918136,0.0,0.0
0.28882359060619617,0.6494364705741174,0.648148933970617,1.079530357602792,0.06519759663979899,0.700998787659448,0.4164502620621498,1.2694886710478324,0.0014560277678267496,0.03693573982356795,0.734471208461102,0.2378790530535346,1.4684610610211914,0.2457607062578992,-0.3042381389094269,1.6858377346125089,-0.6715209977913202,0.0,0.0
0.270693822612178,0.6366740878174171,0.6464508470014437,1.0823645598689284,0.04745265166937421,0.7053964040064808,0.4296907601104148,1.281651158311431,0.0014560277678267496,0.03693573982356795,0.734471208461102,0.2378790530535346,1.4600810641404505,0.24360596677744406,-0.3027459037049283,1.684727283463548,0.7800596990902068,0.0,0.0
0.28851658948473674,0.648721655338438,0.6492433814353913,1.0807171495464487,0.06470614320734977,0.7003754868553429,0.417507972418723,1.2709896435687107,0.0014560277678267496,0.03693573982356795,0.734471208461102,0.2378790530535346,1.4681978339513582,0.24570195536342024,-0.3042246882807065,1.6860320835976383,-0.6837288225337786,0.0,0.0
0.2726087591430215,0.6373205899390946,0.6474121692429239,1.0829769461810825,0.04917783295475706,0.7042478605895671,0.4290726988414369,1.2815912866826455,0.0014560277678267496,0.03693573982356795,0.734471208461102,0.2378790530535346,1.4608694109845217,0.24381720128725598,-0.3029188577759465,1.685054770716307,0.7713323689577221,-0.0,-0.0
0.2857252931482407,0.6461002021481429,0.6491774455281558,1.0815409687768875,0.06191550176093111,0.7007279401154493,0.4202884717175561,1.2738569633540924,0.0014560277678267496,0.03693573982356795,0.734471208461102,0.2378790530535346,1.4666735774766664,0.24531552446559424,-0.30397396556130246,1.6859721228920335,-0.6985472449205594,-0.0,-0.0
0.268175278100625,0.6336441918368616,0.6470308913847375,1.0838849050470194,0.04480585790241037,0.7051237633799783,0.43291426533383814,1.2853348648924043,0.0014560277678267496,0.03693573982356795,0.734471208461102,0.2378790530535346,1.4586067636315296,0.2432391430798085,-0.30253060541722504,1.684855160978046,0.7721623033142213,-0.0,-0.0
0.2847299890135783,0.6447277288920404,0.6497336633995093,1.0824832985302069,0.0608145318926369,0.7003498646345937,0.42171624757148873,1.2756269255460462,0.0014560277678267496,0.03693573982356795,0.734471208461102,0.2378790530535346,1.4661273569192779,0.24518283754642595,-0.30390604597303655,1.6861010990718779,-0.7040210522773492,-0.0,-0.0
0.27230154729541944,0.6359385918428392,0.6481806732847117,1.0841049353252092,0.048702938266750775,0.7034976442303031,0.4306207937236499,1.2836929808787312,0.0014560277678267496,0.03693573982356795,0.734471208461102,0.2378790530535346,1.4604211008454782,0.24371354635377213,-0.30288359319165536,1.685300696527588,0.7732084164953059,0.0,0.0
0.2894029637528855,0.64736201320387,0.650507116971255,1.0822606659479659,0.0653092516509781,0.6988761800448725,0.41919673002594215,1.2736645145432652,0.0014560277678267496,0.03693573982356795,0.734471208461102,0.2378790530535346,1.4679814108816058,0.24566585598002658,-0.30425943773841063,1.686506611215953,-0.7056053292620885,-0.0,-0.0
0.2752926801672764,0.6372400129379103,0.6488903442777201,1.084276435958726,0.05152816214102744,0.7023182450669844,0.4294594372333015,1.2830590319186321,0.0014560277678267496,0.03693573982356795,0.734471208461102,0.2378790530535346,1.4614851146537475,0.24399463493447474,-0.30310138041644596,1.685636090346128,0.7739969367873194,-0.0,-0.0
0.2935791389461835,0.6497642288863646,0.6515922704711016,1.082386369801598,0.06927122940776496,0.6972930385033036,0.416795752310433,1.2718901721011746,0.0014560277678267496,0.03693573982356795,0.734471208461102,0.2378790530535346,1.4698242134637611,0.24614703717192637,-0.3046144787060506,1.6869359926158844,-0.7070060723719154,0.0,0.0
0.2777246753803787,0.6382418630794409,0.6499291379365989,1.0848341625129028,0.05375553289108158,0.7010214542937148,0.42848502152993995,1.2826933689584055,0.0014560277678267496,0.03693573982356795,0.734471208461102,0.2378790530535346,1.4625072238199681,0.24426634880531564,-0.30331678402503237,1.6860010431419619,0.7746058396868809,-0.0,0.0
0.2967086300022147,0.6511379478109247,0.6522932602065965,1.0825238954093304,0.07223813646987973,0.6960779631714828,0.4155794798143722,1.2712259428627626,0.0014560277678267496,0.03693573982356795,0.734471208461102,0.2378790530535346,1.4709218984120147,0.24643730417681617,-0.3048392444170188,1.6872833759217567,-0.7079705896354402,-0.0,-0.0
0.2794698486797074,0.6386937723079544,0.6509024074615639,1.0855188982684303,0.055304496307654924,0.6996680413366977,0.4276674973031046,1.2825230411630775,0.0014560277678267496,0.03693573982356795,0.734471208461102,0.2378790530535346,1.4631849969328579,0.24444967151060698,-0.3034713016644125,1.686323547523251,0.7746612447871196,0.0,0.0
0.2984699566724421,0.6519075573401315,0.6535873870906158,1.0833794639130412,0.07377181184028647,0.6950370747036831,0.415151879556056,1.2713245346341686,0.0014560277678267496,0.03693573982356795,0.734471208461102,0.2378790530535346,1.4715907012214333,0.24661773991985533,-0.3049892170286283,1.6875849618034486,-0.7072944009686216,0.0,0.0
0.28026213672602046,0.6384480634812122,0.6518323523364193,1.0864014547461651,0.055916151537023076,0.6987651273297278,0.4279514782782502,1.2833227528209163,0.0014560277678267496,0.03693573982356795,0.734471208461102,0.2378790530535346,1.463434045734328,0.244522839341985,-0.3035498040649944,1.686591648484598,0.7747159588271667,0.0,0.0
0.2992222332037287,0.6516626408564842,0.6544828271901199,1.0842305494945217,0.07435188594010549,0.6941619949258774,0.4154379951306537,1.272116480647114,0.0014560277678267496,0.03693573982356795,0.734471208461102,0.2378790530535346,1.4718217081122174,0.24668615514000833,-0.3050633074534642,1.6878429631013654,-0.7064180729569461,0.0,0.0
0.2810822947173761,0.6382279101702457,0.6527603055237725,1.0872732451463731,0.05655591166252229,0.6978599493182802,0.4282113967313748,1.2840978716264095,0.0014560277678267496,0.03693573982356795,0.734471208461102,0.2378790530535346,1.463695777070142,0.24459922892290553,-0.3036303214804422,1.6868599827528679,0.7740825951596527,-0.0,-0.0
0.2982352238066613,0.6502099272458917,0.6551309336416923,1.085275405658699,0.0732413034819806,0.6937129375958088,0.4168675658778276,1.2739295321972806,0.0014560277678267496,0.03693573982356795,0.734471208461102,0.2378790530535346,1.4712838371506731,0.24655621103311365,-0.3049984532971671,1.6879850022509386,-0.7068956213465307,-0.0,0.0
0.28181399120447725,0.6380911452437266,0.653526732757389,1.0879778940978624,0.05713843974899568,0.6971056068512693,0.42838306727810704,1.2846944938701674,0.0014560277678267496,0.03693573982356795,0.734471208461102,0.2378790530535346,1.463936553820669,0.2446685943288534,-0.30370093648620217,1.687083202774594,0.7743748391236005,-0.0,-0.0
0.2970177328365196,0.6487332182414147,0.6556061083097411,1.086180011989998,0.07193316251489737,0.6934442970760307,0.4183094644734571,1.275656451807862,0.0014560277678267496,0.03693573982356795,0.734471208461102,0.2378790530535346,1.470662510992336,0.2464031395538259,-0.30491275549874564,1.688074723311614,-0.7068619211532031,0.0,0.0
0.2807329679456927,0.6367654239331122,0.6539629952637483,1.0887991911717998,0.05597288975301104,0.6968591145081148,0.42967504058211015,1.2862415085851058,0.0014560277678267496,0.03693573982356795,0.734471208461102,0.2378790530535346,1.463385364173159,0.24453283026518954,-0.3036254915286227,1.6871665609371542,0.774143932991675,-0.0,0.0
0.29782224089700876,0.6486813124813758,0.6563472969790246,1.0868334098994836,0.072594339682848,0.6926988684025371,0.4184013483457394,1.2761633642368824,0.0014560277678267496,0.03693573982356795,0.734471208461102,0.2378790530535346,1.4709370233268066,0.24648096366310174,-0.3049880279610983,1.688293601243595,-0.7064647204115662,0.0,-0.0
0.27961173069903567,0.6352693657630155,0.6545394825637999,1.0897983686446877,0.05473947987198996,0.6964968052181889,0.43113691046401326,1.2880362658562379,0.0014560277678267496,0.03693573982356795,0.734471208461102,0.2378790530535346,1.4627984779710455,0.24438942788627072,-0.3035495512532799,1.6872856739759152,0.7737697704709748,0.0,-0.0
0.29856150861425373,0.6484288797123337,0.6572382232079567,1.0876825849173017,0.07316128482641097,0.6918304584819971,0.4186938427419481,1.2769567812263503,0.0014560277678267496,0.03693573982356795,0.734471208461102,0.2378790530535346,1.4711618733210698,0.24654775559662742,-0.30506082799667433,1.6885500845908699,-0.7051138650729996,-0.0,0.0
0.28025685818397444,0.6349225919479853,0.655446571335678,1.0906943291970268,0.055207308580080924,0.6956322178989384,0.43151637344306537,1.2889182506503212,0.0014560277678267496,0.03693573982356795,0.734471208461102,0.2378790530535346,1.4629816507602855,0.2444455863767166,-0.303615971392021,1.6875434619498084,0.7753295180742089,0.0,-0.0
0.29740937734026673,0.6468540119296625,0.6578692772496852,1.0887538454498296,0.07188739426566695,0.6914196961329234,0.42023737838279707,1.278870353288579,0.0014560277678267496,0.03693573982356795,0.734471208461102,0.2378790530535346,1.4705507826859963,0.24639891503226757,-0.3049829283802713,1.6886828047856692,-0.706503773073852,-0.0,-0.0
0.2797055949460358,0.6336342560914064,0.6557618850119338,1.0913970431495472,0.05401284514587536,0.6952625306555565,0.43295006444653145,1.290684340835226,0.0014560277678267496,0.03693573982356795,0.734471208461102,0.2378790530535346,1.4624131973292862,0.24430688824317826,-0.3035432816179291,1.6876650286231707,0.7746060063817455,-0.0,-0.0
0.2987111382668669,0.6468174615050123,0.6584854263272328,1.0892921152498256,0.0724918069478784,0.6905419253376086,0.4205048381984993,1.279640385876624,0.0014560277678267496,0.03693573982356795,0.734471208461102,0.2378790530535346,1.470792456833969,0.24647005034569935,-0.3050587482507497,1.6889420457966287,-0.7077907550553759,-0.0,-0.0
0.2804842496793332,0.633382066704497,0.6566854569701664,1.0922750199621785,0.0546102437190087,0.6943675616097256,0.43324013353981133,1.2914839310196944,0.0014560277678267496,0.03693573982356795,0.734471208461102,0.2378790530535346,1.4626551120500872,0.24437817972181877,-0.3036201916975561,1.6879311923308304,0.7742434829755217,0.0,0.0
0.29951000640541087,0.6466072184838911,0.6593838062789852,1.0901327694277638,0.07311608378653459,0.6896594529000694,0.42075802917581007,1.2803978958852757,0.0014560277678267496,0.03693573982356795,0.734471208461102,0.2378790530535346,1.4710428610845743,0.2465434423133324,-0.30513607257807174,1.68920231627319,-0.7070726963541828,-0.0,-0.0
0.2818686586040542,0.6336070885244885,0.657714154888513,1.093082221674492,0.055237501048673324,0.6936795191881518,0.4339510051832202,1.2926407451184565,0.0014560277678267496,0.03693573982356795,0.734471208461102,0.2378790530535346,1.4629102754134269,0.24445289877525206,-0.3036994366315938,1.6881991773123244,0.7744408108642687,0.0,-0.0
0.2990213819472406,0.6455802396241171,0.6600961496919552,1.0910890637758368,0.07193432254294879,0.6894379214716875,0.42267965387662,1.2826308877799661,0.0014560277678267496,0.03693573982356795,0.734471208461102,0.2378790530535346,1.4704747106487894,0.24640553118639863,-0.30506546583770994,1.6893387161386282,-0.7083443973897219,0.0,-0.0
0.28073870453878497,0.6321015579119007,0.6582923964391527,1.0940856400465973,0.05399233170491782,0.693324571990214,0.4354177420539253,1.2944327344700386,0.0014560277678267496,0.03693573982356795,0.734471208461102,0.2378790530535346,1.4623196472873055,0.24430844162838417,-0.3036227086388288,1.6883175489131095,0.7750093462211081,-0.0,0.0
0.2976003400673569,0.6438235777564125,0.6606829654844568,1.092183416020338,0.07039744059764315,0.6891077634901791,0.424389340072629,1.28467788172891,0.0014560277678267496,0.03693573982356795,0.734471208461102,0.2378790530535346,1.469746365116567,0.24622622597736937,-0.30496589513905226,1.6894508303210305,-0.69705396409748,-0.0,0.0
0.27922730813184765,0.6305867719427906,0.6591702232611887,1.0953519406842902,0.0523325802685468,0.693309200167611,0.43759548185320796,1.29682399864101,0.0014560277678267496,0.03693573982356795,0.734471208461102,0.2378790530535346,1.4615423327881294,0.24411560102167995,-0.3035116787886749,1.6884037748581824,0.7813357091327028,-0.0,0.0
0.29622277332172026,0.6423475548441007,0.6616340678007591,1.0934981276337823,0.06885687870373444,0.688985110729141,0.4265558446233375,1.2871193570153177,0.0014560277678267496,0.03693573982356795,0.734471208461102,0.2378790530535346,1.469016799663389,0.24604659726068404,-0.30486621828674093,1.6895636288216276,-0.6495478577060368,0.0,-0.0
0.2779644128869024,0.6290072608950587,0.6597090860175593,1.0963469859055228,0.05096114645977341,0.6930110700397516,0.4391270295048733,1.2986515788275108,0.0014560277678267496,0.03693573982356795,0.734471208461102,0.2378790530535346,1.460896494863592,0.24395657873240906,-0.30342407572146596,1.688507672816604,0.7727969368602374,0.0,-0.0
0.2966091299034972,0.6418511108911962,0.6624713308958385,1.0943825998257535,0.06907853574908827,0.6882112823842585,0.427078200473295,1.2881063792227703,0.0014560277678267496,0.03693573982356795,0.734471208461102,0.2378790530535346,1.4690853645121467,0.24607296263527897,-0.30491053219315417,1.6897958916111138,-0.6874578022017175,0.0,-0.0
0.2784519589438373,0.6285747614074799,0.6605669670056434,1.09722877303105,0.051278256668467935,0.6922124317117203,0.43958581802499813,1.2995781665927573,0.0014560277678267496,0.03693573982356795,0.734471208461102,0.2378790530535346,1.4610123678266755,0.24399503193579905,-0.30347715719450247,1.6887482404713234,0.7689243622686417,0.0,-0.0
0.29597456036296077,0.6406598136062702,0.6631488276547961,1.0953642892400899,0.06830952495714335,0.6877078666752287,0.4282517039581713,1.289657141264581,0.0014560277678267496,0.03693573982356795,0.734471208461102,0.2378790530535346,1.4687066281206855,0.24598362288555095,-0.3048732749962338,1.6899553273845496,-0.7207259873348306,-0.0,-0.0
0.27993440066602576,0.628769919804242,0.6611477636882015,1.0976591141080139,0.052119032680763816,0.6913799717333481,0.4395980889434361,1.3000367762157097,0.0014560277678267496,0.03693573982356795,0.734471208461102,0.2378790530535346,1.4613686808641422,0.2440943847076838,-0.30356915494421627,1.6889940016518434,0.7459256828198335,-0.0,-0.0
0.2987088085823035,0.6419820023615028,0.6642072663168551,1.0958253110487821,0.07092710599234402,0.6864359582384014,0.42705220334561234,1.2890367562859855,0.0014560277678267496,0.03693573982356795,0.734471208461102,0.2378790530535346,1.4698630839575493,0.24628952907041837,-0.30510887380983154,1.6903161215653195,-0.715317989219981,-0.0,-0.0
0.2884606837573737,0.6344450084816602,0.6631772261900033,1.0974859866063174,0.0608697930889482,0.6886605927896613,0.4341529092766119,1.2955702560583546,0.0014560277678267496,0.03693573982356795,0.734471208461102,0.2378790530535346,1.4653045908282516,0.2451165029256832,-0.30430131488089235,1.6897367490427824,0.7203082530252488,-0.0,-0.0
0.3016348809869689,0.6438244737836365,0.664819665549972,1.0957273539164705,0.07373592354905022,0.6855242341753672,0.42533926107426656,1.2876651544513493,0.0014560277678267496,0.03693573982356795,0.734471208461102,0.2378790530535346,1.4711232314904106,0.24661729723857856,-0.3053448779171009,1.690565214060063,-0.6873972952200015,-0.0,-0.0
0.28447362727880854,0.631089947081879,0.6632118303109196,1.098646697051632,0.056870476335130996,0.6891496793322048,0.4373439059612854,1.2987838343087135,0.0014560277678267496,0.03693573982356795,0.734471208461102,0.2378790530535346,1.4634758699158588,0.24465063574851298,-0.3039947768614233,1.6896256345186211,0.728815875554536,-0.0,-0.0
0.3015576004946264,0.6430947916170155,0.665503486360423,1.0965572382722466,0.07352378642055674,0.6849396901699817,0.4260767031396706,1.2887884848152755,0.0014560277678267496,0.03693573982356795,0.734471208461102,0.2378790530535346,1.4709983188229265,0.24659277607418237,-0.30535048224562833,1.690742709871014,-0.6978281439549803,-0.0,-0.0
0.28386441232148407,0.6299740236481131,0.6638367211334043,1.0995574740206107,0.0561357419392311,0.6886907098406816,0.4384414027330077,1.300227464156846,0.0014560277678267496,0.03693573982356795,0.734471208461102,0.2378790530535346,1.463118107547918,0.24456596523178073,-0.30395887726961274,1.6897714695451873,0.7552838252897911,-0.0,-0.0
0.30309720450006555,0.6434571353785361,0.666449194580656,1.0972425221938513,0.07487872732384843,0.6839176769158207,0.4257926071106802,1.2890356286075508,0.0014560277678267496,0.03693573982356795,0.734471208461102,0.2378790530535346,1.4715791169886845,0.24675096218717574,-0.30548508054357726,1.691037793721219,-0.7147464217206059,-0.0,-0.0
0.2852418383018997,0.6301590083723104,0.6648259518862358,1.1003407469236726,0.057317852044317746,0.6876577253975719,0.4383250064356415,1.3006594239858678,0.0014560277678267496,0.03693573982356795,0.734471208461102,0.2378790530535346,1.4636225242178529,0.24470496016516902,-0.3040822914228386,1.6900728843030657,0.7520148508708613,-0.0,-0.0
0.3026252387439912,0.6423943778398413,0.6671377978682871,1.098188250436214,0.07427005772587392,0.6833801625494486,0.426847187397546,1.2904793853584633,0.0014560277678267496,0.03693573982356795,0.734471208461102,0.2378790530535346,1.4712726681074013,0.24668021303645357,-0.3054602522977457,1.6912045663513,-0.7155785900848468,-0.0,-0.0
0.2854980011314465,0.6294559781009019,0.6652491113151279,1.1009371347343582,0.056925115367734494,0.6871033008366811,0.4391989876137026,1.3019110954865918,0.0014560277678267496,0.03693573982356795,0.734471208461102,0.2378790530535346,1.463418950283902,0.24466020001641509,-0.3040745277756235,1.6902443359432444,0.7522992997408893,-0.0,-0.0
0.3050355179065806,0.6432055003272625,0.6678508786429802,1.0985205117820565,0.07598206032861969,0.6822736066211759,0.42631540898736087,1.29050363199107,0.0014560277678267496,0.03693573982356795,0.734471208461102,0.2378790530535346,1.4720139784825357,0.24687979985482247,-0.30562341150074024,1.6915213629858044,-0.7129923657579696,-0.0,-0.0
0.28833698673426145,0.6305097678926852,0.6660916197189529,1.1012988693356518,0.05904975855602111,0.6858480828274339,0.43842897456049507,1.3017530024985524,0.0014560277678267496,0.03693573982356795,0.734471208461102,0.2378790530535346,1.4643484082008669,0.24490877913654543,-0.30427368794837084,1.6906034137960884,0.7693784787754333,0.0,-0.0
0.3076945442210885,0.644243327640493,0.6685579013281737,1.098770530310305,0.0779584980000049,0.6811391088641978,0.42556705136874473,1.2903092075258702,0.0014560277678267496,0.03693573982356795,0.734471208461102,0.2378790530535346,1.4728755357600916,0.24710998954406663,-0.30580639560902867,1.6918433897497482,-0.7074671787639287,-0.0,-0.0
0.2897631050308876,0.6305120763936958,0.6667684424654593,1.1018728942026306,0.05975062962005223,0.6849070714934717,0.4386630858778206,1.3025199580706983,0.0014560277678267496,0.03693573982356795,0.734471208461102,0.2378790530535346,1.4646332257783123,0.24499145845917417,-0.3043585997441611,1.6908803906649987,0.7712191262578721,-0.0,-0.0
0.3072337163641553,0.6427241484186913,0.6685990806958874,1.0993110370831638,0.07687308888928954,0.6804472315592343,0.42658200150499154,1.2917881902848742,0.0014560277678267496,0.03693573982356795,0.734471208461102,0.2378790530535346,1.4723513973860978,0.2469837208786971,-0.3057447280861111,1.6919950296636228,-0.7053726121181702,-0.0,0.0
0.2887249314315749,0.6285936094864251,0.6667045260777084,1.102459238677141,0.05808056788529065,0.6843749053011433,0.4400597135268929,1.3043242930906689,0.0014560277678267496,0.03693573982356795,0.734471208461102,0.2378790530535346,1.4638511526877738,0.2447981331738403,-0.30424958489488185,1.6909872903988947,0.7730446145583411,0.0,0.0
0.3055134432587043,0.6404585974475299,0.6688219849860289,1.1002615120102353,0.07502126397313265,0.680122442844534,0.4285700682748631,1.2941331280022943,0.0014560277678267496,0.03693573982356795,0.734471208461102,0.2378790530535346,1.47148057438568,0.2467684080530426,-0.30562253046069476,1.6921088446690915,-0.7048089920239916,-0.0,-0.0
0.2865511062670298,0.6263357471328705,0.6671720410717746,1.103620221987023,0.055732552613254896,0.6842407117889228,0.4423241280498915,1.306860238368707,0.0014560277678267496,0.03693573982356795,0.734471208461102,0.2378790530535346,1.4627643173063325,0.2445260959660344,-0.30408586501321627,1.6910504298162488,0.7732763797726645,0.0,-0.0
0.30501993824466506,0.6392925391134384,0.6695992651643363,1.101317257684956,0.07435074760004336,0.679466751190269,0.42979049476986836,1.29581992250093,0.0014560277678267496,0.03693573982356795,0.734471208461102,0.2378790530535346,1.471140657451913,0.24669059946689798,-0.30559746757726647,1.6923120202796949,-0.7068509517026431,0.0,0.0
0.28626757485541904,0.625354127275915,0.6679381311116874,1.1046055258109437,0.05527864242400323,0.6835742565202308,0.44335782849094,1.308343832532145,0.0014560277678267496,0.03693573982356795,0.734471208461102,0.2378790530535346,1.4625288165342987,0.2444745700243637,-0.30407792053483484,1.6912568347411583,0.7740730316657752,0.0,-0.0
0.3048497261180614,0.6383728196542281,0.670398465490623,1.102308533655929,0.07400985302209959,0.6785068131738842,0.43031988803058396,1.2969114898806877,0.0014560277678267496,0.03693573982356795,0.734471208461102,0.2378790530535346,1.4709502115818403,0.24665115149287575,-0.3055984668875467,1.6925315031634416,-0.7084339920506082,-0.0,-0.0
0.2901322280464128,0.6276166407801855,0.6693383012401293,1.1050382464040884,0.059476922064561816,0.6818172793299596,0.44100878602161264,1.3067428104711267,0.0014560277678267496,0.03693573982356795,0.734471208461102,0.2378790530535346,1.464392528522803,0.24496339583590546,-0.3044408586503487,1.6917240875957533,0.7743473531863827,-0.0,-0.0
0.30318466477297396,0.6367285124884507,0.6707200730288416,1.1031372032868723,0.07227494416705509,0.6784734217417041,0.4319901787100935,1.2987509337147771,0.0014560277678267496,0.03693573982356795,0.734471208461102,0.2378790530535346,1.47014838217485,0.24644976233400157,-0.3054749079455944,1.69255908871456,-0.7108852064697572,-0.0,-0.0
0.28455926305511436,0.6229722262627361,0.6689789317819808,1.1062979909271458,0.053346273803364874,0.6826347482853349,0.4453744992424723,1.3110392732747496,0.0014560277678267496,0.03693573982356795,0.734471208461102,0.2378790530535346,1.4616133499987203,0.24425209067382567,-0.3039650430741746,1.691485511071947,0.7718485351390248,0.0,-0.0
0.3033611386112409,0.6358559962135885,0.6712180836325244,1.1038529361992222,0.07173449529998106,0.677586714696087,0.4326465187768253,1.2999387407604408,0.0014560277678267496,0.03693573982356795,0.734471208461102,0.2378790530535346,1.4698697053853118,0.24638725368789038,-0.3054592051529413,1.692760035905391,-0.7092739230388863,0.0,0.0
0.28443395543601274,0.6218512668937084,0.6693911376234192,1.1070251651154255,0.053101925124278526,0.6816973922910494,0.4458047774048307,1.3120056463471652,0.0014560277678267496,0.03693573982356795,0.734471208461102,0.2378790530535346,1.4614742072991111,0.2442250228331304,-0.3039730152110784,1.691696508725448,0.7757364041694155,-0.0,-0.0
0.3034459385676687,0.6350694108493521,0.6720136382652042,1.1047960010987348,0.07225256734166358,0.6766862981684123,0.43301220788555567,1.3008252544075771,0.0014560277678267496,0.03693573982356795,0.734471208461102,0.2378790530535346,1.470067447117019,0.24644763680048115,-0.3055285760717737,1.6930266869948998,-0.7089846476566958,-0.0,-0.0
0.28657140152144683,0.6226165126224438,0.6704234734777937,1.1076475334214835,0.05509908836687068,0.6804565516919816,0.445139274319398,1.311951788350492,0.0014560277678267496,0.03693573982356795,0.734471208461102,0.2378790530535346,1.462342144021334,0.24445804586495115,-0.3041618496253301,1.6920534671892897,0.7741535795133677,0.0,0.0
0.30452725910871137,0.6351810296899577,0.6728186998628202,1.1054438405913807,0.0732055141341756,0.6755599662947841,0.4325393280219844,1.3009169629132746,0.0014560277678267496,0.03693573982356795,0.734471208461102,0.2378790530535346,1.4704654521349951,0.24655837367721098,-0.3056288410324923,1.6932868888731425,-0.7028743546864386,0.0,0.0
0.2862317991290195,0.6214132180156304,0.6707979754640001,1.1083709336104632,0.05402155010619773,0.6797269664562419,0.4461439638494897,1.3134311544151047,0.0014560277678267496,0.03693573982356795,0.734471208461102,0.2378790530535346,1.4618284670041097,0.24433427678859485,-0.30410254971948697,1.6922105956048914,0.7800453599555197,0.0,0.0
0.30134156342716456,0.6319634918026868,0.6728377626229413,1.1065440393126704,0.06925786948832251,0.675773533274655,0.435936687571526,1.3044926703290776,0.0014560277678267496,0.03693573982356795,0.734471208461102,0.2378790530535346,1.4686586194431144,0.2461008433691963,-0.30533757562253605,1.6932591538312025,-0.6640829157534925,0.0,0.0
0.28325047049905394,0.6187180416802598,0.6710224938169744,1.1094736394525058,0.050882030390036755,0.6801566881994622,0.44926517720382364,1.3165923491683813,0.0014560277678267496,0.03693573982356795,0.734471208461102,0.2378790530535346,1.4603968677544423,0.24397125431807595,-0.3038706008471683,1.6921800032445031,0.7862632984176977,0.0,0.0
0.2983858808231401,0.6293593375414062,0.6734560004386355,1.1079534548917342,0.06659436293501544,0.6759588153402949,0.43884948696799136,1.307563227036251,0.0014560277678267496,0.03693573982356795,0.734471208461102,0.2378790530535346,1.4674327533937044,0.2457924350436207,-0.3051475473551909,1.6932937299738613,-0.5944361684459796,0.0,0.0
0.28176087905473646,0.6170942055140726,0.6713676276198227,1.1103179437976376,0.04921035478401825,0.6800120509330696,0.45092601091439294,1.318467281149116,0.0014560277678267496,0.03693573982356795,0.734471208461102,0.2378790530535346,1.4596253299982187,0.24377856433747766,-0.3037567885215346,1.6922421706486208,0.7824750142842383,0.0,0.0
0.2950737736518354,0.6264059816166598,0.6735567057544671,1.1090378955838358,0.06302180595495212,0.6762699215842396,0.44181926483136347,1.3106135747914904,0.0014560277678267496,0.03693573982356795,0.734471208461102,0.2378790530535346,1.4658052510241806,0.24537889133312926,-0.3048805824459144,1.6932362151581382,-0.5441653646353519,0.0,0.0
0.2768644725057542,0.6131154865283394,0.6711227429606148,1.1114553191267482,0.04400996705292975,0.6808555520379646,0.4548851128203544,1.3222984589663458,0.0014560277678267496,0.03693573982356795,0.734471208461102,0.2378790530535346,1.4572766772502814,0.2431770712096986,-0.30335485623479513,1.692041312153084,0.7671162801941418,0.0,0.0
0.2923053414956678,0.6237406460556348,0.673837379448379,1.110179595873365,0.059992745916550225,0.6763454361394104,0.44451653726524715,1.313490557342279,0.0014560277678267496,0.03693573982356795,0.734471208461102,0.2378790530535346,1.4644181524818174,0.24502862746951815,-0.30466143657432027,1.6932461944736945,-0.6254161074201641,0.0,0.0
0.27560222212238666,0.6118613078531768,0.6718025388196618,1.1124636888246162,0.04309724147319903,0.6805362852785223,0.45602059445662146,1.3236919940646885,0.0014560277678267496,0.03693573982356795,0.734471208461102,0.2378790530535346,1.456847537682867,0.24307262475527833,-0.3033021940719267,1.6921506079677384,0.762592524647203,0.0,0.0
0.29257961992518206,0.6234989529316178,0.6748315070969555,1.1111126701251923,0.06065998431688756,0.675543316782898,0.44466176369516913,1.3140735516645599,0.0014560277678267496,0.03693573982356795,0.734471208461102,0.2378790530535346,1.4646902092702132,0.24510652557779405,-0.3047385627893084,1.6934848452323543,-0.6639606312417226,0.0,-0.0
0.2738190412949248,0.6099161864937587,0.6722123775875636,1.1134738206952453,0.04109444609519007,0.6803728196549398,0.4580063208179093,1.325919795685832,0.0014560277678267496,0.03693573982356795,0.734471208461102,0.2378790530535346,1.4559263095849895,0.2428423683538777,-0.3031663196232303,1.692224866429868,0.7645246368537411,0.0,-0.0
0.33050034484309493,0.6485269187169797,0.6825683358280412,1.1092498486537745,0.09968458132668201,0.6634558978045436,0.4203584906209212,1.2942465229492017,0.0014560277678267496,0.03693573982356795,0.734471208461102,0.2378790530535346,1.4820657971891982,0.24962486281994153,-0.30796476424874525,1.6967517550400397,-0.6884305211568419,-0.0,0.0
-0.5123610802418215,0.3012509819807297,1.0921723045766052,1.5774426179429275,0.22808497323164387,0.7517382134520775,0.5707788305169159,1.4156323404853353,0.0014560277678267496,0.03693573982356795,0.734471208461102,0.2378790530535346,1.1117421968338619,0.1547683999663076,-0.24457580610773264,1.66501827289645,0.7692065256422829,0.0,0.0
-0.49233910447497353,0.3035291550674918,1.1124329508310242,1.5901495435139748,0.24384549080385645,0.7477002529491271,0.5591494954133317,1.4061916752059118,0.0014560277678267496,0.03693573982356795,0.734471208461102,0.2378790530535346,1.1178899213769526,0.1565282449102166,-0.24673370986636503,1.6738870843672002,-0.6986525533867053,-0.0,-0.0
-0.4803744260342922,0.3052980362770343,1.124110893422374,1.5971525866948157,0.25298634534356973,0.7456367981269071,0.5520836939556288,1.4002417553794997,0.0014560277678267496,0.03693573982356795,0.734471208461102,0.2378790530535346,1.1215022384703,0.15756412782481108,-0.24796327069079324,1.6789679650236762,0.76913010254989,-0.0,-0.0
-1.3076519990731712,0.8467552347338929,1.0653273009043471,1.332849559916978,0.1218729926545129,1.0321657157671962,0.9074403353306801,1.624946838423697,0.0014560277678267496,0.03693573982356795,0.734471208461102,0.2378790530535346,0.8342823084272735,0.07511907488296442,-0.15192339222849505,1.2809458897549273,-0.7073738393349941,-0.0,0.0
-1.4894699804682212,1.5367987720025449,0.2775797437594826,0.5295988786201171,-0.11079777499612847,1.4899811524930406,0.9404963527527431,1.4591850996831879,0.0014560277678267496,0.03693573982356795,0.734471208461102,0.2378790530535346,0.6249610661342261,0.03773581156826172,0.10823115953157836,0.4644549464286203,0.7736890212946608,0.0,-0.0
-1.502682314654914,2.0748585737931826,-0.3464116938470577,-0.2480402514595449,-0.20573906527944477,1.6599837759444314,0.8317398036711384,1.3119881136100666,0.0014560277678267496,0.03693573982356795,0.734471208461102,0.2378790530535346,0.5598989678045481,0.10194327105739444,0.5020530628630312,-0.46186084901185265,-0.7069456422820765,-0.0,0.0
-1.5380127216146267,-0.04761970969263363,2.75738854596467,2.280391892073223,-0.5087295072840725,2.212252791804496,0.3822945988695673,0.7517591212128722,0.0014560277678267496,0.03693573982356795,0.734471208461102,0.2378790530535346,0.3655013765118895,0.3181793156697018,-0.9751307133136243,2.6903022599601885,0.7735786437595545,-0.0,0.0
-1.494484705503936,0.13366774472368526,2.2818825479008797,2.0447836747325203,-0.5876819388706699,2.436227478560136,0.13262104869832006,0.43549657279036275,0.0014560277678267496,0.03693573982356795,0.734471208461102,0.2378790530535346,0.3098883051486259,0.31816653760373453,-0.9957277078989278,2.438184792733855,-0.7079488595561578,-0.0,0.0
-2.196013910733977,0.9410054466060198,1.1181791137829058,1.0093966476805012,-0.8721484701180502,4.020799257303922,-1.5744784788037174,-2.181785449305428,0.0014560277678267496,0.03693573982356795,0.734471208461102,0.2378790530535346,0.14482548259738792,0.321846104594073,-0.7100653608989395,1.442829387612746,0.7720713321505225,-0.0,0.0
-2.07802174804623,1.152739512403142,0.8927511712308993,0.7972295476712119,-0.539375760162325,3.9300781757205376,-1.2709378618241591,-2.118417229407117,0.0014560277678267496,0.03693573982356795,0.734471208461102,0.2378790530535346,0.12933108535026228,0.3229490020212777,-0.5315026587141956,1.0764903843424403,-0.7135774595772704,0.0,-0.0
-1.8022265515428326,1.9527987645151677,-0.044227201532094695,-0.06129373553025719,1.594650022595985,3.7341915363667266,-0.3637147474313841,-1.7222066550227897,0.0014560277678267496,0.03693573982356795,0.734471208461102,0.2378790530535346,0.08676643698945233,0.32219699276080427,0.20043463253461202,-0.4573336065915168,0.7755007366075273,0.0,-0.0
-1.7655326734055383,-1.8815074352943544,4.845473171136369,5.23744299539947,1.5833737765997167,3.6885782725756635,-0.13447222366589323,-1.438018509126317,0.0014560277678267496,0.03693573982356795,0.734471208461102,0.2378790530535346,0.07677394218972547,0.31868285215165587,-0.32867894902255634,0.7521546223030853,-0.7088991906579812,-0.0,0.0
-2.3326621143913373,-2.8644073715413274,4.9117964959676055,5.57427805362725,1.5721104364369518,3.354930491478489,0.5558802073478766,-0.25416306111423004,0.0014560277678267496,0.03693573982356795,0.734471208461102,0.2378790530535346,0.04691859927553148,0.3199166611335266,0.7712494074186531,-1.6375264550957274,0.7734324386787423,0.0,-0.0
-2.0868076931426676,-3.072097902821335,5.1337614600202235,5.746301364471649,1.5719767522928427,3.862228546507855,-0.3674731486330476,-0.27176152519057883,0.0014560277678267496,0.03693573982356795,0.734471208461102,0.2378790530535346,0.039611447448717065,0.3235467691011395,0.6419719723557598,-1.295313804346109,-0.7061947315564017,0.0,-0.0
-1.5357379283796588,-4.111502573132762,6.283359803335447,6.586852677422846,1.571503044107652,2.2844827547419593,1.7948098991982344,1.5282408555829798,0.0014560277678267496,0.03693573982356795,0.734471208461102,0.2378790530535346,0.014973870159334785,0.34830198807156965,-0.031440683401639746,0.3293833065351033,0.7744984799575748,-0.0,0.0
-1.5419270255646715,-3.1074760068216802,5.330002945675721,4.2443182947484495,1.5709559354650344,2.362807689666665,1.5954423177341994,1.3962123695672148,0.0014560277678267496,0.03693573982356795,0.734471208461102,0.2378790530535346,0.009782094063564603,0.36816021496107526,0.6600204377652334,-1.211693562469252,-0.707806465264422,-0.0,0.0
-1.586548261603739,-3.6004851773143622,6.436569545068808,5.1372385462590815,1.5707219697414796,2.6818984578665077,1.0027824033501618,0.938137523742283,0.0014560277678267496,0.03693573982356795,0.734471208461102,0.2378790530535346,-0.005214634996191561,0.40778424679026287,0.04468744517075529,0.19781061866422767,0.7744622711872102,0.0,-0.0
-1.5820197956474156,-3.9215087240195503,6.6353614777279954,5.951975412541457,1.570741021850299,2.852268560788535,0.7758138924988501,0.7332248202450948,0.0014560277678267496,0.03693573982356795,0.734471208461102,0.2378790530535346,-0.012681879285830712,0.4597340093197987,1.298409246349911,-2.5872971626696435,-0.7070155709549226,0.0,-0.0
-1.5731080353848301,-1.047197655182817,-0.8753280687647935,10.291923127159137,1.570778169506734,3.522358671411781,-0.0977154199120921,-0.06792243014342036,0.0014560277678267496,0.03693573982356795,0.734471208461102,0.2378790530535346,-0.03179781034097392,0.493285564826754,1.0254978318580947,-1.6404531953423058,0.7748272412185256,0.0,-0.0
-1.5738053517162278,-1.1666218422943189,-1.449168312715826,10.071399883677758,1.5707810600735204,1.848688411118113,2.2205111673326243,1.8157891509658661,0.0014560277678267496,0.03693573982356795,0.734471208461102,0.2378790530535346,-0.037479829332167404,0.5148771091537531,0.8389496409747839,-1.266422134166801,-0.704653879561215,0.0,-0.0
-1.5773388829888741,-1.476666349190534,-3.2788067956771236,11.009630630805496,1.5707573886580966,2.1799800241363054,1.5602704077570237,1.3528854488241233,0.0014560277678267496,0.03693573982356795,0.734471208461102,0.2378790530535346,-0.05335003588808536,0.5830791119065513,0.19129801579349526,0.077115313760443,0.7740609466364736,-0.0,-0.0
-1.5846064359161993,-1.333022456955297,-2.9651520871419432,11.16974041926425,1.5708629685810203,2.334587139917755,1.3775168943464218,1.1873101191665276,0.0014560277678267496,0.03693573982356795,0.734471208461102,0.2378790530535346,0.2895042293287399,-1.4486566455374636,2.905311171131556,-6.651525501291395,-0.705996434886819,-0.0,0.0
-1.902039730249721,-0.05021376251665388,-2.7142660329548405,12.56525935988597,1.570707141319317,2.8411265220170026,0.7610061915336725,0.637006628116175,0.0014560277678267496,0.03693573982356795,0.734471208461102,0.2378790530535346,1.7921414046482462,-1.2512193724892793,3.477729618039745,-7.2300443416466935,0.773969971371711,-0.0,0.0
