muneebpandith/TeleoperationWork/DATASET/MORE_DATA/training_data_for_transformer1686208429.2866712.csv
J0,J1,J2,J3,J4,J5,J6,J7,J8,J9,J10,J11,J12,J13,J14,J15,ThetaXHG,ThetaYHG,ThetaZHG
0.032576189163786275,0.6072856183959775,0.7050937725124149,1.1847081779240072,-0.042313362431869825,0.7490482655390978,0.5389604024859658,1.3703914037019793,0.020432930654819513,-0.039368210265062625,0.765391149825555,0.2378790530535346,1.4607955065748974,0.2261936106395801,-0.2935869564622994,1.6624419983119458,-0.0027800662509502422,-0.0,0.0
0.030871690487420424,0.6066060776352206,0.7043309779621997,1.1842940983347192,-0.043914452599049615,0.7498711194269209,0.5396309200340847,1.3707044171824394,0.020432930654819513,-0.039368210265062625,0.765391149825555,0.2378790530535346,1.4600835902137512,0.22601037380231562,-0.2934545003312174,1.6623178885031087,-0.014287602410453399,-0.0,0.0
0.029286576964819018,0.6059791758150229,0.7036163758591308,1.1839025496163336,-0.0454030334700366,0.7506404649673448,0.5402492929736362,1.3709885345877546,0.020432930654819513,-0.039368210265062625,0.765391149825555,0.2378790530535346,1.4594217017320743,0.2258399576584496,-0.29333110067944307,1.6622008749920434,-0.01059697655653862,-0.0,-0.0
0.02783317730848173,0.6054086712068968,0.702956690528879,1.1835380121197534,-0.04676760981469162,0.751349392901968,0.5408118650950323,1.3712431075912284,0.020432930654819513,-0.039368210265062625,0.765391149825555,0.2378790530535346,1.4588149498073744,0.22568369013980044,-0.29321776590989684,1.662092223161256,-0.01572901920849591,-0.0,-0.0
0.02786363598311003,0.6054205443652669,0.7029706011901605,1.1835457579341089,-0.04673901857408755,0.7513344686723884,0.5408001602441169,1.3712378864425683,0.020432930654819513,-0.039368210265062625,0.765391149825555,0.2378790530535346,1.4588276628237344,0.2256869652539281,-0.2932201446896829,1.662094526325819,-0.04762437304252852,-0.0,0.0
0.027381388006022193,0.6052325307971618,0.7027503840646064,1.1834231548085334,-0.04719170170613393,0.7515707396115261,0.5409855096914915,1.371320589925507,0.020432930654819513,-0.039368210265062625,0.765391149825555,0.2378790530535346,1.45862637855059,0.22563511090785307,-0.2931824830095039,1.6620580693232783,-0.052076478627750715,-0.0,-0.0
0.02722291849248073,0.6051708915126851,0.7026778714239769,1.183382683130965,-0.047340445742318014,0.751648495732063,0.5410462700707864,1.3713475703464448,0.020432930654819513,-0.039368210265062625,0.765391149825555,0.2378790530535346,1.4585602397579236,0.225618070837535,-0.29317010086119394,1.6620460441631786,-0.06422988879745276,-0.0,-0.0
0.02773855894522059,0.605371305197979,0.702913976952761,1.1835145693625526,-0.04687158628560881,0.7513960957255342,0.5408477490724031,1.3712587401131118,0.020432930654819513,-0.039368210265062625,0.765391149825555,0.2378790530535346,1.4587754426375532,0.22567351760924262,-0.293210397601291,1.662085220872146,-0.07417263531468092,-0.0,-0.0
0.02807008262718408,0.6055004784139618,0.7030654465624777,1.1835989530141533,-0.04656039314073188,0.751233602444329,0.5407204156893368,1.3712020000103777,0.020432930654819513,-0.039368210265062625,0.765391149825555,0.2378790530535346,1.4589138140364186,0.22570916534906585,-0.2932362917113352,1.6621103079187312,-0.08278962766204673,-0.0,-0.0
0.028795900397489277,0.605783732809011,0.7033965988692972,1.1837831194897654,-0.045879053382698105,0.7508782152112337,0.5404411783657297,1.371077158120176,0.020432930654819513,-0.039368210265062625,0.765391149825555,0.2378790530535346,1.4592167697977525,0.22578720898921284,-0.29329296286348977,1.6621650897265434,-0.09759032228552107,-0.0,-0.0
0.029784345552765237,0.6061708214160598,0.7038461845837947,1.184032201461829,-0.044951083247956374,0.7503953267809608,0.5400595272646824,1.3709052988476618,0.020432930654819513,-0.039368210265062625,0.765391149825555,0.2378790530535346,1.4596293874772577,0.22589348767182552,-0.29337008060528647,1.6622392694981982,-0.10726685417424868,-0.0,-0.0
0.03061771851759192,0.6064987220270165,0.7042236413902423,1.1842402293405077,-0.04416858641827659,0.7499894500705091,0.5397361722064444,1.3707582817201236,0.020432930654819513,-0.039368210265062625,0.765391149825555,0.2378790530535346,1.4599773196772796,0.22598308831670316,-0.2934350319609885,1.6623013246690335,-0.10154965301465073,-0.0,-0.0
0.03130437226449383,0.606769963556686,0.7045335365785049,1.184410260486042,-0.04352377439417966,0.749655901789243,0.5394686482367393,1.3706356736651213,0.020432930654819513,-0.039368210265062625,0.765391149825555,0.2378790530535346,1.4602640305457866,0.22605691129082253,-0.2934885013277382,1.6623521165192343,-0.09622053124417872,-0.0,-0.0
0.03203267680140272,0.6070585919726825,0.7048612603845335,1.1845894065136262,-0.042861156572535454,0.7493038384717834,0.5391826785042158,1.3705027155990392,0.020432930654819513,-0.039368210265062625,0.765391149825555,0.2378790530535346,1.4605681624146127,0.22613520957568745,-0.29354517300603844,1.6624056937271963,-0.09838890109728571,-0.0,-0.0
0.03357541986436584,0.607672081302699,0.7055532896754134,1.1849661933177844,-0.041412128296661445,0.7485577368696785,0.5385774749078345,1.3702216701561212,0.020432930654819513,-0.039368210265062625,0.765391149825555,0.2378790530535346,1.4612124622454814,0.22630106043099799,-0.29366512668434935,1.662518520520055,-0.1046893303561227,-0.0,0.0
0.03510320990459574,0.6082840208047611,0.70623404377617,1.1853336840564734,-0.03997682426507415,0.7478224692091483,0.5379736187815859,1.3699372635624594,0.020432930654819513,-0.039368210265062625,0.765391149825555,0.2378790530535346,1.461850660118079,0.22646529189801146,-0.29378372491231614,1.6626288608626882,-0.10389330337513546,0.0,-0.0
0.03574628992435919,0.6085434300532261,0.7065186835493289,1.1854860184566454,-0.03937253965857775,0.7475144834994525,0.5377175591261394,1.3698150103844875,0.020432930654819513,-0.039368210265062625,0.765391149825555,0.2378790530535346,1.4621193521135598,0.22653441574072306,-0.29383356532945876,1.6626747249503282,-0.09446448523354031,0.0,0.0
0.03609133465384878,0.6086830292574037,0.7066709769228944,1.1855672230835979,-0.03905841338307449,0.7473499842848947,0.5375792054708429,1.3697481442784032,0.020432930654819513,-0.039368210265062625,0.765391149825555,0.2378790530535346,1.4622635327908402,0.22657150312632526,-0.29386028915926776,1.6626992022323592,-0.08471115323272232,0.0,0.0
0.036612568795109705,0.6088942464111892,0.7069006868369317,1.1856894632600259,-0.03858386205629329,0.7471017533980056,0.5373698731103687,1.3696466855820841,0.020432930654819513,-0.039368210265062625,0.765391149825555,0.2378790530535346,1.4624813474891534,0.22662752754225754,-0.29390064429750956,1.6627360720332633,-0.09827518964864226,-0.0,-0.0
0.03732800161889501,0.6091848515721264,0.7072152578359975,1.1858563561111986,-0.03793245619289019,0.7467615901625054,0.5370818614657173,1.3695064947933362,0.020432930654819513,-0.039368210265062625,0.765391149825555,0.2378790530535346,1.4627803381093554,0.22670442356301618,-0.29395600444500336,1.6627864582664948,-0.09716761934152661,-0.0,-0.0
0.03797715314452385,0.6094493973489501,0.7074997848221829,1.186006677972968,-0.03732227084702113,0.7464528850128255,0.536820654002834,1.369379395087486,0.020432930654819513,-0.039368210265062625,0.765391149825555,0.2378790530535346,1.4630516583817732,0.22677419349166272,-0.29400619805216427,1.6628319020720939,-0.09444049290416313,0.0,-0.0
0.038782391279980045,0.6097785241041704,0.7078517117637381,1.1861918963697042,-0.0365652964213484,0.7460707563292951,0.5364956377329592,1.369220378565833,0.020432930654819513,-0.039368210265062625,0.765391149825555,0.2378790530535346,1.463388250464055,0.22686073713198174,-0.29406841818814805,1.6628879638781124,-0.10041747514260103,0.0,0.0
0.0386286020562375,0.6097154354023772,0.7077847388347601,1.1861568177703594,-0.03670988497686531,0.7461435469835889,0.5365579487341869,1.3692510699827247,0.020432930654819513,-0.039368210265062625,0.765391149825555,0.2378790530535346,1.4633239580567718,0.22684420903301827,-0.29405654504112505,1.6628773300214934,-0.0645735655368575,0.0,0.0
0.03932298790046335,0.610000093801539,0.708087340719875,1.186315458684994,-0.036077457356603754,0.7458154912428144,0.536275796672952,1.3691114617256634,0.020432930654819513,-0.039368210265062625,0.765391149825555,0.2378790530535346,1.4636142427948577,0.22691883679766825,-0.29411016306064935,1.6629254068748789,-0.09878457410359007,-0.0,-0.0
0.03940138116195419,0.6100323316478319,0.7081213976142094,1.186333238723357,-0.036003748364463774,0.7457784503473223,0.5362439547540728,1.369095709454456,0.020432930654819513,-0.039368210265062625,0.765391149825555,0.2378790530535346,1.4636470182823564,0.22692726173402183,-0.29411621190740067,1.6629308023902076,-0.07350924551520173,-0.0,-0.0
0.04063428206785451,0.6105395198632297,0.708656827275268,1.1866126371728185,-0.0348445042459025,0.7451960523546914,0.5357429874686566,1.3688477202734162,0.020432930654819513,-0.039368210265062625,0.765391149825555,0.2378790530535346,1.4641624889425846,0.22705976139816272,-0.29421133508775243,1.6630156012533475,-0.12092767435778028,-0.0,-0.0
0.040607332646357734,0.6105283717978333,0.7086451880279993,1.1866066091497296,-0.034869848219000146,0.7452087314915842,0.5357540015934659,1.3688532273472334,0.020432930654819513,-0.039368210265062625,0.765391149825555,0.2378790530535346,1.4641512193153599,0.22705686528296992,-0.29420925851763846,1.6630137673039709,-0.06928167630983591,-0.0,-0.0
0.043209115690803074,0.6116045114794307,0.7097690141109809,1.1871887408111281,-0.03242306996478443,0.7439845389847153,0.5346907973399846,1.3683217393495675,0.020432930654819513,-0.039368210265062625,0.765391149825555,0.2378790530535346,1.4652392203723348,0.22733646574739994,-0.2944097428689337,1.6631908640459159,-0.15436286196206148,0.0,-0.0
0.04286084407573962,0.6114587809306772,0.7096203389478529,1.187112975911677,-0.032750718130560456,0.7441470074599001,0.5348348540207103,1.3683952437088425,0.020432930654819513,-0.039368210265062625,0.765391149825555,0.2378790530535346,1.4650935213157539,0.22729904228846526,-0.2943829793204176,1.6631676934782327,-0.05233285694948756,0.0,0.0
0.04677306062263972,0.6130932824813619,0.7112930870332195,1.187967303503531,-0.029070358653131116,0.7423198515170644,0.5332192448781653,1.3675731066363999,0.020432930654819513,-0.039368210265062625,0.765391149825555,0.2378790530535346,1.466730099614344,0.22771943360391259,-0.29468372993879716,1.6634287788629658,-0.19347810290563205,0.0,0.0
0.045033005455093804,0.6123537012404477,0.71056231386428,1.1876035139323762,-0.030708235491988152,0.7431219647192963,0.5339508807549964,1.3679565518659131,0.020432930654819513,-0.039368210265062625,0.765391149825555,0.2378790530535346,1.4660017248178816,0.22753247862417617,-0.2945505103989461,1.6633166773919015,-0.005050209347959035,0.0,0.0
0.049699798233348046,0.6143222292550571,0.7125380079237892,1.1885984850593252,-0.026316615931466655,0.7409580918091363,0.5320042278476775,1.3669494135567573,0.020432930654819513,-0.039368210265062625,0.765391149825555,0.2378790530535346,1.46795463524828,0.22803391315487592,-0.2949084510051914,1.6636221291210171,-0.24480269278439787,-0.0,-0.0
0.046322821726390837,0.6128686522750131,0.7111389905805574,1.187915948745016,-0.029397294530839634,0.7424966732948789,0.5334466048756601,1.3677240386433769,0.020432930654819513,-0.039368210265062625,0.765391149825555,0.2378790530535346,1.466540369470366,0.22767111803879259,-0.29465069991377585,1.6634104125453488,0.07034689269503512,-0.0,0.0
0.05120679900580603,0.6149404457843833,0.7131943855159193,1.1889422122628315,-0.024800401763420105,0.740242321195924,0.5313966798796859,1.3666528322541578,0.020432930654819513,-0.039368210265062625,0.765391149825555,0.2378790530535346,1.4685845589275635,0.22819585770941073,-0.2950247855834912,1.66372635439641,-0.3300809169967634,0.0,0.0
0.042976313900130396,0.6113748629074521,0.7098087857081995,1.1873081875682652,-0.03255270736173365,0.7439786857730654,0.5349283110438495,1.3685634363644283,0.020432930654819513,-0.039368210265062625,0.765391149825555,0.2378790530535346,1.465136834368098,0.2273116916025905,-0.294397586196479,1.6632176862360613,0.236240105588968,-0.0,-0.0
0.052890196281161664,0.6155190001834279,0.7140453678084011,1.18947003352679,-0.02351768103426971,0.7393608047605141,0.5308181819714273,1.3664595356523803,0.020432930654819513,-0.039368210265062625,0.765391149825555,0.2378790530535346,1.4692837128879837,0.22837690273668138,-0.2951595415106835,1.6638785926069977,-0.43994499735209647,-0.0,-0.0
0.037566938373981305,0.6088331666017596,0.7077924194976245,1.1864895293966333,-0.03795394059818929,0.7462813672906559,0.5374366368369417,1.3700759989335465,0.020432930654819513,-0.039368210265062625,0.765391149825555,0.2378790530535346,1.462863682611133,0.22673101495669903,-0.2939940222159016,1.6629468489906583,0.5003484997723211,0.0,0.0
0.049050708121573826,0.613518486588634,0.7128200998643788,1.1891406711819748,-0.027159625335184404,0.7408214010809673,0.5328143763403608,1.3678267712384808,0.020432930654819513,-0.039368210265062625,0.765391149825555,0.2378790530535346,1.4676619599719771,0.22796490316270626,-0.294881426106056,1.6637490085439979,-0.5401702288174727,0.0,0.0
0.0285817511769762,0.6047321566918664,0.7043147688322374,1.1849747701499989,-0.04643223667490519,0.7501901462020342,0.541503348636944,1.3724473789422453,0.020432930654819513,-0.039368210265062625,0.765391149825555,0.2378790530535346,1.4590940927497749,0.22576659423526438,-0.29331869400704685,1.66245804413589,0.685927391175886,0.0,0.0
0.042680079581111835,0.6102487015941617,0.7107316523701774,1.188530050282691,-0.033198083722600344,0.7432926904660888,0.5360723454738572,1.3700159819041606,0.020432930654819513,-0.039368210265062625,0.765391149825555,0.2378790530535346,1.4649747297213322,0.22728152354629946,-0.29441800850074784,1.6635173753655206,-0.595487862028646,0.0,0.0
0.020661968608763463,0.6010560892937183,0.7013110607380485,1.1837192769025757,-0.05390890494764939,0.7535903134172186,0.5451479767022254,1.3746134892896316,0.020432930654819513,-0.039368210265062625,0.765391149825555,0.2378790530535346,1.4557723749440714,0.22491727097495398,-0.2927265718960964,1.6620461770854464,0.7434091641433945,0.0,0.0
0.03515761979812836,0.6065138923178149,0.7081294996565242,1.1876472074906856,-0.04031785834890297,0.7463240899938749,0.5397847991863051,1.3724108154386627,0.020432930654819513,-0.039368210265062625,0.765391149825555,0.2378790530535346,1.4618094300831406,0.22647493773159943,-0.29386575008792415,1.6632027235197038,-0.6436807288885887,0.0,0.0
0.019081967812718044,0.6000259393063359,0.7010181205007784,1.1838500701041688,-0.055421625264150155,0.7540298064408245,0.5461779343232511,1.375449309297377,0.020432930654819513,-0.039368210265062625,0.765391149825555,0.2378790530535346,1.4551019591557854,0.22474900343107573,-0.2926217189167417,1.6620575963420967,0.761108095242358,0.0,0.0
0.03428024452353374,0.6057038156835465,0.7082125471131651,1.1880237681989436,-0.04162069380908375,0.7463997553774354,0.5405680261049497,1.3731606477348903,0.020432930654819513,-0.039368210265062625,0.765391149825555,0.2378790530535346,1.461428254374049,0.22638186395337223,-0.2938176695864051,1.6632840417661958,-0.6798272497878788,0.0,0.0
0.011974469718171676,0.5967372903439145,0.6983081081429324,1.1827114459633354,-0.06257358645492013,0.7571323251067671,0.5493870944686847,1.3773055517624915,0.020432930654819513,-0.039368210265062625,0.765391149825555,0.2378790530535346,1.4521258118704394,0.22398766629140165,-0.2920905718725301,1.6616839391524794,0.7688896811087629,-0.0,0.0
0.029006184727993333,0.6028733852916707,0.7066021256014815,1.1876762409235733,-0.04712511002110846,0.7483969131345392,0.5433381475010821,1.3750576500235774,0.020432930654819513,-0.039368210265062625,0.765391149825555,0.2378790530535346,1.4592056483416527,0.22581756196947286,-0.2934401531953462,1.6631291306623022,-0.6905510430912312,0.0,0.0
0.008165056733303679,0.5946991212314591,0.6971373284939045,1.1824553880326643,-0.06668486252241629,0.7586031567008464,0.5513524940663044,1.3786247811799504,0.020432930654819513,-0.039368210265062625,0.765391149825555,0.2378790530535346,1.4505255824353793,0.22358109547942076,-0.29181850659518743,1.6615699817915899,0.7738868847247352,0.0,0.0
0.02514995438154212,0.6006974292772579,0.7055313296136372,1.1875584779617292,-0.050792524868581074,0.7497561905719395,0.5454982645938687,1.376617380306901,0.020432930654819513,-0.039368210265062625,0.765391149825555,0.2378790530535346,1.4575793518565792,0.22540565913546157,-0.29316905034934715,1.6630486793363608,-0.6914440796040879,0.0,0.0
0.0022663191701802338,0.5918854716471155,0.6949705494568577,1.1816202327648355,-0.07225585632962815,0.7610975217306973,0.5541273990744557,1.3803023569179897,0.020432930654819513,-0.039368210265062625,0.765391149825555,0.2378790530535346,1.4480586172755776,0.22295060408617567,-0.2913822684845904,1.661285504743711,0.7737661045179928,0.0,0.0
0.01808194753617414,0.5972955464918841,0.7029641086746805,1.1865933427115758,-0.05747085797297744,0.752721712200281,0.5488556569307568,1.3786707930854232,0.020432930654819513,-0.039368210265062625,0.765391149825555,0.2378790530535346,1.4546190595497837,0.22464950715490617,-0.2926469383160334,1.6627166601598196,-0.6913248432831007,-0.0,0.0
0.0019541850920363098,0.5912972579045379,0.6953033912107109,1.1821393629075883,-0.07258117095525096,0.7608864697230143,0.5547182175443361,1.380974069521051,0.020432930654819513,-0.039368210265062625,0.765391149825555,0.2378790530535346,1.447918910707061,0.22291935426769102,-0.2913790450584745,1.6614076072831172,0.7746037113803403,0.0,0.0
0.018912986061306973,0.597089407520617,0.7038834635046384,1.1874813052810504,-0.05672892481122005,0.7518971046738703,0.549076226956365,1.3792403196623784,0.020432930654819513,-0.039368210265062625,0.765391149825555,0.2378790530535346,1.4549507299147517,0.2247405244729593,-0.29273500024391386,1.66294476318519,-0.6928838447132132,0.0,0.0
-0.0017446783180939084,0.5893733282163376,0.6941052428667862,1.1818211976388056,-0.0760847289879423,0.7623306047156535,0.5566168493426012,1.3822297624947153,0.020432930654819513,-0.039368210265062625,0.765391149825555,0.2378790530535346,1.4463712245720863,0.22252528183954726,-0.29111312122630656,1.6612786664623775,0.7784863956368453,0.0,0.0
0.010361653766579297,0.5934241634313437,0.7003147859585097,1.185739987867548,-0.06477489440144324,0.7558476716500673,0.5526754468224766,1.381106114643366,0.020432930654819513,-0.039368210265062625,0.765391149825555,0.2378790530535346,1.4513867084107288,0.22382519051364652,-0.29208435251741266,1.6624018139537444,-0.7022131511587291,0.0,0.0
-0.012608191583062383,0.5852117750599259,0.6890670888559719,1.1789792755587278,-0.08626974024092024,0.7677408815635418,0.5606841806092489,1.3839313066668097,0.020432930654819513,-0.039368210265062625,0.765391149825555,0.2378790530535346,1.4418603154396517,0.22136145094414644,-0.29026543242713027,1.6604346149242775,0.7777738156412068,0.0,0.0
0.002721556440120801,0.5900242744697237,0.6972479082387641,1.1843443421272837,-0.07197086531452755,0.7592903562240914,0.5560125939822581,1.3829237736569588,0.020432930654819513,-0.039368210265062625,0.765391149825555,0.2378790530535346,1.4482026428289605,0.2230084772177414,-0.29150903272323947,1.6619543766042129,-0.6932043296035871,0.0,0.0
-0.013377932617501895,0.5844990791312712,0.6891305352450099,1.179313427099902,-0.08701917779553028,0.7678073987141498,0.5613901071433,1.3845926840312313,0.020432930654819513,-0.039368210265062625,0.765391149825555,0.2378790530535346,1.4415345518455083,0.22128145051774903,-0.2902245832635015,1.6605040515938685,0.7730943900713185,0.0,0.0
0.004331826862981371,0.5900339394813038,0.698605812996492,1.1855409136950308,-0.07050292120506632,0.7580252131110019,0.5560198224470213,1.3834644367102054,0.020432930654819513,-0.039368210265062625,0.765391149825555,0.2378790530535346,1.448858505882235,0.22318373923149168,-0.2916618350496942,1.6622671041036232,-0.7008706213426538,0.0,0.0
-0.015668887223631772,0.5831077383863259,0.6885848531064295,1.1793731945715655,-0.08920085683149973,0.7685596369623577,0.5627607312229276,1.3856143955173827,0.020432930654819513,-0.039368210265062625,0.765391149825555,0.2378790530535346,1.4405768010906932,0.22103927697330775,-0.2900696398567666,1.6604850084607792,0.7750700587646554,0.0,0.0
-0.003610122892605174,0.5868247714466116,0.695087872961211,1.1836774761724846,-0.07795909086838079,0.7618591471989027,0.5591573672580769,1.3849161721083332,0.020432930654819513,-0.039368210265062625,0.765391149825555,0.2378790530535346,1.4455603879808752,0.22233428963777793,-0.29105010070894094,1.6617011023963406,-0.7029936840305036,0.0,0.0
-0.02654407693033846,0.5792263204832647,0.6832508133007511,1.176169030130486,-0.09870502865140315,0.774152048559895,0.5666095695043578,1.3870152936235685,0.020432930654819513,-0.039368210265062625,0.765391149825555,0.2378790530535346,1.436074818453607,0.21987450679618406,-0.2892097206303416,1.6595515097695779,0.7759084339142311,-0.0,0.0
-0.008667386702145934,0.5843628481745307,0.6932622555295893,1.1830250815804682,-0.08206299727638754,0.7639519434360725,0.5616252033487426,1.3864404257070957,0.020432930654819513,-0.039368210265062625,0.765391149825555,0.2378790530535346,1.4434546954858232,0.22179584851743323,-0.29067970565523493,1.6614683996305524,-0.7042728475195141,0.0,0.0
-0.02842018697502053,0.5780063566870595,0.6828790137349813,1.1763220291101046,-0.09991887257017297,0.7750410880770817,0.5682019407326158,1.3881859804724461,0.020432930654819513,-0.039368210265062625,0.765391149825555,0.2378790530535346,1.4352932982439854,0.21967740136662656,-0.2890871484354791,1.6595594854573417,0.7753013499498435,0.0,0.0
-0.010980789913779303,0.5829559920205547,0.6927053663131162,1.1830853715332361,-0.0841946266228649,0.7647585832169417,0.5630485083302265,1.3874871550029098,0.020432930654819513,-0.039368210265062625,0.765391149825555,0.2378790530535346,1.4424882659364118,0.22155131278516826,-0.2905232074697501,1.6614476947757995,-0.7026140529502631,0.0,0.0
-0.033269024039931525,0.5763959840474288,0.6817009788885449,1.1759164992231468,-0.10379851516237835,0.777010347871965,0.5701759826747819,1.389277291593122,0.020432930654819513,-0.039368210265062625,0.765391149825555,0.2378790530535346,1.4335306164879054,0.2192250932068313,-0.2887707842047626,1.6593227861423085,0.7750802267549433,0.0,0.0
-0.015214383192419974,0.5813752837828313,0.6920213310448781,1.183102452757906,-0.08752892798409163,0.7662566083012075,0.5649869260634341,1.3887425682755052,0.020432930654819513,-0.039368210265062625,0.765391149825555,0.2378790530535346,1.4409741759700876,0.22116524985225733,-0.290263495279588,1.6613219080900958,-0.7043427262029396,0.0,0.0
-0.037465371101296746,0.5749732166446371,0.6808829595562913,1.1757592907884196,-0.10708929385670361,0.7786011284592359,0.5719525721170791,1.3903326888530168,0.020432930654819513,-0.039368210265062625,0.765391149825555,0.2378790530535346,1.4320388853326846,0.21884320679041128,-0.28850832999618164,1.6591555796430482,0.7758397183003675,0.0,0.0
-0.020326352212684067,0.5792089291627599,0.6901595737277949,1.1823064491926825,-0.0920633182089445,0.7685800820451489,0.5672721781018142,1.3899861069336452,0.020432930654819513,-0.039368210265062625,0.765391149825555,0.2378790530535346,1.4389122832530603,0.22063593678495,-0.2898921728781253,1.661037231128584,-0.7056040177870683,0.0,0.0
-0.042684586278865524,0.572980388186789,0.6787622303453078,1.1746697494972236,-0.11170385214935964,0.781138490809134,0.5740659231423674,1.3913163883027972,0.020432930654819513,-0.039368210265062625,0.765391149825555,0.2378790530535346,1.4299415900022576,0.21830255777834867,-0.2881201945873149,1.6587981357500707,0.7773659439943428,-0.0,0.0
-0.023695142246786417,0.5774928539178724,0.6892189961683698,1.1821520802668106,-0.09506691765426571,0.7699044461171953,0.5690590116241641,1.3911608246988805,0.020432930654819513,-0.039368210265062625,0.765391149825555,0.2378790530535346,1.4375520029769708,0.220289279374444,-0.28966107938744445,1.6609373662173712,-0.7032867367913215,0.0,0.0
-0.04478574389725102,0.5717436661266531,0.6783418533450609,1.1747906997229758,-0.11298711436620501,0.7821833879996632,0.5757512831819176,1.3925033377649816,0.020432930654819513,-0.039368210265062625,0.765391149825555,0.2378790530535346,1.429096523958713,0.21808853134753461,-0.28798483027794897,1.6587871155040765,0.7753162443055078,0.0,0.0
-0.02758786619984653,0.5755669080502012,0.6875271098683274,1.1814145633431992,-0.0983713973623647,0.7716589062745256,0.5709291665575514,1.3922362051342074,0.020432930654819513,-0.039368210265062625,0.765391149825555,0.2378790530535346,1.4360024238258804,0.2198920522038886,-0.28938610611948595,1.6607484783026114,-0.6863941621287294,-0.0,0.0
-0.04271408942950718,0.5717385300452863,0.6799153411090741,1.1761887557717197,-0.11125001764241846,0.7805661659588293,0.5756370550879513,1.3930658259564803,0.020432930654819513,-0.039368210265062625,0.765391149825555,0.2378790530535346,1.4299268024080194,0.2183096308326763,-0.2881766447142353,1.65917075444526,0.7736019965051031,-0.0,0.0
-0.023189259293707288,0.5761540746079215,0.6902679545683091,1.183609869705342,-0.09465403776437156,0.768672341801713,0.5700895892547346,1.3926715302298112,0.020432930654819513,-0.039368210265062625,0.765391149825555,0.2378790530535346,1.4377645120485483,0.22035593496689002,-0.2897631876835603,1.6613734616568296,-0.7006340257222863,-0.0,0.0
-0.04430928070711723,0.5703856801540667,0.6793912831838336,1.1762605646037687,-0.1125978515840872,0.7809519709652439,0.5768113406051195,1.3940372580955995,0.020432930654819513,-0.039368210265062625,0.765391149825555,0.2378790530535346,1.429304925324909,0.21815404721245615,-0.2880875232091856,1.6592292937178683,0.7734642324210431,0.0,-0.0
-0.026551693136213445,0.5743432481673719,0.6888614892223338,1.183080268577666,-0.09750776126534522,0.7700990804832358,0.5718150436162411,1.393742896787861,0.020432930654819513,-0.039368210265062625,0.765391149825555,0.2378790530535346,1.4364289852421477,0.22001460857714975,-0.2895318367189313,1.6612466072935128,-0.70454364530973,-0.0,0.0
-0.041763525125083634,0.5704706034207043,0.6812325616509283,1.1778596079725443,-0.11045901057972156,0.7790338622537324,0.5765786949902493,1.3946113090378722,0.020432930654819513,-0.039368210265062625,0.765391149825555,0.2378790530535346,1.430324491246179,0.21842474962566596,-0.28831836830754765,1.6596711349620914,0.7739228973065608,0.0,-0.0
-0.02203416573753418,0.5749600930637828,0.6916614436785562,1.1853150213419217,-0.09368981863941742,0.7670435180648689,0.5709373026248188,1.3941712494542884,0.020432930654819513,-0.039368210265062625,0.765391149825555,0.2378790530535346,1.4382369356005786,0.22049049137078688,-0.28991784167219803,1.6618828894042517,-0.7065919007331982,0.0,-0.0
-0.04359873144722198,0.5692965525772539,0.6810222703284703,1.1781400533648796,-0.1120581300522426,0.7795780053981317,0.5778635894873444,1.3956230390752211,0.020432930654819513,-0.039368210265062625,0.765391149825555,0.2378790530535346,1.4295849424629326,0.218238682968268,-0.28820672952584103,1.6597051256771302,0.7743342578761653,-0.0,0.0
-0.025825554075277455,0.5732854497581416,0.690471551762686,1.1849240138587176,-0.09695576997051673,0.7687339139749371,0.572839884832861,1.3953027673780694,0.020432930654819513,-0.039368210265062625,0.765391149825555,0.2378790530535346,1.4367084846672336,0.2200991320797017,-0.28964941359087154,1.6617144611499508,-0.7074783685707087,0.0,0.0
-0.0474883193729825,0.5677379451186576,0.6796417059531742,1.1775380522524135,-0.11539829860314973,0.7814359055376577,0.5796510397095243,1.3965696773504364,0.020432930654819513,-0.039368210265062625,0.765391149825555,0.2378790530535346,1.4280233194054635,0.21783713901707108,-0.28792473049317824,1.6594823595150854,0.7748400977355332,0.0,-0.0
-0.027662144739275554,0.5720521679439156,0.6903163929588995,1.1852761595942543,-0.09855950307536386,0.7692377202336096,0.5741852074166267,1.396389344173449,0.020432930654819513,-0.039368210265062625,0.765391149825555,0.2378790530535346,1.4359650872599374,0.21991267022307473,-0.2895397854693392,1.6617657805529837,-0.7073910525135163,-0.0,0.0
-0.04919177338818981,0.5666054552571329,0.6794868977391031,1.1778541430137395,-0.11688329234271469,0.7819143469712969,0.5808836736244164,1.397554602857443,0.020432930654819513,-0.039368210265062625,0.765391149825555,0.2378790530535346,1.4273391008639382,0.2176652507370677,-0.28782361739772355,1.659526961960206,0.7743375410344353,0.0,-0.0
-0.029484122259461232,0.5708370180210812,0.6901532414199313,1.1856151010983127,-0.10014950988523919,0.7697457908104529,0.575510454647648,1.3974532603193115,0.020432930654819513,-0.039368210265062625,0.765391149825555,0.2378790530535346,1.43522866052374,0.2197278279847087,-0.2894307880526476,1.6618139042813445,-0.7077581103836875,-0.0,0.0
-0.04935789694398968,0.565870287984134,0.6800961212527524,1.1786893536014167,-0.11705908588126761,0.7814955076926479,0.5816289479043051,1.3984432418818524,0.020432930654819513,-0.039368210265062625,0.765391149825555,0.2378790530535346,1.4272713520517815,0.21765386273201656,-0.28784469754131903,1.659728591855383,0.7747271842723568,-0.0,0.0
-0.02924806924502393,0.5701855891567806,0.6909817391058988,1.186608258042544,-0.09998548329567845,0.7690753613506572,0.5761517370488587,1.3983490740494011,0.020432930654819513,-0.039368210265062625,0.765391149825555,0.2378790530535346,1.435317569467278,0.21975758998405878,-0.2894838181534837,1.6620623622630606,-0.708235791371577,-0.0,0.0
-0.04904349761059156,0.5652276329481765,0.6809759417822286,1.179727277484103,-0.116827466535319,0.7807720550301409,0.5822541230626499,1.3993429164269076,0.020432930654819513,-0.039368210265062625,0.765391149825555,0.2378790530535346,1.427395927253468,0.21769285114393708,-0.2879054598160956,1.6599893354622297,0.774075551422537,-0.0,-0.0
-0.034770016911898266,0.5683010484700687,0.6886911368665471,1.1853316660364395,-0.10470964004644351,0.7719632900107865,0.578358238084062,1.3992671570220454,0.020432930654819513,-0.039368210265062625,0.765391149825555,0.2378790530535346,1.4331038218769852,0.21918524147793977,-0.28906764353941816,1.66164200638604,-0.7090999398291878,-0.0,-0.0
-0.054580893632678734,0.5635302771039215,0.678486570319206,1.1782028090038321,-0.12155346021899002,0.7838145408008895,0.584270605563564,1.4000113732329826,0.020432930654819513,-0.039368210265062625,0.765391149825555,0.2378790530535346,1.4251807301925055,0.21711820576389498,-0.2874795498405978,1.659507397104441,0.7718939063392469,-0.0,-0.0
-0.04012946326624155,0.5664996076527529,0.6864385724618097,1.1840581329764224,-0.10929208347258874,0.7747911806447074,0.5804694988719103,1.4001159966619887,0.020432930654819513,-0.039368210265062625,0.765391149825555,0.2378790530535346,1.4309574012634252,0.2186299229330297,-0.2886627526223482,1.6612249630560163,-0.7193894723308213,-0.0,-0.0
-0.05984067478859331,0.5619380340377138,0.6761009278276735,1.1767301366535168,-0.1260404424252567,0.7867224760220444,0.5861638204506414,1.4006155008750196,0.020432930654819513,-0.039368210265062625,0.765391149825555,0.2378790530535346,1.4230784857187704,0.21657257842016184,-0.2870743754329007,1.6590431499351739,0.7704570260918806,-0.0,-0.0
-0.05378598933386049,0.5582089385387411,0.6704853569248924,1.173165213033544,-0.12036212211975937,0.7877284569142426,0.58843017631902,1.4023440973574985,0.020432930654819513,-0.039368210265062625,0.765391149825555,0.2378790530535346,1.4345460403181838,0.21957607443416413,-0.28943647293357383,1.6625376559612117,-0.7219514585028903,-0.0,0.0
-0.0729098915696367,0.5548467354854267,0.6605142181522067,1.1656596308232807,-0.13564089278021452,0.7997439281581696,0.5935928290214502,1.402291431630568,0.020432930654819513,-0.039368210265062625,0.765391149825555,0.2378790530535346,1.4270863480178735,0.21763074061358553,-0.2879476816569522,1.6605666702979318,0.7735769068049877,-0.0,-0.0
-0.04965935954012622,0.5581578897639545,0.6734018628718546,1.1757833995231293,-0.11709389271237618,0.7845846496835791,0.5880746699870092,1.403300931833857,0.020432930654819513,-0.039368210265062625,0.765391149825555,0.2378790530535346,1.4361585038733966,0.2200035083166222,-0.2897955206378615,1.6632016278071802,-0.7295547432871489,-0.0,-0.0
-0.06907861695997804,0.5546017115493588,0.6634186296750517,1.1683484956009353,-0.13207740257466175,0.7966248388073963,0.5935394931256355,1.40352200860807,0.020432930654819513,-0.039368210265062625,0.765391149825555,0.2378790530535346,1.4285884962056081,0.2180305277021368,-0.28829161805380354,1.6612447433264228,0.7635917126466943,-0.0,-0.0
-0.04729427704779068,0.5576982767356758,0.675023599688475,1.177409410932027,-0.11575900600460665,0.782997881790267,0.5882527310429734,1.4041251578897822,0.020432930654819513,-0.039368210265062625,0.765391149825555,0.2378790530535346,1.4368466917586418,0.2201893308385477,-0.2899664691844706,1.6635989328014575,-0.7147578445260215,-0.0,-0.0
-0.06156060734617283,0.5551399893532829,0.6679502161388161,1.1721601814998668,-0.1264612960640419,0.7915669554837054,0.5921959429208011,1.40433213568702,0.020432930654819513,-0.039368210265062625,0.765391149825555,0.2378790530535346,1.4314428554881589,0.21878121504238365,-0.2888950883022347,1.6622153359181258,0.7672410532414199,0.0,-0.0
-0.04034616202849472,0.5584326741967822,0.6789765606304407,1.1806234323388154,-0.11056385305886869,0.7780801980195592,0.5865074484525366,1.4045002428415096,0.020432930654819513,-0.039368210265062625,0.765391149825555,0.2378790530535346,1.4394793057355963,0.22087984386178477,-0.29051209914724657,1.6644251623899267,-0.7088021821311197,-0.0,-0.0
-0.054368763253214984,0.5557533896081434,0.672188974922303,1.1756774067057099,-0.12108840623579277,0.7866411577716773,0.5907420687928654,1.4049871716746012,0.020432930654819513,-0.039368210265062625,0.765391149825555,0.2378790530535346,1.4341699941457429,0.21949776095230256,-0.28946713572466626,1.6631148164364264,0.7661368967294464,-0.0,-0.0
-0.03300481140869215,0.5593333988087936,0.6830301744594767,1.1838572015277389,-0.10507217091548493,0.7732427963914462,0.5847671780198507,1.4048487407365977,0.020432930654819513,-0.039368210265062625,0.765391149825555,0.2378790530535346,1.4422583542646372,0.22160779081768073,-0.29108231972932935,1.6652611197736187,-0.7126607086442934,-0.0,-0.0
-0.05257114077371676,0.5553543995522041,0.6738007241647318,1.177267006616239,-0.11976591714922429,0.7850160644225546,0.5909035086447177,1.405816575604637,0.020432930654819513,-0.039368210265062625,0.765391149825555,0.2378790530535346,1.4348524280153343,0.21968203078709705,-0.2896359209544881,1.6635053370536224,0.7615817093139611,-0.0,-0.0
-0.029181521317870333,0.5593489584944848,0.6855940495717956,1.1861215962760183,-0.10223056147776327,0.7703990752511316,0.5842944070766096,1.4055820687344327,0.020432930654819513,-0.039368210265062625,0.765391149825555,0.2378790530535346,1.4437026393551784,0.22199033257705755,-0.2913996959935093,1.6658321429131109,-0.7079727023559544,-0.0,-0.0
-0.047152970098229254,0.5555784360087614,0.6772340861849806,1.1802204483630148,-0.115729895265265,0.7811296256275241,0.5900389960446818,1.406607489717889,0.020432930654819513,-0.039368210265062625,0.765391149825555,0.2378790530535346,1.4369038776431549,0.220223383314908,-0.29007731495939737,1.6642548310257541,0.7691471900114972,-0.0,-0.0
-0.0236662037572436,0.5598074215158971,0.6888584299081073,1.1888275349109965,-0.09811620512222072,0.7666045378785048,0.5831994353182268,1.406118305638753,0.020432930654819513,-0.039368210265062625,0.765391149825555,0.2378790530535346,1.4457854183828662,0.2225381168599081,-0.29183718236706646,1.6665256098716785,-0.7080237764864427,-0.0,-0.0
-0.043207106678334016,0.5555285029448698,0.6799494686210823,1.1826438496269143,-0.11280083224205464,0.7781424695307683,0.5896153258304403,1.4074485923122586,0.020432930654819513,-0.039368210265062625,0.765391149825555,0.2378790530535346,1.438395813605074,0.22061915390471962,-0.290408258417058,1.664865030216979,0.7716596802329898,0.0,-0.0
-0.01994327646730274,0.5598746513462307,0.6913054243360189,1.1909627693971137,-0.09535066420242713,0.7638658329994119,0.5826946147434232,1.4067819132262256,0.020432930654819513,-0.039368210265062625,0.765391149825555,0.2378790530535346,1.4471877241072446,0.22290931726449317,-0.2921430144586707,1.6670665510728022,-0.7066667134079633,-0.0,-0.0
-0.03779877554659119,0.5558542071606918,0.6832771437728979,1.185457164590945,-0.1087723860516564,0.7743283524043559,0.5886613488557719,1.4081292567262262,0.020432930654819513,-0.039368210265062625,0.765391149825555,0.2378790530535346,1.4404385039489878,0.2211575624035354,-0.29084310875062974,1.6655830363422175,0.7722864308997329,-0.0,-0.0
-0.014443612741080237,0.560430502098265,0.6944637182542697,1.1935313108022996,-0.09124735663281919,0.7601469004366047,0.5815133845926755,1.4072086004860835,0.020432930654819513,-0.039368210265062625,0.765391149825555,0.2378790530535346,1.4492603920387295,0.22345378033359226,-0.29257385314416995,1.6677287576071353,-0.7059130773804829,0.0,-0.0
-0.03416503337768814,0.5558119145956875,0.6857771564816679,1.1876813125908503,-0.10607885373492397,0.7715721865195468,0.588273381697019,1.4089134531976264,0.020432930654819513,-0.039368210265062625,0.765391149825555,0.2378790530535346,1.4418080695493543,0.221521111981298,-0.291146853887104,1.666144503585414,0.772835057340302,-0.0,-0.0
-0.010863049839973358,0.5605210629551677,0.6967937259355614,1.195549086112215,-0.08858989168085286,0.7575249099662653,0.5810079090997249,1.4078275139735892,0.020432930654819513,-0.039368210265062625,0.765391149825555,0.2378790530535346,1.4506050717085308,0.22380973338485408,-0.2928660198344252,1.668241732582803,-0.7062174453969622,-0.0,-0.0
-0.03066701107225649,0.5557666072898553,0.6881896378752836,1.1898270358825886,-0.10348778584332827,0.7689124292499724,0.5879066679907246,1.409679818516716,0.020432930654819513,-0.039368210265062625,0.765391149825555,0.2378790530535346,1.4431245570180196,0.22187073159742285,-0.2914390879778799,1.6666866180303068,0.7734936137775168,0.0,0.0
-0.009755530145070846,0.5601158149665116,0.6979515956045441,1.196726066112701,-0.08778952363924983,0.7563941966709834,0.5812713082506465,1.4085609568136386,0.020432930654819513,-0.039368210265062625,0.765391149825555,0.2378790530535346,1.4510149468470652,0.22392252357424858,-0.2929753226783099,1.6685311574188213,-0.7063053969213747,-0.0,-0.0
-0.02971286229558887,0.5552871543013299,0.6893194415110793,1.191010528434381,-0.10280329335750689,0.7678430269933461,0.5882575428051309,1.410469191462793,0.020432930654819513,-0.039368210265062625,0.765391149825555,0.2378790530535346,1.4434800149909517,0.22196963303164358,-0.29153978498947275,1.6669757290421454,0.7742425301152616,-0.0,0.0
-0.006317140647310218,0.5601925526604519,0.7002005203160616,1.1986747428016713,-0.08524014007707895,0.7538652317754446,0.5807987696261088,1.4091752688647103,0.020432930654819513,-0.039368210265062625,0.765391149825555,0.2378790530535346,1.452303254973443,0.2242638126846864,-0.29325576313067975,1.6690270108315746,-0.7078268665749519,0.0,0.0
-0.026224279531027562,0.5552642824865064,0.6917042812962864,1.1931197884373261,-0.10022048914609467,0.7652027489259188,0.5878736301670021,1.4112137524932884,0.020432930654819513,-0.039368210265062625,0.765391149825555,0.2378790530535346,1.444790194868468,0.2223175318949941,-0.29182963033371917,1.667509858298231,0.7743085511741892,-0.0,0.0
-0.005277275742561347,0.5597783297033981,0.7013229392489811,1.1998217943683527,-0.08449189514866465,0.7527756373218403,0.5810808980567347,1.409911439194641,0.020432930654819513,-0.039368210265062625,0.765391149825555,0.2378790530535346,1.4526859760110316,0.22436958947697586,-0.2933595340603441,1.669309186992281,-0.7069332461840796,-0.0,0.0
-0.01956637148699393,0.5563808795058934,0.6955208017148317,1.1960424614446894,-0.09527106543405443,0.7609152941348348,0.5861942773750561,1.4114059272025254,0.020432930654819513,-0.039368210265062625,0.765391149825555,0.2378790530535346,1.4472826053446968,0.2229699699721213,-0.29233505033427004,1.6682254200094124,0.774268900330373,-0.0,0.0
0.0037609609493012217,0.5616693069166674,0.7059704969419115,1.2031698018072754,-0.07774454471496563,0.7472601284836975,0.5783880031086341,1.409647611142939,0.020432930654819513,-0.039368210265062625,0.765391149825555,0.2378790530535346,1.4560742267611142,0.22525257030703616,-0.29402680720411317,1.6701526776464646,-0.707530715623337,-0.0,0.0
-0.014413637809849868,0.5570836153656004,0.6988602130539231,1.1987024133957365,-0.09146870068968177,0.7574156095152973,0.5851464515168454,1.4118789626218746,0.020432930654819513,-0.039368210265062625,0.765391149825555,0.2378790530535346,1.449200129546602,0.22347453719846155,-0.2927357053989831,1.6688543187648563,0.7741481234671735,-0.0,0.0
0.0018487684202869586,0.560913803979937,0.706001300436945,1.2034859935859525,-0.0792446515372446,0.7479953578549134,0.5795748725257006,1.4104883969725157,0.020432930654819513,-0.039368210265062625,0.765391149825555,0.2378790530535346,1.455327229271353,0.2250641503158724,-0.29390841906789084,1.6701565605124342,-0.7056469813403343,-0.0,0.0
-0.01801822583079197,0.5557187235123745,0.6978022471246582,1.1983018612597238,-0.09420600794650481,0.7591165948058203,0.5868839165971904,1.4128398075979822,0.020432930654819513,-0.039368210265062625,0.765391149825555,0.2378790530535346,1.447835228611416,0.22312555818783836,-0.2924984565066741,1.6687224875769757,0.7743457917393359,-0.0,0.0
0.0054431040307590765,0.5611103880435881,0.708239447900185,1.2053713955470116,-0.07657871674577935,0.7454261316943216,0.5789779867916811,1.4110063966200395,0.020432930654819513,-0.039368210265062625,0.765391149825555,0.2378790530535346,1.4566693588424833,0.2254189363766916,-0.2941954690854294,1.6706414172437964,-0.7051916908903354,-0.0,0.0
-0.012956832617573678,0.5564104002472755,0.701099154057745,1.2009260214302635,-0.09047382066905715,0.75567131557957,0.5858658494408284,1.413320316818679,0.020432930654819513,-0.039368210265062625,0.765391149825555,0.2378790530535346,1.4497158437706579,0.2236206135654327,-0.2928918256039936,1.6693428075677565,0.7742938141415477,-0.0,0.0
0.0036691812688257226,0.5603749375224328,0.7083513357413744,1.2057503597542878,-0.07797642673160032,0.7460690211815821,0.5801335146956871,1.4118560117005508,0.020432930654819513,-0.039368210265062625,0.765391149825555,0.2378790530535346,1.4559742747778526,0.22524414032767348,-0.29408774089544804,1.6706612872833815,-0.7069397876639466,-0.0,-0.0
-0.016614232590725767,0.5552411526831538,0.7004300680453865,1.200790814428101,-0.09328955587732753,0.7574076458817801,0.5876686014383099,1.414328707793427,0.020432930654819513,-0.039368210265062625,0.765391149825555,0.2378790530535346,1.4483131069148762,0.22326209414982126,-0.2926487730132154,1.6692124698690667,0.7738488888412831,0.0,-0.0
0.0045577934489859605,0.5601770742980287,0.7097811702188358,1.2070765223186484,-0.07738243877666695,0.7450869355667159,0.5804911391884072,1.4126241311587162,0.020432930654819513,-0.039368210265062625,0.765391149825555,0.2378790530535346,1.456277809621708,0.22532960372334204,-0.2941764475895227,1.6709286892649522,-0.7077362786068162,0.0,-0.0
-0.01585056673391393,0.5549734927858534,0.7018487562096342,1.2021372410381386,-0.09279031738912626,0.7564749343825627,0.5880985291854789,1.4151428780313637,0.020432930654819513,-0.039368210265062625,0.765391149825555,0.2378790530535346,1.4485730621438917,0.2233364132614224,-0.292730647481811,1.6694799935367761,0.7738358896359873,0.0,-0.0
0.00805627708162919,0.5603166428930945,0.7119118391116255,1.2088840741837372,-0.0747848965809009,0.7425497817227551,0.5799478087132135,1.4131826730214725,0.020432930654819513,-0.039368210265062625,0.765391149825555,0.2378790530535346,1.4575838392262221,0.22567536843576888,-0.2944575378077375,1.671413096069258,-0.7074899772167289,0.0,0.0
-0.011853810202523542,0.554894645084341,0.7039142566405983,1.203974035476896,-0.08978567472495687,0.7535491827587508,0.5874587519161151,1.4157711643790134,0.020432930654819513,-0.039368210265062625,0.765391149825555,0.2378790530535346,1.4500876884007374,0.2237371134469675,-0.29305609144731076,1.670037582022387,0.7741808006975099,-0.0,-0.0
0.009207929319111456,0.5599679087399274,0.7130496257460364,1.2100116250321755,-0.07395577520092611,0.7414125919527506,0.5801629988752864,1.4138808727265901,0.020432930654819513,-0.039368210265062625,0.765391149825555,0.2378790530535346,1.4580038037960774,0.2257907511568518,-0.2945667362895929,1.6716940483203915,-0.707357746997674,0.0,0.0
-0.005059452398170697,0.5562264539541297,0.7076117216580369,1.2066952831594708,-0.08473202254588816,0.7492941271340379,0.5855832065585044,1.415770824438384,0.020432930654819513,-0.039368210265062625,0.765391149825555,0.2378790530535346,1.4526213859710628,0.22439920429584334,-0.29356172148699805,1.6707143662851303,0.7741910523793426,0.0,0.0
0.018352908824359457,0.5621274784254908,0.7175022238958088,1.213071009037393,-0.06712284990053995,0.7359912899140124,0.5772282463143288,1.4133546951620986,0.020432930654819513,-0.039368210265062625,0.765391149825555,0.2378790530535346,1.4614211131036996,0.226679692325612,-0.2952292540520192,1.6724786222994117,-0.7072262505401229,0.0,-0.0
-0.0014350003195392098,0.5564121397229446,0.7098893109077704,1.208612323668232,-0.0820497806005353,0.7466786189149541,0.5850049756243693,1.4163331042978147,0.020432930654819513,-0.039368210265062625,0.765391149825555,0.2378790530535346,1.453970819767569,0.2247563766424992,-0.29385129834092605,1.6712099769747817,0.7738904980273885,0.0,-0.0
0.019624962632417284,0.5618427121058123,0.7186605829368025,1.2141877358651485,-0.06620449091775195,0.7348034949876353,0.577371945971799,1.4140101814135377,0.020432930654819513,-0.039368210265062625,0.765391149825555,0.2378790530535346,1.4618837218331562,0.22680598633811702,-0.29534507690866907,1.6727593257119788,-0.707974263674456,0.0,-0.0
0.005688116646540016,0.5577891500012555,0.7133281265921052,1.2110852788578144,-0.07671873925917425,0.7423095821602973,0.5828757984915717,1.4161410137819297,0.020432930654819513,-0.039368210265062625,0.765391149825555,0.2378790530535346,1.456638435951745,0.2254520937013232,-0.294376267152423,1.671874647936636,0.770479931025003,0.0,-0.0
0.029803652569927914,0.5642789788711127,0.7230941829664678,1.2171210006591844,-0.058559528981523806,0.7293325854721253,0.5742448663657267,1.4133208914220712,0.020432930654819513,-0.039368210265062625,0.765391149825555,0.2378790530535346,1.4657009682159334,0.22779684259055547,-0.29607447052403907,1.6735658003986527,-0.7109991988179921,0.0,-0.0
0.00992529697530074,0.5581832185490817,0.7158142351348057,1.2130987290357857,-0.0735768822629741,0.7398050415139679,0.5823931333130654,1.416752339656137,0.020432930654819513,-0.039368210265062625,0.765391149825555,0.2378790530535346,1.458214070157112,0.2258676253327558,-0.2947063022411185,1.6724008410709514,0.7712359852302745,-0.0,-0.0
0.03137970757531898,0.5641006937227447,0.724354562760914,1.2182815876897548,-0.0574143055368134,0.7279862948684993,0.5742560869503537,1.4139212737178446,0.020432930654819513,-0.039368210265062625,0.765391149825555,0.2378790530535346,1.466274688684317,0.22795184892677184,-0.2962100694142347,1.6738611105939665,-0.7152140214708727,-0.0,-0.0
0.011486361247920684,0.5579514124279452,0.7171203665551033,1.2143213210155697,-0.07244540916054105,0.7384292533460634,0.5824574827514829,1.417414791414429,0.020432930654819513,-0.039368210265062625,0.765391149825555,0.2378790530535346,1.4587846497078354,0.2260222026739081,-0.2948436151283861,1.6727105808657778,0.7671695773873273,-0.0,-0.0
0.03523803830297606,0.5645617644907694,0.726513744682436,1.219980224183785,-0.054549850744797415,0.7253891033799812,0.5733928958474495,1.414210384675292,0.020432930654819513,-0.039368210265062625,0.765391149825555,0.2378790530535346,1.4677048933744965,0.22832826793119426,-0.29650498812270093,1.6743087846116484,-0.7116202875916593,-0.0,-0.0
0.015394571888250073,0.5583095441331963,0.7194213546132587,1.2161836811181066,-0.06955079838325352,0.735713347877835,0.5816899763910316,1.417847154795852,0.020432930654819513,-0.039368210265062625,0.765391149825555,0.2378790530535346,1.4602342717243397,0.22640475977861468,-0.29514760708008914,1.673197917651915,0.7705240366364633,-0.0,-0.0
0.03685300854734346,0.5644134289880604,0.7277717130999467,1.2211249439133525,-0.05337592327466904,0.724032415285708,0.5733725093980697,1.4147873185075899,0.020432930654819513,-0.039368210265062625,0.765391149825555,0.2378790530535346,1.4682915577201514,0.2284865348651847,-0.2966421311777073,1.67460118307699,-0.7145366599845259,-0.0,0.0
0.022871549777558266,0.5599732489270234,0.7228111933106419,1.2184963178992871,-0.0639472836486307,0.731279837199515,0.5792522577997181,1.4173926276861373,0.020432930654819513,-0.039368210265062625,0.765391149825555,0.2378790530535346,1.4630294958639356,0.22713195710923842,-0.2956876672161018,1.673829413833719,0.7750841067875038,-0.0,-0.0
0.04624865254963078,0.5668943879756334,0.7316276139485648,1.2235311488338165,-0.04630880820475801,0.7187644790516067,0.5699234130014903,1.413708015546521,0.020432930654819513,-0.039368210265062625,0.765391149825555,0.2378790530535346,1.471810810135785,0.22939803772705283,-0.2973038748254366,1.675274672299977,-0.7089105409741073,0.0,-0.0
0.026269311900777817,0.5602619654748867,0.724840275006088,1.220143366960099,-0.06143678725328791,0.7288911360165495,0.5786125013655298,1.417815244777309,0.020432930654819513,-0.039368210265062625,0.765391149825555,0.2378790530535346,1.4642843642160626,0.2274636693491397,-0.2959521300138362,1.6742609982491556,0.774739130063947,-0.0,-0.0
0.04744475826785955,0.566643162333424,0.7327100581997912,1.2245583340988881,-0.045452885634559625,0.7176406248712561,0.5700529936361677,1.414336403458382,0.020432930654819513,-0.039368210265062625,0.765391149825555,0.2378790530535346,1.4722371622730197,0.22951492015983913,-0.2974106483224433,1.675535525297986,-0.7078032966459213,-0.0,-0.0
0.033406336112751595,0.5619572270710166,0.7279681281547511,1.2222124219278832,-0.05608390570714879,0.7247363076525931,0.5761830240604129,1.4172532539383675,0.020432930654819513,-0.039368210265062625,0.765391149825555,0.2378790530535346,1.466950541325371,0.2281563905078969,-0.2964623684405933,1.674831336330189,0.7747440841321429,-0.0,0.0
0.05716485880513182,0.569377935948615,0.7365263585465601,1.226831099771332,-0.03813210158447859,0.7123183846098844,0.5663204294327423,1.4130074919948534,0.020432930654819513,-0.039368210265062625,0.765391149825555,0.2378790530535346,1.475878033662803,0.23045631705374328,-0.2980874956842168,1.6761807581502097,-0.7069564904649881,0.0,0.0
0.03912360777292109,0.5630892069603225,0.730713639993666,1.2241581417472647,-0.05181595264331128,0.7212207934684497,0.5744661569314047,1.4171179476316518,0.020432930654819513,-0.039368210265062625,0.765391149825555,0.2378790530535346,1.4690761865945392,0.22871137783466777,-0.2968799241092074,1.675358840495794,0.7745478053359033,0.0,-0.0
0.0626020133373286,0.5706284179993474,0.7389557403951108,1.2284568767065378,-0.03406131148777088,0.70949861786615,0.5649001613937916,1.4128586933553227,0.020432930654819513,-0.039368210265062625,0.765391149825555,0.2378790530535346,1.47790055319764,0.23098263526626145,-0.2984766924868298,1.6766285713023281,-0.7081327011661652,0.0,-0.0
0.04151737911710454,0.5631053509324504,0.7323464966873017,1.2255568274830473,-0.05006751945457645,0.7194383222636992,0.5742233965588576,1.41767367748994,0.020432930654819513,-0.039368210265062625,0.765391149825555,0.2378790530535346,1.4699478485676887,0.2289443295798829,-0.2970729328600401,1.6757222420453164,0.7741538296801356,-0.0,-0.0
0.06452595881664176,0.5707897428696384,0.7406352212998666,1.22983726074236,-0.03216734300054715,0.7076886540817927,0.5644999551621025,1.4132754136220262,0.020432930654819513,-0.039368210265062625,0.765391149825555,0.2378790530535346,1.4788395911312382,0.23123217300776264,-0.29867786241001504,1.6769749834698178,-0.7081081876198317,0.0,0.0
0.0456899960326287,0.5638283356476506,0.7345536569954013,1.2271873634254928,-0.04687827304052987,0.7167623432883717,0.5731373402940358,1.4177935432018764,0.020432930654819513,-0.039368210265062625,0.765391149825555,0.2378790530535346,1.4715342030794738,0.22936048748755308,-0.2973918655586387,1.6761658632267995,0.7747238546368668,0.0,0.0
0.06264399048815872,0.5694436750560106,0.7403257798317459,1.2300687765059177,-0.0340458831717652,0.708428944073195,0.5660647649295316,1.4145025662627397,0.020432930654819513,-0.039368210265062625,0.765391149825555,0.2378790530535346,1.4779051623137065,0.23099862399963436,-0.29853664205427033,1.6770289250063537,-0.707691836759183,0.0,0.0
0.04149908345453501,0.5618971674053311,0.7336999151273996,1.2271677327679833,-0.05009606853620063,0.7183963767879846,0.5754155625022184,1.4193253760778257,0.020432930654819513,-0.039368210265062625,0.765391149825555,0.2378790530535346,1.4699377331114873,0.22895626432432445,-0.2971304372110124,1.676121509336473,0.7752889852445621,0.0,0.0
0.0626717892301699,0.5687751083665388,0.7410491645297895,1.2309352093283452,-0.03408240118813555,0.7078840893680806,0.5667155686628749,1.4153965933659076,0.020432930654819513,-0.039368210265062625,0.765391149825555,0.2378790530535346,1.4778852638869777,0.2310014530060783,-0.2985647908854142,1.6772409589697324,-0.7050576645956572,0.0,0.0
0.04811932834498954,0.5634424100016406,0.7363032636312081,1.2288333271504026,-0.04544239655426834,0.7149401327924776,0.5733333695276539,1.4188062655307558,0.020432930654819513,-0.039368210265062625,0.765391149825555,0.2378790530535346,1.4722487862529887,0.22955648406630538,-0.2975699807753719,1.6765988151290767,0.7766114494140142,-0.0,0.0
0.07174731513548314,0.571350657696288,0.7442596303921228,1.2327389081131088,-0.027554082710051827,0.7033796594594323,0.5634090242026923,1.4141353613067846,0.020432930654819513,-0.039368210265062625,0.765391149825555,0.2378790530535346,1.4811231040523285,0.2318377834365312,-0.2991612330986405,1.6777790161272794,-0.7088053697827813,-0.0,0.0
0.05225431173198443,0.5639427334956266,0.7381841589258489,1.2302627120014658,-0.04279459593889538,0.7126241994650349,0.5725295313368417,1.4190503869826085,0.020432930654819513,-0.039368210265062625,0.765391149825555,0.2378790530535346,1.4735636144523034,0.22990281457552364,-0.2978392755040939,1.6770006165350457,0.7747867804148025,-0.0,0.0
0.07288878086507239,0.5711654888241053,0.745268196418349,1.2336695780520064,-0.026718214349168153,0.7023282205497252,0.5635048074435142,1.4147098549827632,0.020432930654819513,-0.039368210265062625,0.765391149825555,0.2378790530535346,1.481534831680338,0.23195082497194872,-0.29926325209164806,1.678024917338405,-0.7039241882187606,-0.0,0.0
0.05795155611571094,0.5656077623174726,0.7408297353809319,1.2319144755551907,-0.03807516389837703,0.7091962374948186,0.5703245999670103,1.4184028225059824,0.020432930654819513,-0.039368210265062625,0.765391149825555,0.2378790530535346,1.4759041285899326,0.23050975268847443,-0.2982797829778919,1.6774531001244781,0.7805611285255118,0.0,0.0
0.07997770464858951,0.5735158722682037,0.7481841040833219,1.2352973648143624,-0.020897919275739283,0.6983739360956144,0.5604830203079679,1.4134897337982293,0.020432930654819513,-0.039368210265062625,0.765391149825555,0.2378790530535346,1.4844181542455246,0.23269486733269693,-0.2997907111148759,1.6784795169343238,-0.6803412707037394,0.0,0.0
0.060920020858421506,0.5662169886798263,0.7427433708463127,1.2333251565955792,-0.0354068052810849,0.7069586284220603,0.569399591663826,1.4184974036732427,0.020432930654819513,-0.039368210265062625,0.765391149825555,0.2378790530535346,1.4772264880401602,0.23085685608564185,-0.29854494501813683,1.677819205734063,0.7791290406456599,0.0,0.0
0.07622003693912328,0.5717841992160055,0.7477745375921214,1.2355792164698118,-0.023469077844285303,0.699507777831216,0.5624816832057081,1.4149758117517823,0.020432930654819513,-0.039368210265062625,0.765391149825555,0.2378790530535346,1.4831408070210885,0.23237388906292658,-0.2995905674775546,1.6785055945909177,-0.6760212260831385,0.0,0.0
0.05562242816536928,0.5638068171437423,0.7415130562235164,1.233159131800563,-0.0395851335232872,0.7091372304752023,0.5722865514802082,1.4203919507292706,0.020432930654819513,-0.039368210265062625,0.765391149825555,0.2378790530535346,1.4751557659582761,0.23033168578503818,-0.29820234187774836,1.6777382465667146,0.7783877561072943,0.0,0.0
0.0773360664807284,0.5715309747369978,0.7488391039436391,1.2365805013805342,-0.022659593873802238,0.6984168127278986,0.5626493839326802,1.415643471142653,0.020432930654819513,-0.039368210265062625,0.765391149825555,0.2378790530535346,1.4835378298469362,0.23248399676114997,-0.29969282792311935,1.6787694803290594,-0.6708982179872225,0.0,0.0
0.05870675209049187,0.5642848422022485,0.7432092608034785,1.2344335979820495,-0.0372379268167224,0.7071016365235753,0.5715476025309951,1.4205800084907212,0.020432930654819513,-0.039368210265062625,0.765391149825555,0.2378790530535346,1.4763182319180184,0.2306377811094467,-0.2984391496437243,1.6780855579331613,0.775114104099408,0.0,0.0
0.07414094284333789,0.5698482147885365,0.7483397262155298,1.236770894819035,-0.02520128032389943,0.699539972310983,0.5646245889390974,1.4171085723362216,0.020432930654819513,-0.039368210265062625,0.765391149825555,0.2378790530535346,1.4822764281980951,0.23216694637308213,-0.2994951221381646,1.678794987905825,-0.6777811273709038,0.0,0.0
0.053607313941090105,0.5619619964303866,0.7420272806284697,1.234278209494026,-0.04125958010254381,0.7091984964487771,0.5743283260746509,1.4224027077426198,0.020432930654819513,-0.039368210265062625,0.765391149825555,0.2378790530535346,1.4743271185272473,0.23013272878316193,-0.29810979611418026,1.678008327371738,0.7733337733972555,0.0,0.0
0.07362892380708883,0.5690222265085922,0.7488471157726284,1.2375071865319232,-0.02565978984401108,0.6992601448514469,0.5655076681854063,1.4181198789272165,0.020432930654819513,-0.039368210265062625,0.765391149825555,0.2378790530535346,1.482046075151154,0.2321158217501347,-0.29948541219317487,1.678979162004872,-0.6844290801080927,0.0,0.0
0.05921551370331683,0.5634982680249959,0.7444038138688817,1.2357442837455284,-0.036930134789866675,0.7060508855058389,0.5723060920223217,1.4218151983980352,0.020432930654819513,-0.039368210265062625,0.765391149825555,0.2378790530535346,1.4764696252633325,0.2306885466880007,-0.29851300644758116,1.6784231481111531,0.77187498338912,-0.0,0.0
0.08174695636609616,0.5716371574388771,0.7518749081182744,1.2391301194527213,-0.0193583663337446,0.6950234928534281,0.5621846819542092,1.4167337107032305,0.020432930654819513,-0.039368210265062625,0.765391149825555,0.2378790530535346,1.4851614395228874,0.23291937576873936,-0.3000526780352216,1.67945319987221,-0.6972385016158834,0.0,0.0
0.06107654389853549,0.5634602153753785,0.7457749203120396,1.236928442721019,-0.03554565525511154,0.7045485898847084,0.5721943006631204,1.4223900363110418,0.020432930654819513,-0.039368210265062625,0.765391149825555,0.2378790530535346,1.4771539786131975,0.2308729837255613,-0.2986687485644169,1.6787389423935102,0.776718004184759,0.0,0.0
0.08360820371727297,0.5716630891237775,0.75317848434354,1.2402299875373346,-0.01796889814122945,0.693571517398907,0.5620097630497427,1.41722749573776,0.020432930654819513,-0.039368210265062625,0.765391149825555,0.2378790530535346,1.4858436805250375,0.23310270781915104,-0.3002050035557223,1.6797483571324319,-0.6960777175918919,0.0,0.0
0.06489295321751701,0.5642075131910447,0.7477113833249505,1.2383052896667806,-0.032629624223596894,0.7021532576050165,0.5711245596929296,1.422416860260811,0.020432930654819513,-0.039368210265062625,0.765391149825555,0.2378790530535346,1.4785949312121713,0.23125070208239298,-0.29895469112313133,1.6791186180858235,0.778929196362933,0.0,0.0
0.0875677844126376,0.5725943186853598,0.7550226275318811,1.241457529001068,-0.014929952695272634,0.6912131815801437,0.5607429473283931,1.417045268993237,0.020432930654819513,-0.039368210265062625,0.765391149825555,0.2378790530535346,1.4873413561467153,0.23349356240321026,-0.30049465007248144,1.6800918198833892,-0.6965179823338692,0.0,0.0
0.06645094296115665,0.5640560941193197,0.7489892332170207,1.2394487006845263,-0.03148413524841502,0.7007906324728389,0.5711553507046172,1.4230747191493651,0.020432930654819513,-0.039368210265062625,0.765391149825555,0.2378790530535346,1.4791595630639338,0.2314046117747317,-0.2990894914827552,1.6794224122613561,0.7785478463974155,0.0,0.0
0.08710288944554978,0.571743330895289,0.7555965541566994,1.242255012211719,-0.015359796726700924,0.6908648313984446,0.5616520782113492,1.418121561780155,0.020432930654819513,-0.039368210265062625,0.765391149825555,0.2378790530535346,1.4871232324326888,0.23344635260924562,-0.3004893308934272,1.6802930792022888,-0.7002313711451412,0.0,0.0
0.06626233330802156,0.5633325582365853,0.7496253290416537,1.2402549342707394,-0.03169513648723353,0.7003324070380166,0.5719105080824527,1.4240427261027397,0.020432930654819513,-0.039368210265062625,0.765391149825555,0.2378790530535346,1.4790538180580348,0.23138570245532045,-0.29910264461273517,1.6796271702129175,0.7752667301688012,0.0,0.0
0.08932066071844415,0.571908477991649,0.7570097533206769,1.2433942421537694,-0.013693445747019754,0.6892422542944532,0.5613087718316537,1.4185292900308664,0.020432930654819513,-0.039368210265062625,0.765391149825555,0.2378790530535346,1.4879402425725554,0.23366431266380627,-0.3006650720178712,1.680601613142561,-0.7047677094332572,0.0,0.0
0.07064113339956929,0.5643081822334116,0.7517241171245296,1.2416825425768154,-0.02834065505952225,0.6976772320418565,0.5705654751733199,1.423918688041937,0.020432930654819513,-0.039368210265062625,0.765391149825555,0.2378790530535346,1.4807082935413278,0.2318181383946272,-0.2994252489356631,1.6800248626991294,0.7750721291712183,-0.0,0.0
0.09370740768344439,0.5730400455289044,0.7589488102928158,1.2446256976531112,-0.010319118447498141,0.6867082935652441,0.5598057472683002,1.4181964775887195,0.020432930654819513,-0.039368210265062625,0.765391149825555,0.2378790530535346,1.4896004895520933,0.23409653682033557,-0.30098135593772923,1.6809500982558034,-0.7079579799453334,0.0,0.0
0.0729247527539216,0.5644473402178833,0.7532154498214239,1.2428978282467058,-0.026629197254404217,0.6959773356529717,0.5702441766142691,1.4243838231808454,0.020432930654819513,-0.039368210265062625,0.765391149825555,0.2378790530535346,1.4815504187339805,0.23204311332578728,-0.2996078876351163,1.6803531507730456,0.7747520286836894,-0.0,0.0
0.09374919363264697,0.5724020853011011,0.7596618081413391,1.2454611679524084,-0.010353065248119003,0.6861321445154814,0.5604587640532882,1.4191243517817118,0.020432930654819513,-0.039368210265062625,0.765391149825555,0.2378790530535346,1.4895771841834275,0.23409907931956953,-0.30100914734631384,1.6811653159997424,-0.7088996391055603,-0.0,0.0
0.07928267885892311,0.566420754309918,0.7556710532239167,1.244260204254985,-0.02170590435669087,0.6925855168427751,0.5677238634959256,1.4234267212636016,0.020432930654819513,-0.039368210265062625,0.765391149825555,0.2378790530535346,1.4839766637224137,0.23267036232679533,-0.3000535680290945,1.6807497158470461,0.7746734901543773,-0.0,0.0
0.10279841050447526,0.575398479859061,0.762414036074158,1.2467007831682944,-0.003175406236077632,0.6819453030879492,0.5567739295639766,1.417369304757524,0.020432930654819513,-0.039368210265062625,0.765391149825555,0.2378790530535346,1.4927978983986872,0.23492720002811113,-0.30158294504696576,1.6815701005159711,-0.7068703063554148,-0.0,0.0
0.08394945390421422,0.5672832103767999,0.7573989066176026,1.2454098239488864,-0.018062765445056812,0.6898958120920013,0.5662037696936728,1.4231514812462647,0.020432930654819513,-0.039368210265062625,0.765391149825555,0.2378790530535346,1.4857077284378977,0.2331213904128744,-0.3003844319443819,1.681120614857481,0.7745710398915273,-0.0,-0.0
0.10017885910291452,0.5738053033693354,0.7622177102910285,1.2471123727935398,-0.005293875629121564,0.6826634254432729,0.5585507793538327,1.4188265897522554,0.020432930654819513,-0.039368210265062625,0.765391149825555,0.2378790530535346,1.4917837087890542,0.23467463272981734,-0.30143264803518804,1.6816501874390657,-0.7077734223416693,-0.0,0.0
0.0792156489756721,0.5648641708690432,0.7565487277730408,1.2455708724044703,-0.021841342777612915,0.691578024957541,0.5689523073924493,1.425132881707296,0.020432930654819513,-0.039368210265062625,0.765391149825555,0.2378790530535346,1.4839066159135599,0.2326672254506975,-0.3000972067189869,1.681124186124356,0.774914071998787,-0.0,0.0
0.0999981570175645,0.5730656748665288,0.7628796091535267,1.2479397929166511,-0.00550603999586282,0.6821927197622379,0.5593032092821658,1.4198066423978153,0.020432930654819513,-0.039368210265062625,0.765391149825555,0.2378790530535346,1.4916756407184053,0.23465520249905805,-0.3014443372570035,1.6818481558392215,-0.7078084288821681,0.0,0.0
0.08530543511311015,0.5668040215549871,0.7589009716803136,1.246854730996439,-0.017102732932515203,0.6884463061845404,0.5665872369364088,1.424214793337025,0.020432930654819513,-0.039368210265062625,0.765391149825555,0.2378790530535346,1.4861580805930312,0.23324891781141482,-0.3005086412212329,1.6814778422153176,0.7744386312515598,-0.0,0.0
0.10871702758298869,0.5759405538475632,0.765399314287267,1.2490243525441205,0.0013647890944721158,0.6780232739737324,0.5554770026714063,1.4179075362768179,0.020432930654819513,-0.039368210265062625,0.765391149825555,0.2378790530535346,1.494939202360513,0.23549343190172406,-0.3020215318178836,1.682229564707271,-0.7070531995005538,-0.0,-0.0
0.08802766588443747,0.5668602600269328,0.7600830321862385,1.2478333726066495,-0.014994616620868713,0.686599762421616,0.5660081716698512,1.4244985929502527,0.020432930654819513,-0.039368210265062625,0.765391149825555,0.2378790530535346,1.4871559388816695,0.23351296123946141,-0.30071407093567865,1.6817923414346059,0.7743448217304015,0.0,0.0
0.11152012649487361,0.5761125996299401,0.766511777433483,1.2499000408331358,0.003545783564371529,0.67621901033882,0.5547637413155182,1.4180418919128372,0.020432930654819513,-0.039368210265062625,0.765391149825555,0.2378790530535346,1.4959674113217514,0.23576426963392366,-0.3022278337812912,1.682516910498474,-0.707280160812314,-0.0,0.0
0.09251754712306039,0.5679706887789208,0.7620265462581441,1.249068606113569,-0.01152469777790153,0.6840486290005587,0.5645396127096991,1.4242191194180254,0.020432930654819513,-0.039368210265062625,0.765391149825555,0.2378790530535346,1.4888004278698799,0.23394145885002732,-0.30102751701634073,1.6821391105918981,0.7746913964263977,0.0,0.0
0.11631341354891027,0.5774989844952106,0.7683693473973615,1.2509599147806694,0.007271434979743386,0.673664662640186,0.552990403964902,1.4174620830978446,0.020432930654819513,-0.039368210265062625,0.765391149825555,0.2378790530535346,1.4977299540875504,0.23622117712059146,-0.3025543328568618,1.6828239232730975,-0.7091702723671065,0.0,0.0
0.09483945279682968,0.568148304822767,0.763465381643642,1.250214280734189,-0.009776400721365612,0.6823826841711247,0.5641923733880423,1.4246581476402764,0.020432930654819513,-0.039368210265062625,0.765391149825555,0.2378790530535346,1.4896248902117253,0.23416156296313384,-0.30120390673770464,1.6824445761937064,0.7747745826291865,0.0,0.0
0.11529502501519204,0.5769028403016788,0.7694560772728056,1.2520833900663262,0.006807470175969542,0.673602136554232,0.5543093674216338,1.418830532095631,0.020432930654819513,-0.039368210265062625,0.765391149825555,0.2378790530535346,1.4974993207864031,0.23617123218238828,-0.302547107474965,1.683026497910374,-0.7085248850988509,0.0,-0.0
0.09365811613529496,0.5669606136409109,0.7638555068922351,1.2509736733527363,-0.010810382737218774,0.6823167947250434,0.5654497377253768,1.4259591842198778,0.020432930654819513,-0.039368210265062625,0.765391149825555,0.2378790530535346,1.4891278617950814,0.2340434940063861,-0.301151352425808,1.6826284025950766,0.7741023825641649,0.0,0.0
0.11118930415277462,0.5748766523832743,0.7695785190152048,1.2529167311721705,0.003776676664980702,0.6745615055410462,0.5567895177442386,1.4208849023395482,0.020432930654819513,-0.039368210265062625,0.765391149825555,0.2378790530535346,1.4960502157660927,0.23581077340690412,-0.30233380330579085,1.68315131219878,-0.7074037214855644,-0.0,-0.0
0.10325482909760693,0.5797512379511999,0.7774968495092367,1.2577472479957055,-0.003824092363932962,0.6727668870463567,0.5546526548680669,1.419572308275518,0.020432930654819513,-0.039368210265062625,0.765391149825555,0.2378790530535346,1.4810977971214336,0.23200715725375318,-0.29983023624849775,1.6823681767039844,0.7742982219226454,0.0,-0.0
0.12385614675570714,0.5896399972573908,0.7836209005249445,1.2592860625485534,0.013350320442009612,0.6640991533105678,0.5440132608068747,1.412911391066659,0.020432930654819513,-0.039368210265062625,0.765391149825555,0.2378790530535346,1.489236711276809,0.23409383200142564,-0.3012522922177442,1.6832017638114831,-0.7082527394420655,0.0,-0.0
0.10292236124892343,0.5789032043429089,0.7781541943152718,1.2586031581861137,-0.004180181636358606,0.6723035752910845,0.5555265988333109,1.4206859811844128,0.020432930654819513,-0.039368210265062625,0.765391149825555,0.2378790530535346,1.480920044450998,0.23197027348189597,-0.29983219798983984,1.682577109648815,0.7749558939174456,-0.0,0.0
0.12310902144788882,0.5882725525955798,0.7838195970674745,1.2599457072262563,0.01327140781292778,0.6637734902116174,0.5450917485196173,1.414171114705289,0.020432930654819513,-0.039368210265062625,0.765391149825555,0.2378790530535346,1.4889101074567717,0.23401913023971183,-0.30122887470776943,1.6833999727623505,-0.7059470271169251,-0.0,-0.0
0.10322122969978467,0.5784198594872879,0.7789249724080377,1.259420653611458,-0.003997984558609141,0.6715944560887681,0.5560527515763124,1.421560976866339,0.020432930654819513,-0.039368210265062625,0.765391149825555,0.2378790530535346,1.480995079039995,0.23199762297699758,-0.29987613553839654,1.682797036359906,0.7734189609212112,-0.0,-0.0
0.11746102373204795,0.5850347154908673,0.7829151581583612,1.2603587662065963,0.00831323412074261,0.6655807858613265,0.5486866213869436,1.4169613349865935,0.020432930654819513,-0.039368210265062625,0.765391149825555,0.2378790530535346,1.4866287548665271,0.23344229600543961,-0.3008606631500747,1.683375639527922,-0.7079828907146117,-0.0,0.0
0.09524835709499048,0.5742262585727089,0.7772305822118143,1.2595228536135323,-0.01095068535789077,0.6745044527796363,0.5607125316277479,1.4248986799927617,0.020432930654819513,-0.039368210265062625,0.765391149825555,0.2378790530535346,1.4778068273095935,0.2311864013965096,-0.2993431675603928,1.6826363828415145,0.7732782984172812,0.0,-0.0
0.11350236246073711,0.5824790889318839,0.7825929898944048,1.2610129023856054,0.004804376503864678,0.6665858256968809,0.5515174289172375,1.4193550612423795,0.020432930654819513,-0.039368210265062625,0.765391149825555,0.2378790530535346,1.4850102886450536,0.23303664384634382,-0.3006131684757231,1.6834532263275452,-0.7059174608025112,-0.0,-0.0
0.09796912744039929,0.5750174151480023,0.7785108832400333,1.2603064240031594,-0.008655004703137256,0.6729191445616017,0.5598202050943287,1.424748276246323,0.020432930654819513,-0.039368210265062625,0.765391149825555,0.2378790530535346,1.4788515977048564,0.2314603604473188,-0.29954897491890603,1.6829039049156114,0.7725631350880104,0.0,0.0
0.11827096824762824,0.58428087779116,0.7843825389615838,1.261853741590595,0.008877494901353566,0.6641878470094146,0.5495023095015285,1.4184580779966014,0.020432930654819513,-0.039368210265062625,0.765391149825555,0.2378790530535346,1.4868657105493375,0.23351787874483604,-0.3009577677745095,1.6837843394818726,-0.7056353809740683,-0.0,0.0
0.09652957016689374,0.5733380445114965,0.7784752632275427,1.260887452822638,-0.009932835061749768,0.6728824902285787,0.5612665659698859,1.4262308911251453,0.020432930654819513,-0.039368210265062625,0.765391149825555,0.2378790530535346,1.4782594297939127,0.2313170884510767,-0.29947843526951784,1.6830703948262156,0.7739908782767848,-0.0,0.0
0.1149315158336098,0.5816838567163035,0.7838517483935588,1.2623521690495079,0.005953842764519565,0.6649290125913746,0.5519598000918089,1.420598093637659,0.020432930654819513,-0.039368210265062625,0.765391149825555,0.2378790530535346,1.4855165482229924,0.23318095092564853,-0.30075618041004437,1.6838818703845122,-0.7064943616687782,-0.0,0.0
0.09970115898121185,0.5741065142028192,0.7796167898637306,1.26156419625609,-0.007213298378474887,0.6710956089377951,0.5601137466286105,1.4259142872993273,0.020432930654819513,-0.039368210265062625,0.765391149825555,0.2378790530535346,1.4794967997616228,0.23164041333124086,-0.29971753627304587,1.6833554476618031,0.7735638213644083,-0.0,0.0
0.11956350246895811,0.5835060285395712,0.7856655617132312,1.2632052863426224,0.009901702565298157,0.6626205545453845,0.549988918370085,1.4197054613868725,0.020432930654819513,-0.039368210265062625,0.765391149825555,0.2378790530535346,1.4873132891822192,0.23364682714943572,-0.30108901867226645,1.6841967959192354,-0.7058658316933054,-0.0,-0.0
0.10005630595658087,0.5736585228791662,0.7803980178518137,1.2623796380620322,-0.006979939660006904,0.6703906388505042,0.5605824880829919,1.4267259969486539,0.020432930654819513,-0.039368210265062625,0.765391149825555,0.2378790530535346,1.4795960115783413,0.23167355788145644,-0.29976423755826836,1.6835685172776642,0.7739561087091618,-0.0,0.0
0.11401274089737018,0.5802701793612878,0.7846406070185044,1.263522095369755,0.005046685741374587,0.6644403570827607,0.5534617075667593,1.4223573315985143,0.020432930654819513,-0.039368210265062625,0.765391149825555,0.2378790530535346,1.4850859198764597,0.23308279338911073,-0.30072719038947054,1.6841574505102435,-0.706504620358342,-0.0,-0.0
0.0921985879700881,0.569452063435493,0.7785368388580901,1.2623532163649585,-0.013807918319099192,0.6733078378048108,0.5651015092097551,1.4299079800982304,0.020432930654819513,-0.039368210265062625,0.765391149825555,0.2378790530535346,1.4764733312644271,0.23087798531642686,-0.29923945174089045,1.6833922010056783,0.7739592118913204,-0.0,0.0
0.112143640466251,0.578650054844153,0.7848703607128725,1.264302044814294,0.0033504625535165557,0.6645823272375264,0.5551890994482984,1.4240386222808366,0.020432930654819513,-0.039368210265062625,0.765391149825555,0.2378790530535346,1.4842995926295046,0.23289014212504905,-0.3006240248142901,1.68431371906332,-0.7060830118235821,-0.0,0.0
0.09242102483236225,0.5689296559924443,0.779285580618106,1.2631708312535406,-0.01368889474383145,0.6726566334473292,0.5656475272790972,1.4307668342812896,0.020432930654819513,-0.039368210265062625,0.765391149825555,0.2378790530535346,1.476521587581322,0.2308980351699721,-0.2992775384928138,1.6836023580536272,0.773830402519909,-0.0,0.0
0.11244997706228418,0.5781723118004952,0.7856392446672831,1.265117666237603,0.003541978390340478,0.6638976965490101,0.555688433001494,1.4248702861970262,0.020432930654819513,-0.039368210265062625,0.765391149825555,0.2378790530535346,1.484376964033723,0.23291777477054165,-0.30066700629290716,1.6845257885734102,-0.7063511356665758,0.0,0.0
0.09063912390077099,0.5674139862743982,0.7794727327659616,1.263880490115297,-0.015302293661259516,0.6728213064229736,0.5672620504303092,1.432316950169156,0.020432930654819513,-0.039368210265062625,0.765391149825555,0.2378790530535346,1.4757793370261907,0.23071567101348459,-0.29917900304024536,1.683741922181204,0.774187216298859,-0.0,0.0
0.11068769469893275,0.5766076137701287,0.7858949350398354,1.2658999649492655,0.0019385136897649858,0.6640010493825437,0.5573553282383152,1.4265062400216406,0.020432930654819513,-0.039368210265062625,0.765391149825555,0.2378790530535346,1.483634214689779,0.2327361682897204,-0.30057113121588364,1.6846846354919636,-0.7074810977163657,0.0,0.0
0.09122649182752311,0.5675936336383982,0.7809187195246309,1.2650214403840059,-0.013887135924126976,0.6718094673089916,0.5673538225758741,1.4328873847393684,0.020432930654819513,-0.039368210265062625,0.765391149825555,0.2378790530535346,1.47616995341992,0.2308234844634726,-0.2992766496146807,1.683985745829139,0.774271449548606,0.0,0.0
0.11319918278764747,0.5770453450067228,0.7871508851050112,1.2667875905905825,0.00574055519986783,0.6631725312965203,0.5576566075678062,1.4272019011649542,0.020432930654819513,-0.039368210265062625,0.765391149825555,0.2378790530535346,1.484819859942815,0.23304821924976774,-0.3008079646033246,1.6850122535136511,-0.7070901649996653,0.0,0.0
0.08782449500560852,0.5652972787948675,0.7808695952580432,1.2658144635945094,-0.01703166000935638,0.6724145246475675,0.5697446302648845,1.4349972054482187,0.020432930654819513,-0.039368210265062625,0.765391149825555,0.2378790530535346,1.4747752625402744,0.23047566929197044,-0.2990718055437288,1.6841119367144497,0.7745815696421365,-0.0,0.0
0.10976196836746357,0.5746205823830394,0.7872148952907577,1.2677186412776678,0.0025499312879225626,0.6636906982340806,0.5601855605524013,1.4294945415493014,0.020432930654819513,-0.039368210265062625,0.765391149825555,0.2378790530535346,1.4833978535580221,0.23269509753021625,-0.3006039936580346,1.6851752653406078,-0.707737937590847,-0.0,0.0
0.0869344867120007,0.5641716007425749,0.7814315541753587,1.2666933015271238,-0.01792028173185725,0.6721152978700864,0.5709292663977396,1.4363178075194047,0.020432930654819513,-0.039368210265062625,0.765391149825555,0.2378790530535346,1.4743768971871472,0.23038282261834794,-0.2990386526269989,1.684324081988152,0.7744203909551608,-0.0,-0.0
0.10235730566449201,0.5707047596797061,0.7859157460634646,1.2680571025342038,-0.004156820989455681,0.6659618832804545,0.5642330728904358,1.4324858888411407,0.020432930654819513,-0.039368210265062625,0.765391149825555,0.2378790530535346,1.4804336617236997,0.23194225496964208,-0.3001159985121676,1.6850788683244275,-0.7074472768026274,-0.0,0.0
0.08029566005578019,0.56085165600449,0.7800559792780909,1.266754748586198,-0.023908362729107603,0.674323198868816,0.5743521137212954,1.438708784716056,0.020432930654819513,-0.039368210265062625,0.765391149825555,0.2378790530535346,1.4717372082009599,0.2297097156671847,-0.2985945910188005,1.6841721361627486,0.7739313315183456,0.0,0.0
0.10474418054162786,0.5704497662154222,0.7868124631594579,1.2689003203610318,-0.004655496535243865,0.6649409579268915,0.5645313002205516,1.4332581869821757,0.020432930654819513,-0.039368210265062625,0.765391149825555,0.2378790530535346,1.4807882598310893,0.23204316634718247,-0.30021602972984895,1.6853802331567411,-0.7077496877059097,0.0,0.0
0.08830991914355324,0.5634225901711696,0.7829038669093669,1.268195881439318,-0.01766218903031371,0.6708215745524605,0.5716582906269119,1.4376429663872108,0.020432930654819513,-0.039368210265062625,0.765391149825555,0.2378790530535346,1.4746697643656739,0.23047256432292607,-0.29914672890252475,1.6847497896283483,0.7742148950023564,-0.0,-0.0
0.11514765354443521,0.5742659175142925,0.7899844915250946,1.2701552781494982,0.0035038307948547717,0.6607466380007742,0.560600349090026,1.4312844300807008,0.020432930654819513,-0.039368210265062625,0.765391149825555,0.2378790530535346,1.4846183443621863,0.23303400895895607,-0.3009147325080179,1.6859791692386796,-0.7075791607581859,-0.0,-0.0
0.094215200897,0.5650054941694052,0.7853515238577813,1.2696583860986963,-0.013098980140327302,0.6680029364972441,0.5699620814662159,1.4372621386482052,0.020432930654819513,-0.039368210265062625,0.765391149825555,0.2378790530535346,1.4768075597124055,0.23103266194131386,-0.29956412833799506,1.685274785225655,0.7739639758969977,-0.0,-0.0
0.12115563369333993,0.5761161369227967,0.7922108917383719,1.2713323135948429,0.00817079219066395,0.6580548321965877,0.5586586996992521,1.430605230692059,0.020432930654819513,-0.039368210265062625,0.765391149825555,0.2378790530535346,1.486801308829465,0.23360332934125966,-0.3013297251573917,1.6864375417707151,-0.7119414219760718,-0.0,-0.0
0.09812629853507905,0.5657328963963709,0.7873327729485402,1.2710397655590935,-0.01011751784470915,0.6658900604098562,0.5691364621701089,1.437427518584561,0.020432930654819513,-0.039368210265062625,0.765391149825555,0.2378790530535346,1.4781993384895342,0.23140147687941467,-0.2998513889824152,1.6857248893025298,0.7712150923178364,-0.0,-0.0
0.1250034978986429,0.57696539265641,0.7940127271354392,1.2725160812221237,0.011116414070522319,0.6560734830627477,0.5577276254886877,1.4306096940318402,0.020432930654819513,-0.039368210265062625,0.765391149825555,0.2378790530535346,1.48817158607583,0.23396514238195099,-0.30160638138475776,1.6868381286325542,-0.7076106646537602,-0.0,-0.0
0.10158772412118028,0.5663889599795584,0.7893091740753366,1.272439724899642,-0.008732087447693736,0.6634888346935192,0.5679349094675876,1.437352639609452,0.020432930654819513,-0.039368210265062625,0.765391149825555,0.2378790530535346,1.4791503133964874,0.23165733279809578,-0.3000619674647491,1.6861323484665702,0.773207932749327,0.0,-0.0
0.11551903804851801,0.5730081516109478,0.7935223378244626,1.2735329243082518,0.0036667333611226007,0.6577369156016045,0.5611269402910823,1.433235445699167,0.020432930654819513,-0.039368210265062625,0.765391149825555,0.2378790530535346,1.4845947936236483,0.23305649916274104,-0.30101757485635483,1.6867225340057825,-0.7067976970125638,0.0,0.0
0.09234955724258867,0.5614925143061249,0.7870678677737922,1.2723596021430303,-0.017017891439256555,0.6668529422080225,0.5729879669209804,1.4408363753820819,0.020432930654819513,-0.039368210265062625,0.765391149825555,0.2378790530535346,1.4755061174167798,0.230727073466977,-0.2994460867342374,1.6859030583183625,0.7741284872198751,0.0,0.0
0.11238908270105397,0.5707212769653136,0.7934437065320271,1.2743003760275782,0.000780989566307639,0.658322383573896,0.5635053754182534,1.4353476839297576,0.020432930654819513,-0.039368210265062625,0.765391149825555,0.2378790530535346,1.4833152318225309,0.23273760450842934,-0.3008303387491179,1.6868448486989276,-0.7071843959836207,0.0,0.0
0.09153548053034649,0.5604614059117644,0.7875197572630321,1.2731142246764262,-0.017822434542335792,0.6666236596305938,0.5740677242336072,1.442023809654697,0.020432930654819513,-0.039368210265062625,0.765391149825555,0.2378790530535346,1.4751476141997422,0.2306427248901992,-0.299413158963593,1.6860737195695004,0.7744014575980837,0.0,-0.0
0.11155910096786434,0.5696559537371981,0.7939192959979919,1.2750846753217524,-4.138226697528516e-05,0.6580747166535797,0.5646223186319927,1.436584833558945,0.020432930654819513,-0.039368210265062625,0.765391149825555,0.2378790530535346,1.482944470062757,0.23265059562574184,-0.3007965027105876,1.6870231648014842,-0.7079034296960797,0.0,-0.0
0.08832959287298656,0.558259548888341,0.7872850579462186,1.2737252749463752,-0.020759861973994122,0.6673531522601738,0.5763520713575223,1.4439654487744396,0.020432930654819513,-0.039368210265062625,0.765391149825555,0.2378790530535346,1.4738536576468222,0.23031832133254557,-0.29921758377042595,1.686153854137513,0.7731026098304943,0.0,-0.0
0.108409644785694,0.5673774040315761,0.7938124030622034,1.2758278249623989,-0.002941629693510632,0.6586897174802342,0.5669895652997097,1.438666617480272,0.020432930654819513,-0.039368210265062625,0.765391149825555,0.2378790530535346,1.481661302324785,0.23233038305073242,-0.30060760257681923,1.687138262321594,-0.7078716978456647,0.0,-0.0
0.08752368687673061,0.5572360069913528,0.7877327287263551,1.2744750391417985,-0.021556125767552902,0.6671281707869383,0.5774225052664413,1.4451379775194628,0.020432930654819513,-0.039368210265062625,0.765391149825555,0.2378790530535346,1.4735001245467891,0.23023509613938753,-0.29918520110182445,1.6863230715552484,0.7738170315518718,0.0,-0.0
0.10161101923820338,0.5636140587831953,0.7923319073146159,1.275971672263969,-0.009058194413856907,0.6610329722443908,0.5708747029471493,1.4414518216790604,0.020432930654819513,-0.039368210265062625,0.765391149825555,0.2378790530535346,1.4789734212560242,0.23164592941717052,-0.3001604987471908,1.6870194776685556,-0.7076474638826037,-0.0,-0.0
0.07831022379917434,0.55254986465522,0.7852782411755056,1.274148164339226,-0.029793148737168935,0.6706691313839224,0.5822478565554241,1.4482963007499172,0.020432930654819513,-0.039368210265062625,0.765391149825555,0.2378790530535346,1.4698893793799497,0.2293104911447633,-0.29856563228199506,1.6860305482976137,0.7737152894488608,-0.0,-0.0
0.09650097868862,0.5605213381101014,0.7914983002663856,1.2764121275338365,-0.013686752163033236,0.6625724839090757,0.5740713611129653,1.443919488294319,0.020432930654819513,-0.039368210265062625,0.765391149825555,0.2378790530535346,1.4769382379408853,0.23113066344937502,-0.29983383728001883,1.68701281676856,-0.7120366739433607,-0.0,-0.0
0.08010609979047531,0.5528689830589961,0.7863921128992079,1.2749635099582695,-0.028259367739307317,0.6694700283271481,0.5819323636443697,1.4485356764863977,0.020432930654819513,-0.039368210265062625,0.765391149825555,0.2378790530535346,1.4705588780341716,0.2294888281429902,-0.29870767572494406,1.686275017022554,0.7714799300434991,-0.0,-0.0
0.10036485072023463,0.5618032074585019,0.7932592482485467,1.27741146320854,-0.010315714894643401,0.6604993975839204,0.5727680473324774,1.4435853035545159,0.020432930654819513,-0.039368210265062625,0.765391149825555,0.2378790530535346,1.4784090339240505,0.23151538558197765,-0.3001174523168569,1.687351059429313,-0.7114933986730184,-0.0,-0.0
0.07934783425896133,0.5518676148219992,0.7868493227493976,1.275716064023025,-0.02901191877801302,0.6692334261145414,0.5829772457446579,1.4496816865504811,0.020432930654819513,-0.039368210265062625,0.765391149825555,0.2378790530535346,1.4702267790630505,0.22941091932278967,-0.2986788317364371,1.6864452905993614,0.7665609436208219,-0.0,-0.0
0.0998330025919464,0.5608762767232371,0.7938200063638161,1.2782203894266562,-0.010871380137470087,0.6601393141545546,0.5737384812822117,1.4447184285022272,0.020432930654819513,-0.039368210265062625,0.765391149825555,0.2378790530535346,1.478158659094683,0.23145904546701246,-0.30010445157085913,1.6875411161604226,-0.7120724071034551,-0.0,-0.0
0.07668997317001174,0.5499567775439542,0.7867389270567821,1.276329982490668,-0.03145560744322133,0.6697775284590359,0.584956541873897,1.451393000342663,0.020432930654819513,-0.039368210265062625,0.765391149825555,0.2378790530535346,1.4691553035855383,0.22914293347189923,-0.29852046689414174,1.6865371822713662,0.7646080321999504,-0.0,-0.0
0.09515762100279371,0.5580001498012639,0.7931055749353366,1.2786829491593132,-0.0151115710958383,0.6615116264063925,0.5767107659891827,1.4470355822081828,0.020432930654819513,-0.039368210265062625,0.765391149825555,0.2378790530535346,1.4762970506307678,0.23098811090627994,-0.2998076454066574,1.6875493148919853,-0.7178723742999956,-0.0,-0.0
0.0719325880782451,0.5472135510091801,0.78581461483625,1.2765721579546683,-0.03574677884173551,0.6713353984921959,0.5877857146825105,1.4534756898698555,0.020432930654819513,-0.039368210265062625,0.765391149825555,0.2378790530535346,1.467278122534096,0.2286657224510584,-0.2982129957160615,1.6864876659309773,0.771211655403076,-0.0,-0.0
0.09237786369027534,0.5559646060873232,0.7930249919173331,1.2793673769213862,-0.017671283417612125,0.6620541531276494,0.5788189621976604,1.448874693418586,0.020432930654819513,-0.039368210265062625,0.765391149825555,0.2378790530535346,1.475171692270314,0.23070707160384696,-0.2996426840204923,1.6876559559434212,-0.7157870835845196,-0.0,-0.0
0.06903745201928713,0.5452277352212509,0.7855870198791001,1.2771192806768026,-0.03839548121515821,0.672018276924305,0.5898382769882612,1.455188652799402,0.020432930654819513,-0.039368210265062625,0.765391149825555,0.2378790530535346,1.4661202531073951,0.22837485543512087,-0.2980375267469526,1.6865566490762935,0.7726673891577986,-0.0,-0.0
0.08742485325978698,0.5530135646702526,0.7921601989815044,1.2797361760661083,-0.022149931101644635,0.6635995031800066,0.5818635075942044,1.451175255249005,0.020432930654819513,-0.039368210265062625,0.765391149825555,0.2378790530535346,1.4732102861236538,0.23020952942741096,-0.29932551006317004,1.6876333815799418,-0.7144646084146148,-0.0,-0.0
0.07084528322200503,0.5455162195918127,0.7867383388650852,1.2779783272204088,-0.03685470958108461,0.6707898965924672,0.5895535225010635,1.4554682747768766,0.020432930654819513,-0.039368210265062625,0.765391149825555,0.2378790530535346,1.4667923957147389,0.22855420677679078,-0.2981814437787729,1.6868119001494553,0.772384214377431,-0.0,-0.0
0.09135477217627995,0.5542582121869992,0.794009441021765,1.2808225486291638,-0.01872814596754946,0.6614461754369407,0.5805992140404574,1.4509153718703356,0.020432930654819513,-0.039368210265062625,0.765391149825555,0.2378790530535346,1.4747003599313033,0.23060001364986196,-0.29961538168400703,1.687994718597456,-0.7147373405043532,-0.0,-0.0
0.07031776090735231,0.5446173540544745,0.787266701825062,1.2787558974348632,-0.03740141513090166,0.6704616346562366,0.5904902429215013,1.4565414861207469,0.020432930654819513,-0.039368210265062625,0.765391149825555,0.2378790530535346,1.4665530998483636,0.22850000667794498,-0.29816889200519503,1.6869928381031556,0.7719337375174075,-0.0,-0.0
0.08465718118441867,0.5507169730957723,0.7923632922701694,1.2807578902121795,-0.02473004624761232,0.663917450165657,0.5842436483782235,1.4533799799250555,0.020432930654819513,-0.039368210265062625,0.765391149825555,0.2378790530535346,1.4720781402124428,0.22992960942597618,-0.2991712945149909,1.687823480863617,-0.7115967988602074,-0.0,-0.0
0.06130371107640038,0.5402597051088789,0.7846164212165161,1.2781569910723223,-0.04542895787775082,0.6741365964573179,0.5949647165757515,1.4592677665442086,0.020432930654819513,-0.039368210265062625,0.765391149825555,0.2378790530535346,1.463052392697246,0.2276001417950054,-0.2975576311563444,1.6866343682531766,0.7704329040329032,-0.0,-0.0
0.07960924558581232,0.5477870159094401,0.7913940065835875,1.2810360954586915,-0.029283410979820207,0.6655676489001907,0.5872616804016358,1.4555974093502773,0.020432930654819513,-0.039368210265062625,0.765391149825555,0.2378790530535346,1.4700890785172158,0.22942389482788358,-0.29884602686095846,1.6877751271344434,-0.7113581381425954,-0.0,-0.0
0.06368145780400539,0.5405859730071804,0.785741375013132,1.278982750812512,-0.04380863319105049,0.6728583980848368,0.5946557380750026,1.4595430673900542,0.020432930654819513,-0.039368210265062625,0.765391149825555,0.2378790530535346,1.4637594698313194,0.22778862984713333,-0.2977084630072929,1.6868991455997302,0.7673913284758694,-0.0,-0.0
0.08392707134983556,0.5489800497490609,0.7931640921293159,1.282077927856187,-0.025944513528673566,0.6634286625409418,0.5860743438599527,1.4554046650940544,0.020432930654819513,-0.039368210265062625,0.765391149825555,0.2378790530535346,1.4715421280264593,0.22980518383191564,-0.2991307148432347,1.6881420466311348,-0.7060563070057978,-0.0,-0.0
0.06283983946238154,0.5395701921947507,0.7861353869524917,1.2796940331344493,-0.04462986935746423,0.6726957465257338,0.5957091865969742,1.460649704089412,0.020432930654819513,-0.039368210265062625,0.765391149825555,0.2378790530535346,1.4634025793094432,0.22770362280221684,-0.29767358211499334,1.6870555451790021,0.7717720223565974,-0.0,-0.0
0.0770287730805557,0.5454339194073181,0.7913573584156285,1.2818851098885544,-0.032112808696601616,0.6660703348719452,0.5897158635138915,1.457779974558583,0.020432930654819513,-0.039368210265062625,0.765391149825555,0.2378790530535346,1.4688528623266741,0.22911616838200335,-0.2986704516615627,1.6879323141497211,-0.7057416462088382,0.0,0.0
0.05344795286221285,0.5351660125832481,0.7832278049786757,1.2789014420320939,-0.052976298633625844,0.6766490449909486,0.6002218226089918,1.4632784649075872,0.020432930654819513,-0.039368210265062625,0.765391149825555,0.2378790530535346,1.4597691708335514,0.2267677653662672,-0.2970327405699365,1.6866379264602531,0.774440051040045,-0.0,0.0
0.07177675838595311,0.5424699993960519,0.7902542597228219,1.2820685310830713,-0.036838680008983,0.6678699542602978,0.5927619278042704,1.4599479186019417,0.020432930654819513,-0.039368210265062625,0.765391149825555,0.2378790530535346,1.4667934861337384,0.22859132152229392,-0.2983296765619365,1.6878538869069564,-0.7061607302301043,-0.0,-0.0
0.05528952011985731,0.5354269073191155,0.7844270892346922,1.279814040708898,-0.05140908766817962,0.675380937067087,0.5999641242578189,1.4635960144427211,0.020432930654819513,-0.039368210265062625,0.765391149825555,0.2378790530535346,1.4604535066474273,0.22695056905863598,-0.29718048926934026,1.6869067720442013,0.7726795464042157,0.0,0.0
0.0755349555841685,0.5435528870862859,0.7921277896541863,1.2832370457149527,-0.03357814474022115,0.6657298713165201,0.5916647070473708,1.4598416379612966,0.020432930654819513,-0.039368210265062625,0.765391149825555,0.2378790530535346,1.4682117192114343,0.22896414264579004,-0.2986102800854368,1.6882315964855195,-0.7057584204887745,0.0,-0.0
0.052118585158948794,0.5334135315729192,0.7839952643482727,1.2802090889689424,-0.05428746435026259,0.6762854693713031,0.602035120956715,1.465208848839754,0.020432930654819513,-0.039368210265062625,0.765391149825555,0.2378790530535346,1.4592041207053545,0.2266344078852769,-0.29698374891192114,1.6869292243682195,0.7731972849485932,0.0,-0.0
0.07039296881249961,0.5406570049356132,0.7910404621734044,1.2834100176396799,-0.038203800007516615,0.6674991947237287,0.5946397634729794,1.4619504244409096,0.020432930654819513,-0.039368210265062625,0.765391149825555,0.2378790530535346,1.4661983613162697,0.2284508482140073,-0.2982768169209298,1.688152819257669,-0.7064255197251194,-0.0,-0.0
0.04670052322822994,0.5305892020539633,0.7826112853634499,1.2801100461880082,-0.05913348196869391,0.6783396573180072,0.604931156838362,1.4671058004447495,0.020432930654819513,-0.039368210265062625,0.765391149825555,0.2378790530535346,1.4571001775874608,0.22609533284735317,-0.2966253223223767,1.6867760495114434,0.7734753434113149,-0.0,0.0
0.06699337659095725,0.5384597098131664,0.7906126207977905,1.2838776652261397,-0.04129368741304653,0.6684434060225709,0.5968994055083374,1.4637280229606877,0.020432930654819513,-0.039368210265062625,0.765391149825555,0.2378790530535346,1.4648548428924602,0.22811126630292466,-0.29806669314045947,1.6881875633005232,-0.706109199551621,0.0,0.0
0.04338110914244747,0.5285523632074793,0.7820798618409106,1.280434400925318,-0.06213638351762754,0.6793531327429055,0.6070224201821329,1.4686821548802913,0.020432930654819513,-0.039368210265062625,0.765391149825555,0.2378790530535346,1.4557999273488549,0.22576532710877492,-0.2964173948281119,1.6867767525990567,0.7747009209517017,0.0,0.0
0.06135137518356014,0.5354280617454208,0.7892615416292696,1.2838850241631365,-0.046349881825572564,0.6705138746599021,0.6000083646397224,1.465823190383886,0.020432930654819513,-0.039368210265062625,0.765391149825555,0.2378790530535346,1.4626586641610682,0.22754950119227194,-0.2976963991124619,1.6880550746465248,-0.6931572653352851,-0.0,0.0
0.03753114866101985,0.5256440468710158,0.7804342111505145,1.2801512419893313,-0.06735039634349628,0.6816934747247446,0.6099996576530472,1.4705225644391509,0.020432930654819513,-0.039368210265062625,0.765391149825555,0.2378790530535346,1.453539835736754,0.22518448988277887,-0.29602603562116125,1.6865671504633055,0.778274062490232,0.0,0.0
0.056617250266199085,0.5327708568398063,0.7882412026530199,1.2840325735640987,-0.05060391445044385,0.6721659602559265,0.6027326903049142,1.4677268215641546,0.020432930654819513,-0.039368210265062625,0.765391149825555,0.2378790530535346,1.4608132284489808,0.22707850634789795,-0.2973901662475386,1.6879781882971943,-0.665656816937374,0.0,0.0
0.0327763104003673,0.523155416892135,0.7792226707749007,1.2800778710877334,-0.07160094035160972,0.6835003626391094,0.6125469850808232,1.4721798432840199,0.020432930654819513,-0.039368210265062625,0.765391149825555,0.2378790530535346,1.4517005761353992,0.22471296806254257,-0.2957130478165687,1.6864349035904518,0.7799151673731731,0.0,0.0
0.049855770291253335,0.5294049417838274,0.7863387264178487,1.283707843761126,-0.05662996618004508,0.6748738074627516,0.6061769866798397,1.4698530437493322,0.020432930654819513,-0.039368210265062625,0.765391149825555,0.2378790530535346,1.4582004624291305,0.22640701348534997,-0.2969377581762119,1.6877361729124243,-0.65566880079121,0.0,0.0
0.025906237881279055,0.5199994334024381,0.7770173529647632,1.2794215352919927,-0.07769253391941912,0.6864648745862,0.6157713477563055,1.4739741515368063,0.020432930654819513,-0.039368210265062625,0.765391149825555,0.2378790530535346,1.4490629219560593,0.2240321140254687,-0.29524477172548746,1.6861083587607522,0.7775361526001203,0.0,0.0
0.04517631026186819,0.5268415795435364,0.7852572525786632,1.2837745129175893,-0.06082463311629141,0.6765695924672467,0.6088001527673171,1.4716294242836763,0.020432930654819513,-0.039368210265062625,0.765391149825555,0.2378790530535346,1.456385086268788,0.22594271545087177,-0.2966336471671909,1.687639611873858,-0.6710266870025625,0.0,0.0
0.02137149159709654,0.5176678131323756,0.7758128929710651,1.2792997743896397,-0.08173881890707439,0.688231016736943,0.6181538946173935,1.4754822700966306,0.020432930654819513,-0.039368210265062625,0.765391149825555,0.2378790530535346,1.447315949976126,0.2235835480086572,-0.294945604638809,1.6859686830933862,0.776361330509682,0.0,0.0
0.03909918072479246,0.5238353383509636,0.7835207240264738,1.2834593039710533,-0.06623549673975185,0.6790298145904555,0.611872062708275,1.473496237073525,0.020432930654819513,-0.039368210265062625,0.765391149825555,0.2378790530535346,1.45404372636317,0.22534045862031868,-0.2962273042175056,1.6874153341093787,-0.6828648796478747,0.0,0.0
0.02271843101667472,0.517455485711235,0.7765630557505028,1.2800215599428342,-0.08057227686490354,0.6871575385138828,0.6181302433456988,1.4759273247748632,0.020432930654819513,-0.039368210265062625,0.765391149825555,0.2378790530535346,1.4478287950592859,0.22372201317537999,-0.2950636310062461,1.6862212367424336,0.7738237054332571,0.0,0.0
0.042412250669443985,0.5245601594842202,0.7853956899745101,1.2847714477393224,-0.06282846153193856,0.6766624428549644,0.6108971826932311,1.4735997892372172,0.020432930654819513,-0.039368210265062625,0.765391149825555,0.2378790530535346,1.4555255344461888,0.22573162960968332,-0.2965278859245286,1.6878625392438933,-0.7002870684526782,0.0,0.0
0.02212473182109962,0.5163108217685127,0.7765673288239271,1.2804727831524831,-0.08053849052671216,0.6868958152293255,0.6190572919022508,1.4769252071577077,0.020432930654819513,-0.039368210265062625,0.765391149825555,0.2378790530535346,1.4475967689992382,0.22366807918190526,-0.29504909005926827,1.6863792482458475,0.7740129570030825,-0.0,0.0
0.0357278397318249,0.5213828235514709,0.7829461639184518,1.2839240405192724,-0.06870980274533467,0.6796903526953585,0.6140387633469335,1.475281529713968,0.020432930654819513,-0.039368210265062625,0.765391149825555,0.2378790530535346,1.4528957683480614,0.2250518732112247,-0.2960576739999975,1.6875131836033532,-0.7056388624203461,0.0,-0.0
0.013068289479747773,0.5124203444435436,0.7728330282204808,1.2788135477790652,-0.08846360168148304,0.6913108367366796,0.6229034715964786,1.4786687021014928,0.020432930654819513,-0.039368210265062625,0.765391149825555,0.2378790530535346,1.444053174630151,0.22274777972001453,-0.2943973696667966,1.685780379854641,0.7734696502487314,-0.0,-0.0
0.0324098169643572,0.5193382878055334,0.7821921645267705,1.2840815862811363,-0.07167422478112917,0.6808510906303926,0.6160564253086132,1.4767016475108063,0.020432930654819513,-0.039368210265062625,0.765391149825555,0.2378790530535346,1.4515754301501629,0.22471512568450713,-0.2958419913466144,1.687480716499802,-0.705651561745574,0.0,0.0
