muneebpandith/TeleoperationWork/DATASET/TRANSORMER_DATA/training_data_for_transformer1686208322.5687048.csv
J0,J1,J2,J3,J4,J5,J6,J7,J8,J9,J10,J11,J12,J13,J14,J15,ThetaXHG,ThetaYHG,ThetaZHG
-0.1557385011767353,0.5396275835680227,0.7622108198305007,1.245060553011802,-0.08074991134978723,0.7489130029662092,0.6466760979862154,1.4851081095213323,-0.047448569245839886,-0.0473459248248807,0.7873810326723181,0.2378790530535346,1.370387330593749,0.2026353861657479,-0.2929700249287379,1.6815327944480727,0.0013030617488886814,-0.0,-0.0
-0.15144949603506908,0.5399928024970408,0.7644913539362785,1.2468280501441171,-0.07754708674501973,0.746185221468983,0.6451764863836387,1.4848748723917977,-0.047448569245839886,-0.0473459248248807,0.7873810326723181,0.2378790530535346,1.371972068715423,0.20305121473540585,-0.29333618977452286,1.6822970737099374,0.008018115710941045,0.0,-0.0
-0.14793329135192035,0.5403145923043876,0.7663370391728561,1.2482473917241694,-0.07492350802352524,0.7439687893970995,0.6439245008522219,1.4846541728317904,-0.047448569245839886,-0.0473459248248807,0.7873810326723181,0.2378790530535346,1.3732702835299295,0.20339172766403657,-0.2936349076086455,1.682915623678753,0.00697214811719197,-0.0,-0.0
-0.1443845506384262,0.5406577576109001,0.768180085378892,1.249655471379596,-0.07227740159513503,0.7417482615963938,0.6426423438504453,1.4844070643037799,-0.047448569245839886,-0.0473459248248807,0.7873810326723181,0.2378790530535346,1.3745797323376385,0.2037350758805245,-0.2939351898145283,1.6835333050681094,0.005900775545752347,-0.0,-0.0
-0.14060961918508744,0.5410424391500995,0.7701195166569169,1.2511272614775382,-0.06946448099396514,0.7394038126703044,0.6412585963058859,1.4841180722207208,-0.047448569245839886,-0.0473459248248807,0.7873810326723181,0.2378790530535346,1.375971838241561,0.20409997689863238,-0.29425333916514695,1.6841833189441364,-0.0010986555472244953,-0.0,-0.0
-0.13655890015029196,0.5414775221261804,0.7721766592511166,1.2526770300003687,-0.06644812097431942,0.7369081775302315,0.6397511762606661,1.4837781651344961,-0.047448569245839886,-0.0473459248248807,0.7873810326723181,0.2378790530535346,1.3774647651485126,0.20449116641471646,-0.29459329746090757,1.684872833804976,-0.010141167162819842,-0.0,-0.0
-0.13257931309223628,0.5419283342353843,0.7741724980943873,1.2541686261331249,-0.06348686315018061,0.7344775412921335,0.6382465329364011,1.483412837220893,-0.047448569245839886,-0.0473459248248807,0.7873810326723181,0.2378790530535346,1.3789305851044986,0.2048751053451182,-0.2949257938681299,1.6855418700174147,-0.00776550304162256,0.0,0.0
-0.12898624381069537,0.5423559673458989,0.7759522443761004,1.255488062062346,-0.06081507038176507,0.732301756486705,0.6368671093855913,1.483055170935411,-0.047448569245839886,-0.0473459248248807,0.7873810326723181,0.2378790530535346,1.3802532847758475,0.2052214247052873,-0.2952246912791952,1.6861385465442738,-0.00758545106371489,0.0,-0.0
-0.12623824403971728,0.542697173845331,0.7772980987645014,1.256478440648704,-0.05877292111354654,0.7306506651972181,0.6357977366355191,1.4827624273245605,-0.047448569245839886,-0.0473459248248807,0.7873810326723181,0.2378790530535346,1.3812643986318245,0.20548606999006397,-0.29545240037236853,1.686589821813949,-0.005894165317845068,0.0,0.0
-0.1228699443069068,0.5431286037398476,0.7789334453333704,1.2576748999606155,-0.05627095582795916,0.7286390242782981,0.6344735441656425,1.4823856144624954,-0.047448569245839886,-0.0473459248248807,0.7873810326723181,0.2378790530535346,1.3825033063857568,0.20581024999763414,-0.29573068566345523,1.6871382364435927,0.013236635586405426,0.0,0.0
-0.12189113986139467,0.5432586575123918,0.7794035838948302,1.2580163851630808,-0.055544306164337705,0.7280587822716154,0.6340839741649724,1.4822697099804583,-0.047448569245839886,-0.0473459248248807,0.7873810326723181,0.2378790530535346,1.3828631727710496,0.20590438350031307,-0.29581126280489256,1.6872959256418412,0.07697811079589661,0.0,0.0
-0.12313306983849043,0.5430919212541745,0.7788089305854072,1.2575853774638988,-0.056466149221190455,0.7287934120144074,0.6345800232584456,1.4824191333550045,-0.047448569245839886,-0.0473459248248807,0.7873810326723181,0.2378790530535346,1.382406619410523,0.2057849703247798,-0.2957091307843761,1.6870964615687654,0.16318357164447295,0.0,0.0
-0.12964248010209803,0.5422294390930122,0.7756797045407452,1.25531117185895,-0.06129884462059368,0.73265447970124,0.6371683388307459,1.483186614933597,-0.047448569245839886,-0.0473459248248807,0.7873810326723181,0.2378790530535346,1.3800133032457111,0.20515891254926924,-0.29517311459838314,1.686046904971025,0.33516816635016045,0.0,0.0
-0.1413796296852395,0.5407829419133944,0.7699196106314701,1.251066865369722,-0.0700221380458394,0.7397165437439918,0.6417247790280709,1.4844220503202674,-0.047448569245839886,-0.0473459248248807,0.7873810326723181,0.2378790530535346,1.3756944690458222,0.2040284400780806,-0.2941999023128634,1.6841156221824354,0.5033764979227009,0.0,0.0
-0.1544482436715738,0.5393931361063936,0.7632678897252874,1.2460490776410227,-0.07975489673078355,0.7477807266521537,0.6465740541347668,1.485499379839028,-0.047448569245839886,-0.0473459248248807,0.7873810326723181,0.2378790530535346,1.3708780851962727,0.2027663009712166,-0.29310243561758076,1.6818864114397631,0.5969117219890359,0.0,0.0
-0.1648763241984351,0.538483879756354,0.7577459711318411,1.241780732798715,-0.08753998197847773,0.754394259537464,0.6502416126080008,1.4860933967901468,-0.047448569245839886,-0.0473459248248807,0.7873810326723181,0.2378790530535346,1.3670270312001136,0.20175589386539064,-0.2922138860893149,1.6800362749869253,0.6091602723669146,0.0,0.0
-0.1798097402383845,0.5374143485265946,0.7495903386965821,1.2353600072974575,-0.09871135511540477,0.7640697750502119,0.6552595037172225,1.4866394113916264,-0.047448569245839886,-0.0473459248248807,0.7873810326723181,0.2378790530535346,1.3615019363378047,0.20030490027121753,-0.2909261497416179,1.6773036722012107,0.6123681363950993,0.0,-0.0
-0.19398732343795824,0.5367215282156786,0.7415054095272756,1.2288361561302727,-0.10895615500594787,0.7735021859432163,0.6597511402329687,1.4868011590517893,-0.047448569245839886,-0.0473459248248807,0.7873810326723181,0.2378790530535346,1.3562410206764621,0.19892148397376555,-0.28968193724754754,1.6745941168129848,0.6110399408250399,0.0,-0.0
-0.20794266890195973,0.5363487848351721,0.7332212819797582,1.2220033355473388,-0.11907274283988509,0.7830424190880235,0.6638754269747754,1.4865812020335,-0.047448569245839886,-0.0473459248248807,0.7873810326723181,0.2378790530535346,1.3510461688787059,0.19755382368020002,-0.28843592343158164,1.6718165078021872,0.6122667362255236,0.0,-0.0
-0.22039283111339408,0.536294938325462,0.7255384957358318,1.2155359863629318,-0.1281284375616738,0.7917795704036006,0.6672888160047763,1.4860491929056423,-0.047448569245839886,-0.0473459248248807,0.7873810326723181,0.2378790530535346,1.3463955617429975,0.19632808529233198,-0.28730463753575725,1.6692388607748039,0.613175947483602,-0.0,0.0
-0.23163829569803537,0.5367618330115077,0.7188254854760966,1.2096813529675499,-0.13561836647793968,0.7996432603958739,0.6701945473304226,1.4854193633620572,-0.047448569245839886,-0.0473459248248807,0.7873810326723181,0.2378790530535346,1.3423942425651088,0.19527247634948927,-0.2863187999856562,1.6669503548367277,0.6179257316339792,0.0,0.0
-0.2435136548590307,0.5376019219819277,0.7117365205445715,1.2033562235000967,-0.14325321722433826,0.8080963879876002,0.6731368643251345,1.4845791379106348,-0.047448569245839886,-0.0473459248248807,0.7873810326723181,0.2378790530535346,1.3381445681457773,0.19415047355070136,-0.28526008990985113,1.6644546572084395,0.6183993451309046,0.0,-0.0
-0.25486619656715337,0.5387469131319259,0.7049505965955486,1.1971611126245492,-0.15028929379469363,0.8165656855945135,0.6759554321809862,1.4836212342051593,-0.047448569245839886,-0.0473459248248807,0.7873810326723181,0.2378790530535346,1.3340569139964777,0.1930703924577661,-0.28422954855595317,1.6619870542334947,0.6159261647277018,-0.0,0.0
-0.26550012152390784,0.5400131881032071,0.698389348066173,1.191096543340541,-0.1566166681738982,0.8246173384481074,0.6784791323079566,1.482571630099686,-0.047448569245839886,-0.0473459248248807,0.7873810326723181,0.2378790530535346,1.3302130569389188,0.19205399197773443,-0.283249190790512,1.6596054947063719,0.618490564747023,0.0,-0.0
-0.27617919117298273,0.5415873274158636,0.6918143625659696,1.1848939315937344,-0.16300924752561624,0.8328648904652435,0.6808569219448707,1.481312649205288,-0.047448569245839886,-0.0473459248248807,0.7873810326723181,0.2378790530535346,1.3263288847237955,0.1910262625577359,-0.28224759746341477,1.6571404223957946,0.6148599884796426,-0.0,0.0
-0.2848336731072746,0.543015586724396,0.6863245584564979,1.1796601650812577,-0.1679734886042341,0.8396367017352142,0.6827014845258886,1.4801841385574006,-0.047448569245839886,-0.0473459248248807,0.7873810326723181,0.2378790530535346,1.3231682052148914,0.19018944112737574,-0.28142336934026185,1.655086015034369,0.6178480414779319,-0.0,-0.0
-0.29363167547068286,0.5447298200134022,0.680863533183288,1.174338342130613,-0.17291648616908545,0.846644442203847,0.6845145880014393,1.4789324507930461,-0.047448569245839886,-0.0473459248248807,0.7873810326723181,0.2378790530535346,1.3200205500218782,0.18935566336758633,-0.2805949320185473,1.6530004871312125,0.6116327357270736,0.0,-0.0
-0.3013173851471519,0.5464194590640483,0.676126613485213,1.169640452151835,-0.17725968859344066,0.8528671544580817,0.6860037012656895,1.4777151079256374,-0.047448569245839886,-0.0473459248248807,0.7873810326723181,0.2378790530535346,1.317254323018733,0.18862258267920368,-0.27986010904422287,1.6511328111992571,0.6188185008022881,-0.0,-0.0
-0.3063882011869007,0.547599681948337,0.672931702865495,1.1664515495060481,-0.179997412482882,0.8570049781118756,0.6869619269889988,1.4768781496888774,-0.047448569245839886,-0.0473459248248807,0.7873810326723181,0.2378790530535346,1.3154231041192355,0.18813710085876112,-0.27936965393209157,1.6498760128603684,0.6109511353121455,-0.0,-0.0
-0.3134196961333846,0.5493947138526075,0.6686329506741686,1.1620826587185387,-0.1835276998345417,0.8626289903769747,0.6882554027869929,1.4757334470770394,-0.047448569245839886,-0.0473459248248807,0.7873810326723181,0.2378790530535346,1.3129372292539192,0.18747789732742165,-0.27870020991379874,1.6481514748133061,0.6166520325400937,-0.0,-0.0
-0.3183168108180011,0.5507031093462328,0.6655769067450699,1.1589602439381295,-0.18586443313807463,0.8665706087508736,0.6891426163015725,1.4749148449132738,-0.047448569245839886,-0.0473459248248807,0.7873810326723181,0.2378790530535346,1.3112002673524035,0.18701714051989615,-0.278228942504338,1.6469289182704974,0.5948518258616029,-0.0,-0.0
-0.32141271528005,0.5515866180110219,0.663679639178155,1.1569944870466502,-0.1872659911365612,0.8691452829909506,0.6897338859492024,1.4743908214068469,-0.047448569245839886,-0.0473459248248807,0.7873810326723181,0.2378790530535346,1.310097150106617,0.1867244570576023,-0.27792807266821873,1.6461446598789942,0.5953394100369596,-0.0,-0.0
-0.3259832443799656,0.5529598973283995,0.6609458187604852,1.1541247867605728,-0.1893429217797361,0.872973103881624,0.6905893159583959,1.4735912484229086,-0.047448569245839886,-0.0473459248248807,0.7873810326723181,0.2378790530535346,1.3084624995439855,0.1862906863435729,-0.27748073421776953,1.6449751145057012,0.5779242503849281,0.0,-0.0
-0.32947646152465626,0.5540138982540845,0.6587796697436473,1.151860666585788,-0.1908908051035211,0.8758396049418005,0.6912038601511984,1.4729699115181072,-0.047448569245839886,-0.0473459248248807,0.7873810326723181,0.2378790530535346,1.307244268564293,0.18596735332962636,-0.27714568939740586,1.644095315840507,0.5912214988138114,-0.0,0.0
-0.3315436802537546,0.5546635642787362,0.6575126498426165,1.150523645247772,-0.19183399653758526,0.8775924926640971,0.6915678579320718,1.4725797555164075,-0.047448569245839886,-0.0473459248248807,0.7873810326723181,0.2378790530535346,1.3065019599939622,0.18577030779415585,-0.2769407734210735,1.64355549424108,0.5731764252844768,0.0,-0.0
-0.33509538248696147,0.5557580907742357,0.6552491610013681,1.148157176915159,-0.19335736878737653,0.8805934609458451,0.6922070416221491,1.4719260979817712,-0.047448569245839886,-0.0473459248248807,0.7873810326723181,0.2378790530535346,1.305228115496065,0.1854321375382765,-0.2765883240222605,1.642625218673413,0.5931378969662187,-0.0,0.0
-0.33748699511207575,0.5565101851495371,0.6537088937615942,1.1465429244326115,-0.19438507535355368,0.882625293360118,0.6926258242321796,1.4714714591115188,-0.047448569245839886,-0.0473459248248807,0.7873810326723181,0.2378790530535346,1.3043687902619934,0.18520397797426782,-0.2763496314518625,1.641993125988267,0.5673270886282253,0.0,-0.0
-0.34106160384892803,0.5576496041939527,0.6513903978260317,1.1441091074058254,-0.19592307813258403,0.8856733567534251,0.6932399744028626,1.4707772813122288,-0.047448569245839886,-0.0473459248248807,0.7873810326723181,0.2378790530535346,1.3030828178062306,0.18486250702285278,-0.2759914820388974,1.6410426140059133,0.5936940019959102,-0.0,-0.0
-0.3420231319591876,0.557962298573631,0.6507601262352882,1.1434458853036225,-0.19633757471506802,0.8864977722453975,0.6934004081303117,1.4705846363989705,-0.047448569245839886,-0.0473459248248807,0.7873810326723181,0.2378790530535346,1.3027362610116262,0.1847704712652142,-0.2758945797300885,1.640784604762586,0.5180392046091904,-0.0,-0.0
-0.3444363659012877,0.5587513165245687,0.6491737716115471,1.1417755124767415,-0.19737841392608677,0.8885699495417054,0.6937998268838543,1.4700971236224154,-0.047448569245839886,-0.0473459248248807,0.7873810326723181,0.2378790530535346,1.3018660350354523,0.18453935522181406,-0.2756509901844659,1.6401354688160945,0.5601878056760581,-0.0,-0.0
-0.34235074315896713,0.5580602177275839,0.6505545817462434,1.1432318164888338,-0.19647769738409268,0.8867724149112344,0.6934616742046851,1.4705271825355868,-0.047448569245839886,-0.0473459248248807,0.7873810326723181,0.2378790530535346,1.3026190841841077,0.18473936940213814,-0.275862350610467,1.6406999358143706,0.4339673250176508,-0.0,-0.0
-0.3416680526726578,0.5578300838150304,0.6509895994460569,1.1436947337307917,-0.19618253835977353,0.8861846009301003,0.6933487375336016,1.4706657909634542,-0.047448569245839886,-0.0473459248248807,0.7873810326723181,0.2378790530535346,1.3028658589664104,0.18480490908351643,-0.2759314515069002,1.6408841351841432,0.4824986105751631,-0.0,-0.0
-0.3321164565061378,0.554621945493002,0.6570634681133511,1.1501553537149347,-0.1920544592460602,0.8779690936616322,0.6917594767807606,1.4725937321771374,-0.047448569245839886,-0.0473459248248807,0.7873810326723181,0.2378790530535346,1.3063172652676744,0.18572152709640613,-0.2768971603033836,1.6434568020672475,0.22844120430978385,-0.0,-0.0
-0.32823908279480474,0.5533852892588937,0.6594587897300936,1.1526876209100883,-0.19038721302389353,0.8746830356923184,0.6910627849681428,1.4733123221955202,-0.047448569245839886,-0.0473459248248807,0.7873810326723181,0.2378790530535346,1.3077113215201221,0.18609161977679325,-0.2772830693215669,1.6444759017775363,0.392260504468673,-0.0,-0.0
-0.3119212404355912,0.5482906271550674,0.6694218361362874,1.163193905407536,-0.18338477177373327,0.8609362624540314,0.6880441696243894,1.4762284838066788,-0.047448569245839886,-0.0473459248248807,0.7873810326723181,0.2378790530535346,1.3135666182973655,0.18764583109838867,-0.278897030940757,1.648722544198494,-0.010016555367311303,-0.0,-0.0
-0.3091420652290406,0.5474998148482368,0.6710362318387569,1.1648779729656396,-0.18220192215528225,0.8586534588337111,0.6874690597006853,1.4766487140124804,-0.047448569245839886,-0.0473459248248807,0.7873810326723181,0.2378790530535346,1.3145558003962627,0.1879082110770749,-0.2791648556784176,1.6494161619449237,0.3919254323006356,-0.0,-0.0
-0.28262554504371107,0.5400756916792874,0.6863094020102382,1.1807806081076175,-0.17093138256430204,0.8369660748193815,0.6818851534886624,1.4805362460579077,-0.047448569245839886,-0.0473459248248807,0.7873810326723181,0.2378790530535346,1.3239813823156852,0.1904080211715103,-0.28170927183408706,1.6559874374963117,-0.23487600586638618,-0.0,-0.0
-0.2825131399411803,0.540048978365819,0.6863690298001274,1.1808415445901832,-0.170884189365309,0.836877858552084,0.6818576582274902,1.480547868216519,-0.047448569245839886,-0.0473459248248807,0.7873810326723181,0.2378790530535346,1.3240208551799701,0.1904184763887372,-0.2817196309033158,1.6560134546228145,0.49863131506996805,-0.0,-0.0
-0.24877649414535893,0.5320371955133141,0.7042591374403042,1.1991228274614125,-0.1567205774230273,0.8104057158328035,0.6736006831273635,1.4840300490950442,-0.047448569245839886,-0.0473459248248807,0.7873810326723181,0.2378790530535346,1.335867466030816,0.19355628142947925,-0.2848282390348303,1.6638198598625695,-0.42560524818695,-0.0,-0.0
-0.2535799689020448,0.5329369600209762,0.7019719389364323,1.19684536890073,-0.15870942360720156,0.8139806827682858,0.674972816671249,1.4837884136941493,-0.047448569245839886,-0.0473459248248807,0.7873810326723181,0.2378790530535346,1.334203687362023,0.19311642771475457,-0.2844064779011285,1.6628014093096881,0.631027975392102,-0.0,-0.0
-0.2140010583309107,0.5252526896313943,0.7211099932746018,1.2159739955187925,-0.1422920448065841,0.7843032686600386,0.6638888975172716,1.4860702974089584,-0.047448569245839886,-0.0473459248248807,0.7873810326723181,0.2378790530535346,1.3479361886560473,0.19674794668947368,-0.28790410464874466,1.6712965695676452,-0.5677662302056635,-0.0,-0.0
-0.22112142451417008,0.5262435514407588,0.7180913311732424,1.2130576569876954,-0.1452041857575943,0.7893174595107968,0.6662062945085417,1.4860869169696713,-0.047448569245839886,-0.0473459248248807,0.7873810326723181,0.2378790530535346,1.3454997147776564,0.19610522843067577,-0.2873072392918388,1.6699187897653087,0.7116173139857304,-0.0,-0.0
-0.19062880180481412,0.5217115997665357,0.7313320178215591,1.2259312034800744,-0.1327043892144644,0.767601859471305,0.6565217082303083,1.4863373542088758,-0.047448569245839886,-0.0473459248248807,0.7873810326723181,0.2378790530535346,1.3559557576262795,0.1988647652440258,-0.2898859116464703,1.675928616012656,-0.6454701732865425,-0.0,-0.0
-0.20005998530629784,0.5227357477754229,0.727647585585026,1.222452304467952,-0.13653446224365737,0.7739979092024654,0.659831819368077,1.4866844199218938,-0.047448569245839886,-0.0473459248248807,0.7873810326723181,0.2378790530535346,1.352750658554971,0.1980206625454769,-0.28911793191196106,1.6742136805129308,0.7501566598602761,-0.0,-0.0
-0.15962183855309475,0.517857338730407,0.7439761921398097,1.2380147166248159,-0.1200680973955556,0.7461571342628841,0.6460460146027456,1.485751942632952,-0.047448569245839886,-0.0473459248248807,0.7873810326723181,0.2378790530535346,1.3665261481842863,0.2016510997368413,-0.29244739309904355,1.6817504925384035,-0.6756645063809661,-0.0,0.0
-0.17025845247485313,0.5185993919701931,0.7402725985736242,1.2346386918942407,-0.12435340691722126,0.7530118752670556,0.6501268525482072,1.4866219299669776,-0.047448569245839886,-0.0473459248248807,0.7873810326723181,0.2378790530535346,1.3629394938662682,0.20070869296593033,-0.29161221872231313,1.6799730280489824,0.7646355586887958,-0.0,0.0
-0.12550743637641465,0.5153937502912528,0.757301900276448,1.2501144657998051,-0.10631969227337362,0.7237319707286229,0.6334829966617389,1.4836504585571189,-0.047448569245839886,-0.0473459248248807,0.7873810326723181,0.2378790530535346,1.378027643336696,0.2046765037562775,-0.29515892295848767,1.687650311938362,-0.695386660373482,-0.0,-0.0
-0.13614961173481943,0.5155762234082861,0.7538873334984195,1.247199360811279,-0.1105681794343916,0.730191677204063,0.6379230594078097,1.4850357424102243,-0.047448569245839886,-0.0473459248248807,0.7873810326723181,0.2378790530535346,1.374471080020652,0.2037445745167227,-0.2943555255964537,1.6860378728344472,0.7700297202130759,-0.0,-0.0
-0.09432152517731673,0.5141759531052895,0.7676372161607785,1.2591949430467024,-0.09323600184762543,0.7048896500445346,0.6214788324314746,1.4805127395465716,-0.047448569245839886,-0.0473459248248807,0.7873810326723181,0.2378790530535346,1.3881216087749193,0.2073247162206997,-0.2974673373429676,1.6924027441822893,-0.7033527315867973,-0.0,0.0
-0.10543754705537307,0.5140085886067859,0.764578947335859,1.256715442712451,-0.09781302517227812,0.711148950593484,0.6262935832670045,1.4823533355726135,-0.047448569245839886,-0.0473459248248807,0.7873810326723181,0.2378790530535346,1.3845150279128826,0.20638216691489686,-0.29667355472304696,1.6908989815204445,0.7730973158684152,0.0,-0.0
-0.059624638914542796,0.5142979945378474,0.7780893705334625,1.2678475064875492,-0.0795811530797928,0.6842779398206992,0.6062911928877952,1.4751180735941773,-0.047448569245839886,-0.0473459248248807,0.7873810326723181,0.2378790530535346,1.3997732371082354,0.21037376922180598,-0.300062375342912,1.6974575923042845,-0.7070453510708861,-0.0,-0.0
-0.0713317289301211,0.5136195579151414,0.7753085683253786,1.265793660002414,-0.08421913469189145,0.6905991193428482,0.6119156352862545,1.477726769043091,-0.047448569245839886,-0.0473459248248807,0.7873810326723181,0.2378790530535346,1.3958883728660583,0.2093618171822533,-0.2992321329053407,1.695998641502784,0.7731653696313533,-0.0,-0.0
-0.02993540149658181,0.5154833489578684,0.7857384878507229,1.2737532112286638,-0.06678090053419403,0.6676833778520002,0.592591560364935,1.4693246159201572,-0.047448569245839886,-0.0473459248248807,0.7873810326723181,0.2378790530535346,1.4096286596138259,0.2129451539999304,-0.30219684215908627,1.7013465925292048,-0.71124466633997,-0.0,-0.0
-0.03896518671992119,0.5146282496732969,0.783869110650129,1.2725216728198543,-0.07090717634806808,0.6724347682989649,0.5972698458103397,1.4717421084911422,-0.047448569245839886,-0.0473459248248807,0.7873810326723181,0.2378790530535346,1.4065555105267096,0.21214702658721174,-0.3015559246933317,1.7002985679115992,0.7740975514728133,0.0,-0.0
0.001910776082608659,0.5189078543393534,0.7939164047244376,1.2792624579265597,-0.05077222423655199,0.6516388398284756,0.577913404344422,1.462268309861024,-0.047448569245839886,-0.0473459248248807,0.7873810326723181,0.2378790530535346,1.4200469007544039,0.21565433428873976,-0.30439069079288267,1.7050435290729662,-0.7068441866243055,0.0,-0.0
-0.011766438234257652,0.5166863473953611,0.7910247275135511,1.2776900127943422,-0.057836468654738925,0.6580290914627261,0.5849105855644345,1.466244137737214,-0.047448569245839886,-0.0473459248248807,0.7873810326723181,0.2378790530535346,1.4155360027807926,0.21448675550864338,-0.3034735564337268,1.703667732751092,0.7735957147524368,0.0,-0.0
0.01325025391903058,0.5209558562306515,0.7975406076852058,1.2815054055662036,-0.044264937073447,0.6453719076935602,0.5718256507514909,1.459160642912902,-0.047448569245839886,-0.0473459248248807,0.7873810326723181,0.2378790530535346,1.4241973282375375,0.21673206645680507,-0.3052537109412262,1.7064435812935452,-0.7079697236310261,-0.0,0.0
-0.0031477613666421878,0.5175715517118473,0.7936538361764559,1.2795409998177065,-0.05333452515551851,0.6527745692629786,0.580307827430154,1.4641554166078532,-0.047448569245839886,-0.0473459248248807,0.7873810326723181,0.2378790530535346,1.418668663817697,0.21530304826756755,-0.3041409243503823,1.7048361334246562,0.7739733966191359,-0.0,0.0
0.028085572897793124,0.5236131007136201,0.8019792848933716,1.2841958508589177,-0.03561883258362133,0.6377422026936794,0.5642754859787652,1.455233888358192,-0.047448569245839886,-0.0473459248248807,0.7873810326723181,0.2378790530535346,1.4294600795140309,0.21809774624275458,-0.30634188411057683,1.7081777945927206,-0.7088289586681805,0.0,-0.0
0.010996382657052401,0.519678239277527,0.7981202540924707,1.282459293301834,-0.045334393000255255,0.6453682120909551,0.5736399775943904,1.461021034827734,-0.047448569245839886,-0.0473459248248807,0.7873810326723181,0.2378790530535346,1.4235372916363351,0.2165696170500843,-0.30516488709342754,1.7065622735097432,0.7731385492919346,0.0,-0.0
0.04460301791206592,0.5267418372879732,0.8064575341016063,1.2867404059994196,-0.025389072104259572,0.629687522478305,0.5559085260366231,1.4506872766943013,-0.047448569245839886,-0.0473459248248807,0.7873810326723181,0.2378790530535346,1.435157399139041,0.2195741013014176,-0.3075068800833017,1.7099659654810744,-0.7096785372457194,0.0,-0.0
0.028842030373573715,0.5228085789742821,0.8032386845593432,1.2855319357601538,-0.034773662467473564,0.6364280198954947,0.5648317656525852,1.4564694644470422,-0.047448569245839886,-0.0473459248248807,0.7873810326723181,0.2378790530535346,1.4296847956475989,0.21816495921821127,-0.30643421939259075,1.7085792055548101,0.7728259175240892,0.0,-0.0
0.05174871528992568,0.5284049672234654,0.8087717389534094,1.2880343602479822,-0.020598808570463194,0.6262144248931396,0.552330921571365,1.4487634670118401,-0.047448569245839886,-0.0473459248248807,0.7873810326723181,0.2378790530535346,1.4375992035621417,0.22020699413730693,-0.3080057777147714,1.710731215644725,-0.7108013372919434,0.0,-0.0
0.03385745445862799,0.523545244782906,0.8049941496367419,1.2867075316889431,-0.03169920077323796,0.6337034005206552,0.562578464412115,1.4555328949090804,-0.047448569245839886,-0.0473459248248807,0.7873810326723181,0.2378790530535346,1.4313960259577416,0.2186111268227057,-0.30679708363511643,1.7092106479552958,0.7737503880101108,0.0,-0.0
0.0630334318342052,0.53123259275494,0.8123320343590235,1.2899249178110974,-0.013677443861553774,0.6212794705213,0.5470442112120215,1.4458229816080121,-0.047448569245839886,-0.0473459248248807,0.7873810326723181,0.2378790530535346,1.4414560494349922,0.2212052825875484,-0.30878633411056255,1.7118872535167033,-0.7115361729895442,0.0,-0.0
0.04408748783797023,0.5255683910716443,0.8083139014252136,1.2886976494753948,-0.025422492657142325,0.6287169712263019,0.5577580126929723,1.4531017269416509,-0.047448569245839886,-0.0473459248248807,0.7873810326723181,0.2378790530535346,1.4348922436147444,0.21951900679499994,-0.30751922396708986,1.7103637763136552,0.7756070605406303,0.0,-0.0
0.07609925514413846,0.5344017825817406,0.8159238611340986,1.2917137652425497,-0.0048024479617145704,0.6154345331681349,0.5403697379383332,1.4419182127807038,-0.047448569245839886,-0.0473459248248807,0.7873810326723181,0.2378790530535346,1.4459409674400963,0.22236465194945682,-0.30968553767773194,1.7131721242750226,-0.7167925002821008,0.0,-0.0
0.05823197500245887,0.52877801887814,0.812451443882589,1.2909201591963695,-0.016362795784222908,0.6221725015354603,0.5507468240035531,1.4492094004605154,-0.047448569245839886,-0.0473459248248807,0.7873810326723181,0.2378790530535346,1.4397380720670356,0.22077375350072811,-0.30850097718391967,1.7118259981402029,0.7759982447623691,-0.0,0.0
0.08633273349064502,0.5376191581525067,0.8193259207518073,1.2933226965789009,0.0029630618852261835,0.6110479638580899,0.5351748815148978,1.4388005755564406,-0.047448569245839886,-0.0473459248248807,0.7873810326723181,0.2378790530535346,1.449695637540871,0.22333388573096366,-0.310430690561824,1.7141938209742302,-0.7101482924525785,0.0,-0.0
0.06574857293506833,0.5299356334053374,0.8145474523514888,1.2922180924496511,-0.011615721453496885,0.6186707581247318,0.5476034609929973,1.4477643761041554,-0.047448569245839886,-0.0473459248248807,0.7873810326723181,0.2378790530535346,1.44217258149969,0.22140715276737585,-0.30900695487392843,1.7126558627619493,0.7749063769920682,-0.0,0.0
0.0912294925280879,0.5391208476230149,0.8216508942000981,1.2946756964018153,0.007709074850436502,0.6088858622941848,0.5334522411088554,1.4381401383309804,-0.047448569245839886,-0.0473459248248807,0.7873810326723181,0.2378790530535346,1.4514159905249648,0.2237816411100908,-0.31078767940717866,1.7147777616796382,-0.7095556544578047,0.0,-0.0
0.07165942289059973,0.5316843572229536,0.8172533472909237,1.2937951512965598,-0.007229831882028201,0.6157576468473517,0.5450170564181481,1.4465877786942696,-0.047448569245839886,-0.0473459248248807,0.7873810326723181,0.2378790530535346,1.4442593255048108,0.2219498812668016,-0.3094389719019125,1.713356065387111,0.775007225888664,-0.0,0.0
0.0883650706352793,0.538009349710326,0.8219561976149858,1.2953286651501896,0.00581331216806559,0.6092889866790452,0.5353410526278561,1.439897434670846,-0.047448569245839886,-0.0473459248248807,0.7873810326723181,0.2378790530535346,1.4504966644982953,0.22355097082320147,-0.3106344980428257,1.714743971995216,-0.7082020755289276,-0.0,0.0
0.06696879881420813,0.5294209699772139,0.8164665727742795,1.2939817757125027,-0.010937303199564156,0.6170719432777062,0.5482396972186041,1.4492529841620905,-0.047448569245839886,-0.0473459248248807,0.7873810326723181,0.2378790530535346,1.4424771064440758,0.2214974788968795,-0.30911998559693926,1.7131265706591798,0.7743970471023429,0.0,-0.0
0.08841794180072696,0.5374037262310243,0.8226547297572029,1.2961230523899347,0.005797630564717035,0.6086246030495801,0.5359594169934535,1.4408882193573564,-0.047448569245839886,-0.0473459248248807,0.7873810326723181,0.2378790530535346,1.4504734878270034,0.2235516537835272,-0.3106589976592765,1.7149532958130538,-0.7071662561798916,-0.0,0.0
0.07330623482835351,0.5313378464542079,0.8187777393722635,1.2951736868593497,-0.006033285812378296,0.6141229227005081,0.5450690136831247,1.4474910043969098,-0.047448569245839886,-0.0473459248248807,0.7873810326723181,0.2378790530535346,1.4448126095294476,0.22210200858995516,-0.30958998518171366,1.7138114166708234,0.7741076895598514,0.0,-0.0
0.09777617445485384,0.5406558300068596,0.8256079822551432,1.297347901381392,0.013077361528765367,0.6050196944669818,0.5313370856519574,1.4379646514069788,-0.047448569245839886,-0.0473459248248807,0.7873810326723181,0.2378790530535346,1.4539442196138141,0.2244457894759639,-0.31133764167171724,1.715825754276144,-0.7082058950374344,-0.0,0.0
0.0779768842640644,0.5324574153356955,0.8208058259229244,1.2964240239528444,-0.002448450867486008,0.6117297399577768,0.5431115235811714,1.4467030114406607,-0.047448569245839886,-0.0473459248248807,0.7873810326723181,0.2378790530535346,1.4465128078452445,0.22254532669381552,-0.30994591982913905,1.7144127767850394,0.7740950701736921,0.0,-0.0
0.0949105335000227,0.5392618254640013,0.8257048621091128,1.297935215380912,0.010753209560544728,0.6055490649899867,0.5335263526203372,1.4399679753111512,-0.047448569245839886,-0.0473459248248807,0.7873810326723181,0.2378790530535346,1.4528192958813326,0.2241630280384985,-0.31114789081760946,1.715767769627046,-0.709254332815889,-0.0,-0.0
0.07340242771019667,0.5301103561337303,0.8200383613989182,1.2966586532767055,-0.006062064095939283,0.6129085901482937,0.5461971637424512,1.4492943183977076,-0.047448569245839886,-0.0473459248248807,0.7873810326723181,0.2378790530535346,1.4447763242842433,0.22210510378171697,-0.3096377273936357,1.714208722073098,0.7744300872253785,-0.0,-0.0
0.09448623199437955,0.5384464985697069,0.8262851411822324,1.298709076030845,0.010362931923903845,0.6050825897633545,0.5343955979594959,1.4411172718357865,-0.047448569245839886,-0.0473459248248807,0.7873810326723181,0.2378790530535346,1.4526162809455763,0.22411766039795514,-0.31113796429518803,1.7159383664590981,-0.7080926946491835,0.0,-0.0
0.0793726724807061,0.5320259285121711,0.822292341522467,1.2978011821915028,-0.0018738645991339797,0.6102608584041465,0.5432935058665548,1.447657087886141,-0.047448569245839886,-0.0473459248248807,0.7873810326723181,0.2378790530535346,1.4469684762655117,0.2226723549666149,-0.31007712003467097,1.714840031326986,0.7736636935025184,-0.0,0.0
0.10693670055602665,0.5431534373294873,0.8302105648037448,1.3001905484135197,0.01961953566737131,0.6002370852385192,0.5276538062107707,1.436644361122157,-0.047448569245839886,-0.0473459248248807,0.7873810326723181,0.2378790530535346,1.4572280465355365,0.22530388929677808,-0.31203006306021686,1.717028020540028,-0.7081675284343945,0.0,0.0
0.085744551874194,0.5337844489760064,0.8250164083433937,1.2993832348643302,0.0030160021375228822,0.6071523946010149,0.5404741930677988,1.4463559679497908,-0.047448569245839886,-0.0473459248248807,0.7873810326723181,0.2378790530535346,1.4492863245347016,0.22327529100318386,-0.3105547261859515,1.7156054102995535,0.7745569553715115,-0.0,-0.0
0.10698559995717331,0.5425467819138663,0.8309140266880894,1.3009847235560694,0.020188105506129587,0.5996072002044541,0.5282392017336534,1.43759282191306,-0.047448569245839886,-0.0473459248248807,0.7873810326723181,0.2378790530535346,1.4571986822146146,0.22530308181151085,-0.3120524253946291,1.717231215299006,-0.7059508370840594,-0.0,0.0
0.07971305419344149,0.5304901947891977,0.824229126505886,1.2999483772405387,-0.0019420168995608125,0.608481809156698,0.5447678032815083,1.450124402451686,-0.047448569245839886,-0.0473459248248807,0.7873810326723181,0.2378790530535346,1.446984098223138,0.2226936948965529,-0.31015490013366886,1.7154008832591556,0.7741362193693213,-0.0,0.0
0.10047167820985455,0.538877368550974,0.830184388509001,1.3017318899412347,0.01482352661944962,0.6009310031050323,0.5329898169271312,1.4418437276798206,-0.047448569245839886,-0.0473459248248807,0.7873810326723181,0.2378790530535346,1.454699374895824,0.22467298688314769,-0.3116230277680507,1.7170449174022864,-0.70116291009329,0.0,-0.0
0.08464523703006233,0.5320260536850754,0.8261444584832426,1.3009493605580842,0.0019961799744866726,0.6062313271270959,0.5424321036010294,1.448874762801033,-0.047448569245839886,-0.0473459248248807,0.7873810326723181,0.2378790530535346,1.4487871589419026,0.2231609525831205,-0.31051835344688616,1.7159368842456444,0.7731000693424666,-0.0,0.0
0.10786044139033756,0.5415643040003285,0.8326318249167638,1.302742018447914,0.020761004776323484,0.5979421329114522,0.5291011058940872,1.4393730521917356,-0.047448569245839886,-0.0473459248248807,0.7873810326723181,0.2378790530535346,1.457422123120964,0.2253747028380655,-0.31215438424466246,1.717724713689323,-0.7038755060238877,0.0,-0.0
0.08775030708357709,0.5326534899893405,0.8277255978801019,1.3020091253895556,0.004439939666717938,0.6044693337189619,0.5413075989267714,1.4486318997639844,-0.047448569245839886,-0.0473459248248807,0.7873810326723181,0.2378790530535346,1.4498977073095727,0.22345241964139484,-0.31075761997789575,1.7163826501635087,0.773677672355182,-0.0,0.0
0.111047068973586,0.5423244206859645,0.8341273423679069,1.3036800214757922,0.023280587909308318,0.5962473530101196,0.527830614025773,1.4389494538006053,-0.047448569245839886,-0.0473459248248807,0.7873810326723181,0.2378790530535346,1.4585645458299914,0.22567351062994093,-0.31239521405497345,1.718144641746584,-0.7061407802179159,-0.0,0.0
0.08880591374060456,0.5323730278183826,0.8288084348490342,1.3029941637333196,0.0052192739711235045,0.6033694468675276,0.5414279823240465,1.4493380522448882,-0.047448569245839886,-0.0473459248248807,0.7873810326723181,0.2378790530535346,1.4502400711872643,0.22354769882396805,-0.31085425408436146,1.7166916746433447,0.774093714302078,-0.0,0.0
0.11203546467536597,0.5420484570080616,0.8351561173081126,1.304616027925972,0.024009081807295187,0.5952009569190161,0.5279583087596559,1.4396413843979177,-0.047448569245839886,-0.0473459248248807,0.7873810326723181,0.2378790530535346,1.458878485378145,0.22576137827313317,-0.3124849615428559,1.7184376126534409,-0.7042189279169824,-0.0,0.0
0.09204029374116623,0.5330766977239674,0.8304026077957138,1.304034175232636,0.007768491551797391,0.6015800710266446,0.5402072674096251,1.449014261317403,-0.047448569245839886,-0.0473459248248807,0.7873810326723181,0.2378790530535346,1.4513974181382021,0.22385104329731204,-0.31110129513275003,1.7171399538211014,0.7748469995825691,0.0,-0.0
0.10853058930942901,0.5400180348705091,0.8348287962727599,1.305091457632398,0.02111456076519952,0.595852658852885,0.53057230625541,1.44202154671828,-0.047448569245839886,-0.0473459248248807,0.7873810326723181,0.2378790530535346,1.4575311413657694,0.22542224797468086,-0.312255907354351,1.7183557909606457,-0.7069701930779624,0.0,0.0
0.08626751131568602,0.5301383535230727,0.8294141948802489,1.304306812098765,0.0030434657310327295,0.6030699529576119,0.5440974169726579,1.4522734049424801,-0.047448569245839886,-0.0473459248248807,0.7873810326723181,0.2378790530535346,1.4492137377199306,0.22329702863473747,-0.31071275129651243,1.7168762677347573,0.7745566928309311,0.0,0.0
0.10732057656802764,0.5388306205660788,0.8352505745480013,1.3058681897863262,0.020065724939589854,0.5955867800145193,0.5319690099031801,1.4436182743601111,-0.047448569245839886,-0.0473459248248807,0.7873810326723181,0.2378790530535346,1.4570291568207974,0.22530090358841026,-0.3121913602035338,1.7184818875499228,-0.7079760862510314,0.0,-0.0
0.08507420658261539,0.5289977022890279,0.8297964681021349,1.3050371635747176,0.0020120379333995637,0.6028412932373076,0.5454425817004684,1.4537908773760913,-0.047448569245839886,-0.0473459248248807,0.7873810326723181,0.2378790530535346,1.448725922489408,0.2231787003669596,-0.3106491532810224,1.716991447225141,0.7723068177112944,0.0,0.0
0.10834426995732678,0.5385653556945124,0.8362908557083696,1.3068101775563337,0.020823176318999926,0.5945282604492177,0.5320783571945249,1.44429445016644,-0.047448569245839886,-0.0473459248248807,0.7873810326723181,0.2378790530535346,1.4573565616788358,0.2253921926140388,-0.31228367935667795,1.7187781537788658,-0.7051131311798351,0.0,-0.0
0.08603928441593114,0.5286772258700636,0.8308550421833584,1.3060170924912826,0.002718374820951247,0.6017743040387817,0.545616098420205,1.4545326777522924,-0.047448569245839886,-0.0473459248248807,0.7873810326723181,0.2378790530535346,1.4490345153051778,0.22326529970352949,-0.31073933253116703,1.7172937274762983,0.772876717521414,0.0,0.0
0.10702064725333378,0.5373304400844163,0.836681532372107,1.3075791872278608,0.01968221009202876,0.5943031009894738,0.5335404712388834,1.445936466955028,-0.047448569245839886,-0.0473459248248807,0.7873810326723181,0.2378790530535346,1.456812993047732,0.2252601523576547,-0.3122112209049325,1.718895636613871,-0.7027620550540541,-0.0,0.0
0.08461329565817198,0.5274400009903882,0.831173092287413,1.3067308348945956,0.0014985791425958586,0.6016287691881524,0.5470952197433675,1.4561442207686748,-0.047448569245839886,-0.0473459248248807,0.7873810326723181,0.2378790530535346,1.4484609932565151,0.22312496037209448,-0.31065947768395963,1.7173912052529452,0.7738914041021875,0.0,-0.0
0.10786192282829393,0.5369809597851174,0.8376806176123481,1.3085181829574477,0.020291151234389952,0.5933011566310238,0.5337634291841298,1.4467005893571583,-0.047448569245839886,-0.0473459248248807,0.7873810326723181,0.2378790530535346,1.4570717338680117,0.22533392221042078,-0.3122908551427745,1.719180536420556,-0.7058794415555989,-0.0,0.0
0.08771490844662486,0.5280668888127059,0.8327516288469382,1.3077851681256836,0.003939142706983562,0.5998681925754864,0.5459715051395445,1.4559053588638704,-0.047448569245839886,-0.0473459248248807,0.7873810326723181,0.2378790530535346,1.4495654385623922,0.22341498564683226,-0.3108972335009461,1.7178352072727034,0.7742945873329059,0.0,-0.0
0.10418446605684088,0.5348953197802611,0.8372856753956235,1.3089616608512524,0.017258999566933084,0.594036315938002,0.5364576641352176,1.4491123339553238,-0.047448569245839886,-0.0473459248248807,0.7873810326723181,0.2378790530535346,1.455666431602855,0.22497952862815943,-0.31205000443804115,1.7190803203104739,-0.7072528299424964,0.0,-0.0
0.08182141651156595,0.5251156805827962,0.8316872746253277,1.308004920227644,-0.0008795664580696326,0.6014446605301811,0.549890578391115,1.4591388246670673,-0.047448569245839886,-0.0473459248248807,0.7873810326723181,0.2378790530535346,1.4473469030778672,0.2228513340315736,-0.31050039828091974,1.717550830569581,0.7743582320128087,0.0,0.0
0.10521689123739575,0.5346240585079763,0.8383365973055703,1.309914583032177,0.018023086768424963,0.5929688886137386,0.5365698590701775,1.449793701610296,-0.047448569245839886,-0.0473459248248807,0.7873810326723181,0.2378790530535346,1.455996527262397,0.2250715508653117,-0.31214306971090516,1.7193795667824905,-0.7062427957878263,0.0,-0.0
0.08501418485024502,0.525762443782018,0.8333087290908548,1.309086852556784,0.0016336067157640098,0.5996364367204958,0.5487312664425881,1.4588868771573367,-0.047448569245839886,-0.0473459248248807,0.7873810326723181,0.2378790530535346,1.448483537538659,0.22314978135733804,-0.310744925298824,1.7180069082032063,0.7740177319049386,-0.0,0.0
0.10851460516004133,0.5354155327809375,0.8398766406118544,1.3108735699584158,0.02063119903693982,0.5912213955127029,0.5352489252532984,1.44934906654112,-0.047448569245839886,-0.0473459248248807,0.7873810326723181,0.2378790530535346,1.4571734845333353,0.2253795014048522,-0.3123906893482293,1.719810900096705,-0.7061530276344052,-0.0,0.0
0.08605688693980759,0.5254649354596058,0.8343984061867403,1.3100824280336827,0.0024012198790368533,0.5985332577571565,0.548868507082536,1.4596103574687906,-0.047448569245839886,-0.0473459248248807,0.7873810326723181,0.2378790530535346,1.448819107233322,0.22324340001810092,-0.3108404012407267,1.7183173677697379,0.77394010667711,0.0,-0.0
0.10731960477146543,0.534227888229145,0.8403091073646799,1.3116593247791046,0.019592975839892317,0.5909461438597091,0.5366416202991302,1.45094328232681,-0.047448569245839886,-0.0473459248248807,0.7873810326723181,0.2378790530535346,1.456678320969035,0.225259858633781,-0.3123274811583448,1.7199397286200284,-0.7067196421036729,0.0,-0.0
0.09130656338310994,0.5271606551403957,0.8363721534515395,1.3110621085159007,0.006597195183392095,0.5961897737461176,0.5463236400318298,1.4582093803843181,-0.047448569245839886,-0.0473459248248807,0.7873810326723181,0.2378790530535346,1.4507271193897397,0.22373778803119876,-0.3112219652242112,1.7188663335800127,0.7743022161604931,0.0,-0.0
0.11247562556635524,0.5360368748358287,0.8420908006822023,1.3124389219508368,0.023728610238651346,0.588785769947203,0.5339979368767661,1.4493480771248042,-0.047448569245839886,-0.0473459248248807,0.7873810326723181,0.2378790530535346,1.4585586823203134,0.22574571970770213,-0.31269711219711127,1.7204330987866698,-0.7075645822274805,-0.0,0.0
0.09666454506683689,0.5289478539053516,0.8383268248672732,1.3119908161544347,0.010884376818797748,0.5938505685574648,0.5436705078211159,1.4566980214663348,-0.047448569245839886,-0.0473459248248807,0.7873810326723181,0.2378790530535346,1.4526762955550734,0.22424235183297075,-0.3116092579824037,1.7194088139443575,0.7751259913381267,-0.0,0.0
0.12001765455716368,0.538910577440687,0.844448067932274,1.3132924787977591,0.029801041278357983,0.5858522388920985,0.5299010747380676,1.4466589277545445,-0.047448569245839886,-0.0473459248248807,0.7873810326723181,0.2378790530535346,1.4613242739978378,0.22645796805622062,-0.3132306677506639,1.7210827388979644,-0.7069127668136426,-0.0,0.0
0.09775969945465716,0.5287023590162208,0.8394048732700958,1.3129531717384642,0.011693531696445821,0.5927472023599286,0.5437508735708577,1.457373159861738,-0.047448569245839886,-0.0473459248248807,0.7873810326723181,0.2378790530535346,1.4530285500087963,0.22434017444038132,-0.31170653808928317,1.7197141193817689,0.7743824929133918,0.0,-0.0
0.11782580725860177,0.5372059421176917,0.8445386390347187,1.3139881798955422,0.028470821495964974,0.5856823310743815,0.531512384837308,1.4484323710889153,-0.047448569245839886,-0.0473459248248807,0.7873810326723181,0.2378790530535346,1.4606940325841715,0.22630395113348314,-0.3131423941701327,1.7211885547529648,-0.707291464193883,0.0,0.0
0.10160728163821568,0.5298904524546636,0.8408809234137735,1.3137112865474365,0.014860337117408532,0.5909069047822414,0.5418863860429579,1.4564208342122817,-0.047448569245839886,-0.0473459248248807,0.7873810326723181,0.2378790530535346,1.4544635176136584,0.224712835361353,-0.31199609725835764,1.7201479603616072,0.7745487044881134,0.0,0.0
0.12378621425848162,0.5397513489503777,0.8468090665205823,1.3148872517279586,0.03337003669811124,0.5832408066318918,0.5282697540284385,1.4463739698668716,-0.047448569245839886,-0.0473459248248807,0.7873810326723181,0.2378790530535346,1.4629198565071884,0.22687806067311056,-0.31357468149692896,1.7217340820580744,-0.7074776825403589,-0.0,0.0
0.10133374626997144,0.5290728739717633,0.8415790134065116,1.3145753973972385,0.014554195273473843,0.5902575819846138,0.5427893776812054,1.457712427941402,-0.047448569245839886,-0.0473459248248807,0.7873810326723181,0.2378790530535346,1.4543047045434851,0.22467992492125455,-0.3119980229199679,1.7203586019124824,0.7745911824795687,0.0,-0.0
0.12057701242933631,0.5379189314817732,0.8470610814845605,1.315758678327586,0.03112513143479939,0.5838645833940984,0.5314174106461557,1.449324739136244,-0.047448569245839886,-0.0473459248248807,0.7873810326723181,0.2378790530535346,1.461617631590069,0.22655265928344048,-0.3133635120458743,1.7217337468775196,-0.7072764462445267,0.0,0.0
0.09772360801228493,0.5264173421097168,0.8408636673641854,1.3149760654893767,0.011426117254092052,0.590792525168923,0.5455358349441964,1.460275286788229,-0.047448569245839886,-0.0473459248248807,0.7873810326723181,0.2378790530535346,1.4529073718763064,0.22432885201345998,-0.3117647029959625,1.7203061021887494,0.775023295675228,0.0,0.0
0.11867686036689323,0.53625163706031,0.8473198701253138,1.3165811534452443,0.02941206225778294,0.5837380411022919,0.5332970006075297,1.4513447938119042,-0.047448569245839886,-0.0473459248248807,0.7873810326723181,0.2378790530535346,1.4608370458866748,0.22636083839594184,-0.31325002210871067,1.7218335389907498,-0.7055600370773005,-0.0,0.0
0.09547736185861527,0.5250123353660839,0.8413417657106292,1.315880609412107,0.009370774234023271,0.5908598341675365,0.5475962505690558,1.4623725576897089,-0.047448569245839886,-0.0473459248248807,0.7873810326723181,0.2378790530535346,1.4519834202514064,0.22409949585668068,-0.3116220746056733,1.7203600218139672,0.7738020423149252,-0.0,0.0
0.11480103317579213,0.533728359347602,0.8470278033384553,1.3172720989013382,0.025993907406784596,0.5842696356940054,0.5363480878036575,1.45422589683392,-0.047448569245839886,-0.0473459248248807,0.7873810326723181,0.2378790530535346,1.4593057050649292,0.22597669392446357,-0.31299641191127714,1.7217925091235746,-0.7061310151299898,-0.0,-0.0
0.09140453703280961,0.5225264584991304,0.8408523640057405,1.3164018627908836,0.005796706115723499,0.5915915737757342,0.5506307967756326,1.4651226579000574,-0.047448569245839886,-0.0473459248248807,0.7873810326723181,0.2378790530535346,1.4503930154318363,0.2236986156017023,-0.31135188089986043,1.7202645798689862,0.7735876318296686,-0.0,-0.0
0.11212841669690105,0.5317510461412026,0.8470832695957758,1.318044893667243,0.023611941825401973,0.5843993671906821,0.5386935444640791,1.4565853684928387,-0.047448569245839886,-0.0473459248248807,0.7873810326723181,0.2378790530535346,1.4582324969371705,0.22570984985020126,-0.31282856456199093,1.7218391977514753,-0.7066863943258159,0.0,0.0
0.0904505622874779,0.5214576248456754,0.8412673304780574,1.317134300096203,0.004907343908191825,0.5912737336436874,0.5518380153409231,1.4665349791184976,-0.047448569245839886,-0.0473459248248807,0.7873810326723181,0.2378790530535346,1.4499865933249347,0.22360107998752912,-0.3113034073807481,1.7203967790644794,0.7742834269915687,-0.0,0.0
0.10572645593629207,0.5282351362133668,0.8458839230414467,1.3183707694602078,0.01803719136054567,0.5859489896345127,0.5430618648695356,1.460281392573008,-0.047448569245839886,-0.0473459248248807,0.7873810326723181,0.2378790530535346,1.4557602579929534,0.22508267465191859,-0.3123918679180509,1.721563980452732,-0.7074549848197309,0.0,0.0
0.08295535687510656,0.5173471840095567,0.839232660326964,1.3170080971797675,-0.002179270430116207,0.5936109006228709,0.5570618125525468,1.4706926677572816,-0.047448569245839886,-0.0473459248248807,0.7873810326723181,0.2378790530535346,1.4468584906641702,0.22280369889042284,-0.3107360378207113,1.7199345297441266,0.7742424305162019,-0.0,-0.0
0.10176547346263738,0.5257105544396908,0.8454049521235146,1.3189181938847125,0.014454446738215717,0.586628862482866,0.5461608713096598,1.4631190431060526,-0.047448569245839886,-0.0473459248248807,0.7873810326723181,0.2378790530535346,1.4541640506049294,0.22468085189036233,-0.3121231511163175,1.721486974531827,-0.7075041503344258,-0.0,0.0
0.07837603547411597,0.5149575002528769,0.8387438927622453,1.3174989484875386,-0.005689917048403978,0.5944117125088388,0.559978000301256,1.473271567617415,-0.047448569245839886,-0.0473459248248807,0.7873810326723181,0.2378790530535346,1.4453033910824375,0.22241073658212293,-0.310469024422908,1.7198187213962428,0.7744031694604796,0.0,-0.0
0.09857365853994529,0.523808202455029,0.8455100638812425,1.319708029020173,0.012157299701756382,0.5867952803587984,0.5483972339503613,1.465332499684909,-0.047448569245839886,-0.0473459248248807,0.7873810326723181,0.2378790530535346,1.4531346621700991,0.22442434848798648,-0.31196112035841495,1.7215229902020286,-0.7077477422697322,0.0,-0.0
0.07519804788374251,0.5128722436095492,0.8384204382101521,1.318015285199191,-0.008570042996643903,0.5949012772767186,0.5625263906973715,1.4756303266306454,-0.047448569245839886,-0.0473459248248807,0.7873810326723181,0.2378790530535346,1.444025975966817,0.22208952060259846,-0.3102568237420209,1.7197774730347808,0.7742754553171236,0.0,0.0
0.09403805630224549,0.5210386480593229,0.8448261888169133,1.320183711458496,0.00806920294146921,0.5877051131849489,0.5518176144211074,1.4683722216469723,-0.047448569245839886,-0.0473459248248807,0.7873810326723181,0.2378790530535346,1.4513205300801932,0.22396621410609258,-0.31165056735934515,1.7213955553349254,-0.7070232665610627,0.0,0.0
0.07751507049051229,0.513419959247715,0.8396950376486717,1.3188508592256054,-0.006570629793899389,0.5935519356184654,0.5616872474279956,1.4754644948308957,-0.047448569245839886,-0.0473459248248807,0.7873810326723181,0.2378790530535346,1.4448940353573898,0.22231757161825577,-0.31044321106036765,1.72012576221008,0.7743800108535926,-0.0,0.0
0.09792600949287855,0.5223359498638267,0.8465621297181537,1.3211125951865885,0.011463275757265731,0.5858234682934,0.5500141412385328,1.4674975577504252,-0.047448569245839886,-0.0473459248248807,0.7873810326723181,0.2378790530535346,1.4527978144186602,0.22435042177191056,-0.3119502068486629,1.721855870908179,-0.7074175333955274,0.0,0.0
0.07604607794559043,0.5123962884219595,0.8402008282875643,1.3196445152861978,-0.007369096589332186,0.5932170818541754,0.5628266524624382,1.4768032902374033,-0.047448569245839886,-0.0473459248248807,0.7873810326723181,0.2378790530535346,1.4445318185275178,0.22223102284075597,-0.31040267631898755,1.720263302571763,0.7747161811933637,0.0,-0.0
0.09078714129340698,0.5186306892636604,0.8449832910263927,1.3212088796237975,0.005271426685377492,0.5877797166379893,0.5546629685973229,1.4712516179112065,-0.047448569245839886,-0.0473459248248807,0.7873810326723181,0.2378790530535346,1.4500680642746453,0.22365524836402573,-0.31145901005874055,1.7214815673304347,-0.7061674354367126,0.0,-0.0
0.06714269027102186,0.5078411985897242,0.8375193596269634,1.3191664703121362,-0.01566679861027826,0.596261132068043,0.5686710948021964,1.481213200584177,-0.047448569245839886,-0.0473459248248807,0.7873810326723181,0.2378790530535346,1.440888176124814,0.2212987990219145,-0.30972967654951633,1.7196303142120164,0.7753471640612777,-0.0,-0.0
0.08594104909590095,0.515766350682813,0.844145712574314,1.321599296722597,0.0009144735506045401,0.5888582820768232,0.5582157660441471,1.4743294354157135,-0.047448569245839886,-0.0473459248248807,0.7873810326723181,0.2378790530535346,1.4481419178711252,0.22316759940321884,-0.3111251972669438,1.7213142535413268,-0.6985883260236672,-0.0,0.0
0.06165355855704509,0.5051545773470043,0.8366300413411324,1.3194498280208793,-0.019947174817423866,0.5974909297969591,0.5720062259925989,1.4839833084926193,-0.047448569245839886,-0.0473459248248807,0.7873810326723181,0.2378790530535346,1.4390054150681557,0.22082030434405722,-0.30939659714147716,1.719413864716574,0.7727233465282363,0.0,0.0
0.08182094428769143,0.5135013247713113,0.8439029595883525,1.3222494229030943,-0.002173572603842329,0.5894073299811499,0.5609390957360185,1.476825976882342,-0.047448569245839886,-0.0473459248248807,0.7873810326723181,0.2378790530535346,1.4467736565347766,0.22282323654517824,-0.31089736742428925,1.7212656583914858,-0.6980804212039917,0.0,0.0
0.06687714578465395,0.5070564795705444,0.8391876235685541,1.3208240432548353,-0.015000593139761362,0.5947943857133599,0.5693458070390237,1.4826428053867506,-0.047448569245839886,-0.0473459248248807,0.7873810326723181,0.2378790530535346,1.441161361279725,0.2213804639378243,-0.3098323315422005,1.7200731156082292,0.783490857034048,0.0,0.0
0.08606717712663278,0.5151502255740464,0.8459501303468725,1.323298325103699,0.0019260313152895218,0.5872589324477863,0.5586509188141884,1.4755909675784835,-0.047448569245839886,-0.0473459248248807,0.7873810326723181,0.2378790530535346,1.44855866688844,0.22328629136219832,-0.3112542548446497,1.7217829842609373,-0.6599500425348909,0.0,0.0
0.06225952992432068,0.5044407792453502,0.8382678866488726,1.3210595481816831,-0.0191402111391525,0.595935774405789,0.572615282961839,1.485389434885385,-0.047448569245839886,-0.0473459248248807,0.7873810326723181,0.2378790530535346,1.4393415601003972,0.22091837579835422,-0.3095124255107221,1.7198793225715703,0.798265092206014,0.0,0.0
0.08074801243595142,0.512112311457877,0.8449151866234303,1.3235966806304864,-0.0028440923089427285,0.5885495462927195,0.5624425495595595,1.4787965480265166,-0.047448569245839886,-0.0473459248248807,0.7873810326723181,0.2378790530535346,1.44645671536915,0.22275291886438464,-0.3108856363060778,1.7215667881285863,-0.7103028608863022,-0.0,-0.0
0.057142357578582485,0.5016789929241745,0.8371010107850766,1.3211504026576784,-0.023713339085139222,0.597343223975078,0.5760946034830517,1.4882093699171193,-0.047448569245839886,-0.0473459248248807,0.7873810326723181,0.2378790530535346,1.4373356640556214,0.22040755620798372,-0.30915383990594336,1.7196198205475497,0.7698076030177766,-0.0,-0.0
0.07852914503682443,0.5101409466105002,0.8446539608926903,1.324128735635139,-0.005428463437622263,0.5888936346068269,0.5648340599639358,1.481053137116802,-0.047448569245839886,-0.0473459248248807,0.7873810326723181,0.2378790530535346,1.4453119969371697,0.22246584284465257,-0.31070012925982055,1.7215645650222433,-0.7171394150292664,-0.0,-0.0
0.05493878199745509,0.49980114851380725,0.836754373487561,1.3215807006850173,-0.026276444699639374,0.5977853715318259,0.5783739283291652,1.490294600116828,-0.047448569245839886,-0.0473459248248807,0.7873810326723181,0.2378790530535346,1.4362085446456196,0.22012376532267255,-0.3089673715915794,1.7195872435865658,0.7676782570950197,-0.0,-0.0
0.07427268199451258,0.5073812751266522,0.8436532189570094,1.3243554851299855,-0.00975286417396103,0.5900681062408025,0.5682754254586051,1.4839513087580545,-0.047448569245839886,-0.0473459248248807,0.7873810326723181,0.2378790530535346,1.4434106494150831,0.22198319137036426,-0.3103669562151013,1.7213699474700392,-0.7171590358133254,-0.0,-0.0
0.05046968457082837,0.49710564711322247,0.8355175993923247,1.321593457995171,-0.030773754429233895,0.5992124649256919,0.5817617449733156,1.4930032613434956,-0.047448569245839886,-0.0473459248248807,0.7873810326723181,0.2378790530535346,1.4342407140028117,0.21962209182823048,-0.30861416103860645,1.7193206951428495,0.7757958741678184,0.0,0.0
0.07245612239972483,0.5055751305516148,0.8435176221117212,1.3249311668196042,-0.011996842084528225,0.5902808769816907,0.5704414037033002,1.486036439920047,-0.047448569245839886,-0.0473459248248807,0.7873810326723181,0.2378790530535346,1.4424180442275747,0.2217349887833255,-0.3102101927186803,1.7213982312388996,-0.7093842657299213,-0.0,0.0
0.050439936804108694,0.4964023244059869,0.8362324124412556,1.3224479908376021,-0.030865055081714582,0.5985720407105664,0.5824696162400145,1.494034765897175,-0.047448569245839886,-0.0473459248248807,0.7873810326723181,0.2378790530535346,1.434194371281003,0.21961654997880553,-0.30863493424052835,1.7195337588087691,0.7737832592206995,-0.0,0.0
0.06537299659996025,0.5021535422912469,0.8416669405873343,1.3247138521189625,-0.018112215140746055,0.5925038248793959,0.5747824103264774,1.489309047327955,-0.047448569245839886,-0.0473459248248807,0.7873810326723181,0.2378790530535346,1.4397447261448015,0.22105080556615364,-0.30971819148747864,1.7209444321743244,-0.7079149238132,-0.0,-0.0
0.04388980569479052,0.4934209071923376,0.8343282107225991,1.3220229018082907,-0.03650205261464946,0.6008033441430755,0.5863000848890224,1.4967822441448677,-0.047448569245839886,-0.0473459248248807,0.7873810326723181,0.2378790530535346,1.4317366374385576,0.21898568846346683,-0.3081749927621777,1.7190578168866828,0.772712543137237,0.0,-0.0
0.05838422014649286,0.4990324531257918,0.8399535740876747,1.324496836385904,-0.023763724631577887,0.5946052639996319,0.5787542962994208,1.492264407969087,-0.047448569245839886,-0.0473459248248807,0.7873810326723181,0.2378790530535346,1.4372770106501487,0.22041871917517597,-0.30926227560485836,1.7205114195129372,-0.7071394553509476,-0.0,0.0
0.03455679166323246,0.4893009618459381,0.8312293944034811,1.321056063172069,-0.04475151686290106,0.6043062002067242,0.591681731389682,1.5004553004399288,-0.047448569245839886,-0.0473459248248807,0.7873810326723181,0.2378790530535346,1.4281447304545778,0.2180613920975339,-0.3074926797134956,1.7182850648320123,0.7732126498733212,-0.0,0.0
0.05308857055872965,0.49622017233321947,0.8386823756240648,1.3245309762764985,-0.028487764575853124,0.5961390357152394,0.5822967805215868,1.4950626746519957,-0.047448569245839886,-0.0473459248248807,0.7873810326723181,0.2378790530535346,1.4352130891189436,0.2198921012752331,-0.3088910790484754,1.7202246242144719,-0.7055460326083168,0.0,-0.0
0.03370129650531184,0.4883995564662489,0.8313609474457613,1.321514277377825,-0.04500890260665791,0.6039251763048906,0.5923299527329177,1.5012874941966714,-0.047448569245839886,-0.0473459248248807,0.7873810326723181,0.2378790530535346,1.4280305427441629,0.21803650867400678,-0.3074929258889173,1.7184244046234063,0.773725687961592,0.0,-0.0
0.0531506154239022,0.49568726140312536,0.8392769522096464,1.3252264097840634,-0.02848316570350607,0.5956187821253072,0.582800654304289,1.4958220100974458,-0.047448569245839886,-0.0473459248248807,0.7873810326723181,0.2378790530535346,1.4352093506949273,0.2198960000803025,-0.3089133721390337,1.7203967056224083,-0.7064651260024075,-0.0,0.0
0.03233242366224892,0.487346298776253,0.8314878719569356,1.3220273170311692,-0.04680440085470297,0.6042531864879084,0.5939279069442037,1.502721954062651,-0.047448569245839886,-0.0473459248248807,0.7873810326723181,0.2378790530535346,1.4272480191002737,0.21783909271146082,-0.3073637834304646,1.7184015355181583,0.7736164810960175,0.0,-0.0
0.05291523678954133,0.4949629590656505,0.8398343148499177,1.3259647038400562,-0.02874746143742859,0.5951166117079605,0.5835748942202174,1.496842430015624,-0.047448569245839886,-0.0473459248248807,0.7873810326723181,0.2378790530535346,1.435087545856993,0.21987041158791676,-0.3089175238083028,1.720575634317388,-0.7076511555224121,0.0,-0.0
0.02901106243912183,0.4856725383853065,0.8312234671940706,1.3224563131212983,-0.04916832662816854,0.604750924475927,0.5959683977772263,1.50451351590624,-0.047448569245839886,-0.0473459248248807,0.7873810326723181,0.2378790530535346,1.4262190865932725,0.21757887927183997,-0.3071911307918251,1.7183499774598885,0.7744548068705676,-0.0,0.0
0.04835864891125151,0.4927968812922501,0.8392262763290086,1.3262968594324436,-0.03274094001472179,0.5963665794528571,0.5866207444228668,1.4992746274207616,-0.047448569245839886,-0.0473459248248807,0.7873810326723181,0.2378790530535346,1.4333462456477617,0.21942641876892077,-0.3086067660635287,1.7203508012623903,-0.7079830350596723,-0.0,-0.0
0.03151966934703308,0.4863560610376086,0.8330517774346825,1.3236997668362367,-0.04711544289873256,0.6032575935672156,0.5952396695354049,1.5045112865669714,-0.047448569245839886,-0.0473459248248807,0.7873810326723181,0.2378790530535346,1.4271084626562733,0.21781349009391082,-0.3073878318061924,1.7187493080755596,0.7741015138245882,0.0,0.0
0.052295129716566906,0.4940908767057439,0.841560732381897,1.32771745490252,-0.028881882157376804,0.5942948704184696,0.5851616171665561,1.4988265175017454,-0.047448569245839886,-0.0473459248248807,0.7873810326723181,0.2378790530535346,1.4347611168919223,0.21979672775989162,-0.30890459009306337,1.7208743843864476,-0.7072804725107438,0.0,-0.0
0.02938576794587526,0.48486039685367294,0.8328957382747261,1.3241524505468798,-0.049050968919302274,0.6032144916267006,0.5965129156161955,1.5057994463153797,-0.047448569245839886,-0.0473459248248807,0.7873810326723181,0.2378790530535346,1.4262941434280696,0.21760840514087978,-0.30725554214547146,1.7187410385435171,0.773915419431625,-0.0,0.0
0.043668373486214176,0.4905009948107031,0.8392707658824677,1.327218666612154,-0.03617760042357354,0.5970649920791794,0.5897237686407241,1.502023072850931,-0.047448569245839886,-0.0473459248248807,0.7873810326723181,0.2378790530535346,1.4316936753177387,0.2190082268880335,-0.3083275492396586,1.7202549496797925,-0.7079203550470545,-0.0,-0.0
0.01870472003940102,0.4800855949963548,0.8286874344473626,1.3225419979708062,-0.058726092907745706,0.6073275538707744,0.6021274137008618,1.5093871464509623,-0.047448569245839886,-0.0473459248248807,0.7873810326723181,0.2378790530535346,1.4222348416644819,0.21656069251955193,-0.3064726433284859,1.717774862443631,0.7741465246542879,0.0,-0.0
0.03640289058832123,0.48677774797255396,0.8368816288209575,1.326701568779838,-0.04279976125553848,0.5994524942115179,0.5940010741197597,1.5051134213912343,-0.047448569245839886,-0.0473459248248807,0.7873810326723181,0.2378790530535346,1.4289111030484658,0.21829404020889195,-0.3078102774095791,1.7197379730130897,-0.7069681824342994,-0.0,-0.0
0.01198431435820995,0.4768673505503694,0.8262504534237389,1.3217922016359163,-0.06483028497341072,0.6097352673086206,0.6058648930508854,1.5119264361604574,-0.047448569245839886,-0.0473459248248807,0.7873810326723181,0.2378790530535346,1.4196768635415882,0.21590207153159344,-0.3059882041734646,1.7172309838101787,0.773877381184229,0.0,-0.0
0.031533308499587985,0.4840518974183778,0.8355050943033864,1.3266358842901007,-0.047256357927144124,0.6008611075542802,0.5970881775746856,1.5074874289681788,-0.047448569245839886,-0.0473459248248807,0.7873810326723181,0.2378790530535346,1.4270398833251732,0.21781550643311082,-0.3074718441530155,1.7194594345039353,-0.7068345838492873,0.0,-0.0
0.0072251734101497975,0.47437216508946034,0.8247367335518813,1.3215267999806655,-0.06916975734893424,0.6112594608587654,0.6087183924680919,1.514008286181888,-0.047448569245839886,-0.0473459248248807,0.7873810326723181,0.2378790530535346,1.4178613342127537,0.2154362180981219,-0.30565333949489165,1.7169103160524029,0.7737385811068521,-0.0,-0.0
0.024873648071920912,0.4807253517076628,0.8332210163768394,1.3260576182483197,-0.05331607938612712,0.6031365574118109,0.6009226257650635,1.5101813300585512,-0.047448569245839886,-0.0473459248248807,0.7873810326723181,0.2378790530535346,1.4244999517594399,0.2171625719961017,-0.3069963385157052,1.7189600240737921,-0.707211399624406,-0.0,0.0
0.0005111751918146501,0.47127855517901607,0.822175917450816,1.3206310587977947,-0.07525545543999189,0.6137778203312794,0.6123331215261703,1.5163649575904423,-0.047448569245839886,-0.0473459248248807,0.7873810326723181,0.2378790530535346,1.4153163963377207,0.2147797198917185,-0.30516658166565586,1.7163313697561395,0.7739192942345522,0.0,-0.0
0.020115911030661564,0.4781273253391038,0.8318030600641602,1.3259142271036692,-0.057662023470472265,0.604581267903734,0.6038731445847285,1.5123923602289737,-0.047448569245839886,-0.0473459248248807,0.7873810326723181,0.2378790530535346,1.4226804577956838,0.21669645584900357,-0.306664799247274,1.718668404858347,-0.7064501813299159,0.0,-0.0
-0.0018755320623063745,0.4697645708261427,0.8216707440569584,1.320819791767475,-0.07745096115250703,0.6143277212162935,0.6140143038274601,1.517746516845608,-0.047448569245839886,-0.0473459248248807,0.7873810326723181,0.2378790530535346,1.4144023058844581,0.21454702990243765,-0.30500887955583866,1.716248536478506,0.7736306770446449,0.0,-0.0
0.012052429960066167,0.47457749268718225,0.8285607324398744,1.3246344120324998,-0.06495689309753205,0.6077506526244193,0.6080546451047383,1.5149961547417377,-0.047448569245839886,-0.0473459248248807,0.7873810326723181,0.2378790530535346,1.4196293903550232,0.215908039223892,-0.306074379388127,1.7179233563100451,-0.7086315800218023,0.0,-0.0
-0.012330805576979931,0.4656145365314334,0.8170226484027521,1.3186123925101614,-0.08687162671103649,0.6188186657362008,0.619001584177157,1.5205155402578616,-0.047448569245839886,-0.0473459248248807,0.7873810326723181,0.2378790530535346,1.41046530120076,0.21352600332278382,-0.30422866643947133,1.7151502020895555,0.774285324096703,0.0,0.0
0.0053046637033639255,0.4714148947483228,0.8260293547829806,1.3237968693219544,-0.07107491083166434,0.6102512333514332,0.6117358492703812,1.5174163460377157,-0.047448569245839886,-0.0473459248248807,0.7873810326723181,0.2378790530535346,1.417073550058391,0.2152489063354503,-0.3055877568860129,1.717356149105831,-0.7075473520427332,-0.0,0.0
-0.019136076284625395,0.46269120788923107,0.8142105407050135,1.3174485322699714,-0.09301882165648301,0.6215629728612424,0.6224587267695527,1.5225990487435355,-0.047448569245839886,-0.0473459248248807,0.7873810326723181,0.2378790530535346,1.4079014124315197,0.21286259426121362,-0.303729918815527,1.7145014936367364,0.7738408285936129,-0.0,0.0
0.0003916084776612143,0.4689014422519797,0.8243860759503503,1.3234435458008538,-0.07554417421116308,0.6119053060518553,0.6146159656188104,1.5194433464476764,-0.047448569245839886,-0.0473459248248807,0.7873810326723181,0.2378790530535346,1.4152099366543172,0.21476973103131608,-0.30524167541745034,1.7170050055965704,-0.7073986097708522,-0.0,-0.0
-0.02450152436811538,0.46054544685835186,0.8126344548867309,1.3170071232186085,-0.09793578465296239,0.6236173757088174,0.6253798723616611,1.5244752678346922,-0.047448569245839886,-0.0473459248248807,0.7873810326723181,0.2378790530535346,1.4058552893756207,0.21233427605130284,-0.3033391326553337,1.7140348404809338,0.7734927550160098,0.0,-0.0
-0.00674671938907264,0.46605070449215286,0.8220226923418824,1.322626539268183,-0.08206001475279516,0.6147133622046856,0.6183961866874773,1.521806219475087,-0.047448569245839886,-0.0473459248248807,0.7873810326723181,0.2378790530535346,1.4124930334747499,0.21406759400966957,-0.30471836447448947,1.716354787390661,-0.7071526919585257,0.0,-0.0
-0.031181112417661878,0.4577805281530247,0.8097680231936918,1.3157401282272618,-0.10395831829503331,0.6264084566267113,0.6286672180137846,1.5263641428132986,-0.047448569245839886,-0.0473459248248807,0.7873810326723181,0.2378790530535346,1.4033476134489384,0.21168435969489727,-0.3028470970153047,1.713366876967959,0.7734053162988173,0.0,0.0
-0.010676807788488212,0.4639181749241901,0.82081777713891,1.3224929497367925,-0.08564113156410509,0.6159517275493,0.6208114421377895,1.5235633526957892,-0.047448569245839886,-0.0473459248248807,0.7873810326723181,0.2378790530535346,1.4110052029142948,0.2136856459292436,-0.3044472135752095,1.716108947052043,-0.7069501360354917,-0.0,-0.0
-0.03273347757751014,0.4571204025325142,0.8103926257106947,1.3165426851628625,-0.10487009716079435,0.626680546443874,0.6301231353889454,1.5276281530002327,-0.047448569245839886,-0.0473459248248807,0.7873810326723181,0.2378790530535346,1.402978422357764,0.21159277850394145,-0.3027995533348449,1.7134462679227072,0.7742150837498081,0.0,-0.0
-0.018109330754644676,0.46110415438202673,0.8177233173609765,1.3210523941001522,-0.09216273929290023,0.6189532127948815,0.6241896042599727,1.5254460962908671,-0.047448569245839886,-0.0473459248248807,0.7873810326723181,0.2378790530535346,1.4084651398653165,0.2130269617117113,-0.303946806466178,1.7154175909813734,-0.7062824936958076,0.0,-0.0
-0.039475712430663085,0.45475936306811215,0.8073917463911576,1.3149980876610077,-0.11077145952897921,0.6295406323010315,0.6329808758159544,1.5290721461451888,-0.047448569245839886,-0.0473459248248807,0.7873810326723181,0.2378790530535346,1.4006974316076028,0.21099992802427145,-0.3023431982035277,1.712773622149536,0.7738444752012948,0.0,0.0
-0.024115202009132933,0.45863304488731277,0.8150042666283491,1.3197875230327403,-0.09739392341385149,0.6214979378555506,0.6271343871388919,1.527112844499427,-0.047448569245839886,-0.0473459248248807,0.7873810326723181,0.2378790530535346,1.4062880469409118,0.21246233117928826,-0.3035182342824255,1.714826097161924,-0.7037274493544455,0.0,0.0
-0.047717382894672554,0.4518466352432289,0.8033796918156588,1.312832635009601,-0.11727116085441174,0.6333141451686319,0.636712011709448,1.5309273462525952,-0.047448569245839886,-0.0473459248248807,0.7873810326723181,0.2378790530535346,1.3977149831860192,0.2102235228373152,-0.30173969286813457,1.7118442963457776,0.7742090656958235,-0.0,0.0
-0.02631108233328562,0.45722965529895626,0.8146618338864994,1.3200820503715185,-0.09929080830750406,0.6219877073903948,0.6287501419779684,1.5284337763900184,-0.047448569245839886,-0.0473459248248807,0.7873810326723181,0.2378790530535346,1.4054802135145252,0.21225664929681162,-0.3033829321144071,1.714775021292948,-0.7019027019604737,0.0,0.0
-0.04699794378090897,0.451349622001951,0.804408706190663,1.3139079121970334,-0.11670642567503188,0.6323985619093594,0.6370800962044819,1.5316860794689704,-0.047448569245839886,-0.0473459248248807,0.7873810326723181,0.2378790530535346,1.39797245539924,0.2102954235516805,-0.30182281027143903,1.7121434327483374,0.7768604289990225,0.0,-0.0
-0.030428424169878673,0.4551828680394583,0.8125569751801386,1.3191593848913907,-0.10315005444726144,0.6238738455516142,0.6310596956330926,1.5297858032874816,-0.047448569245839886,-0.0473459248248807,0.7873810326723181,0.2378790530535346,1.40382364869768,0.21182738098980491,-0.30306001933566684,1.7143461221060503,-0.7088565189888378,-0.0,-0.0
-0.05462987112934216,0.44900144597913155,0.8012211314950023,1.3122059484364894,-0.12298379132587745,0.6358662182242509,0.640399092862765,1.533284116881043,-0.047448569245839886,-0.0473459248248807,0.7873810326723181,0.2378790530535346,1.395274564279095,0.20959290739920933,-0.30127693563973995,1.7113011623027126,0.7739549179073951,-0.0,0.0
-0.034115133517739885,0.4535192646166695,0.8115280392606421,1.3189842823002107,-0.1062134326442733,0.6248029631161782,0.6328007811181746,1.5310283796294621,-0.047448569245839886,-0.0473459248248807,0.7873810326723181,0.2378790530535346,1.402514176210565,0.2114899537335056,-0.30281716325692076,1.7140940312449808,-0.7020982742816583,-0.0,-0.0
-0.05763910517743007,0.44763493237348506,0.8003901541783612,1.3120783215600242,-0.12548232380451024,0.6369170341807298,0.6421923566645249,1.5345129952829941,-0.047448569245839886,-0.0473459248248807,0.7873810326723181,0.2378790530535346,1.3942113792497586,0.2093188623527759,-0.3010805300543445,1.7110998597535154,0.7720139093012891,-0.0,0.0
-0.034888991344614484,0.45254621624620206,0.8119134551002816,1.3197117538677225,-0.10689138870626842,0.6245695724300481,0.6338616211266414,1.5321408437700406,-0.047448569245839886,-0.0473459248248807,0.7873810326723181,0.2378790530535346,1.4022345441607,0.21142198772913567,-0.3027913754497927,1.7142241588625913,-0.7043547324833848,-0.0,0.0
-0.05854413260193032,0.44665424124677017,0.8006905440934671,1.3127418682017293,-0.1262642269502945,0.636771563841892,0.643280785021078,1.5356066582124963,-0.047448569245839886,-0.0473459248248807,0.7873810326723181,0.2378790530535346,1.3938917736338183,0.20924011848435797,-0.30104562683509506,1.7112081563073511,0.7766175655685845,0.0,0.0
-0.03797789374692859,0.4510686279282177,0.8111304846878934,1.3196687989590974,-0.10946097311853795,0.6255894924474924,0.6357746584902779,1.5334989148435454,-0.047448569245839886,-0.0473459248248807,0.7873810326723181,0.2378790530535346,1.4011394880430292,0.21114026822575438,-0.30259191818223896,1.714037970173032,-0.6999805582999302,0.0,0.0
-0.0618995295073924,0.4452158026724884,0.7996801740577923,1.3124960105338292,-0.12904394226636562,0.6380152111864326,0.6451975658180392,1.536862386513755,-0.047448569245839886,-0.0473459248248807,0.7873810326723181,0.2378790530535346,1.3927092730991717,0.20893467854942163,-0.3008237335433745,1.7109590415590759,0.7795574330687494,0.0,0.0
-0.03902382888286493,0.4500148791839922,0.8113970784337107,1.3203320965289351,-0.11036112336056796,0.6254895530423275,0.6369557498320009,1.5346620702264862,-0.047448569245839886,-0.0473459248248807,0.7873810326723181,0.2378790530535346,1.4007656051524566,0.21104765378532164,-0.30254696512093615,1.7141372329626778,-0.6977704419199955,-0.0,-0.0
-0.06245199584363974,0.4443168144852805,0.8001516217515504,1.3132711314053394,-0.1295360657496687,0.6376863666550172,0.6461509643166942,1.537906714745145,-0.047448569245839886,-0.0473459248248807,0.7873810326723181,0.2378790530535346,1.3925157206243763,0.20888886148494282,-0.3008154882284876,1.7111141523958664,0.7648739013349283,0.0,-0.0
-0.04171315508197479,0.44865277706746437,0.810786553407177,1.3203883657432929,-0.11260100243433412,0.6263194757922473,0.6386937146067873,1.5359351132319552,-0.047448569245839886,-0.0473459248248807,0.7873810326723181,0.2378790530535346,1.399814220051414,0.2108033018084682,-0.30237696626657706,1.713997710258122,-0.7031451429255665,0.0,-0.0
-0.0653665910671408,0.44299059474880154,0.7993467156692853,1.3131533627515877,-0.13195319434698866,0.6387071669359872,0.6478894021408976,1.539089495205827,-0.047448569245839886,-0.0473459248248807,0.7873810326723181,0.2378790530535346,1.3914911871066873,0.20862462847588917,-0.3006266227862142,1.7109210096738303,0.7698148846690546,-0.0,-0.0
-0.042425804008012866,0.44769046868591,0.8112012113195888,1.3211396267427762,-0.11322657225613215,0.6260575186832645,0.6397335257904064,1.5370337584162541,-0.047448569245839886,-0.0473459248248807,0.7873810326723181,0.2378790530535346,1.3995594934246491,0.21074172198932153,-0.30235659781450014,1.71413700187357,-0.7038289264223552,0.0,-0.0
-0.06383626232379441,0.4425859305205267,0.8008276731126356,1.3145704087247305,-0.13074055883086005,0.6372869406673134,0.6480368233118687,1.5398574376035374,-0.047448569245839886,-0.0473459248248807,0.7873810326723181,0.2378790530535346,1.392031418499716,0.2087708644014212,-0.30077285227818856,1.7113481237987216,0.7717070515755988,0.0,-0.0
-0.04136655400746438,0.44744295338581347,0.8127219984857286,1.3225235944122071,-0.11186129132423955,0.6245782033263384,0.6397629738329363,1.5377218680144582,-0.047448569245839886,-0.0473459248248807,0.7873810326723181,0.2378790530535346,1.4001595677752083,0.21090346420835462,-0.3025130610994808,1.7145719796568515,-0.7058403392376161,0.0,-0.0
-0.06512604969826348,0.44173178530204493,0.8012539264281461,1.315294557754927,-0.131299671335247,0.6369909416467188,0.6490356728353183,1.5409276454056866,-0.047448569245839886,-0.0473459248248807,0.7873810326723181,0.2378790530535346,1.3918102750737444,0.20871786611363705,-0.30075935329025344,1.711496822414604,0.773899126702737,-0.0,-0.0
-0.04202964678032384,0.4464852131693981,0.8131676715779516,1.3232988157236625,-0.11244652232830715,0.6242831947551158,0.6407908178598695,1.5388238075812894,-0.047448569245839886,-0.0473459248248807,0.7873810326723181,0.2378790530535346,1.399922496020702,0.2108465558969036,-0.30249663707340835,1.7147199386568535,-0.7083427567027958,0.0,-0.0
-0.06367283689330577,0.44130211116795653,0.8027039160884064,1.3166951763745294,-0.13015043563483977,0.6356055963199603,0.6492185424217513,1.5417141195485928,-0.047448569245839886,-0.0473459248248807,0.7873810326723181,0.2378790530535346,1.3923227124251052,0.20885688741820274,-0.3008998400615534,1.7119152082626148,0.7738817588512981,0.0,-0.0
-0.04056960146259156,0.4461084481125225,0.8145702921422282,1.3246331919313747,-0.11129120551865442,0.6229355167724493,0.6409221389574473,1.5395500457740756,-0.047448569245839886,-0.0473459248248807,0.7873810326723181,0.2378790530535346,1.4004316276126425,0.21098453194974137,-0.3026339413928242,1.7151218523714586,-0.7067153005249496,0.0,-0.0
-0.06443671698809096,0.44034126716579663,0.8030826613771379,1.3174193737166875,-0.13081526859428252,0.6353788012289415,0.6502652254496744,1.5427982401075022,-0.047448569245839886,-0.0473459248248807,0.7873810326723181,0.2378790530535346,1.3920563464007911,0.20879203037995075,-0.3008766389256926,1.7120462826349132,0.7773604876250605,0.0,-0.0
-0.0434983744662948,0.4446758794020685,0.8138557245568674,1.3246344611499419,-0.1137261888365933,0.6238796671284861,0.6427671129181299,1.5408682731993235,-0.047448569245839886,-0.0473459248248807,0.7873810326723181,0.2378790530535346,1.3993999830470507,0.21071914679685916,-0.3024476890633029,1.7149565071766906,-0.7114789978284142,0.0,-0.0
-0.06737674878263684,0.4390052859412875,0.8022683397954021,1.3173008476886487,-0.1332518232845143,0.6364092242190581,0.6520184425227369,1.5439857262093186,-0.047448569245839886,-0.0473459248248807,0.7873810326723181,0.2378790530535346,1.391027106457759,0.2085264785496213,-0.3006870519800258,1.711852546653452,0.7774441011746497,0.0,-0.0
-0.04406129972453816,0.4437335593530403,0.8143564633308876,1.3254505293876317,-0.1142292484781912,0.6235274109451912,0.643764042299863,1.5419640303379132,-0.047448569245839886,-0.0473459248248807,0.7873810326723181,0.2378790530535346,1.3991992714183545,0.21067175596512816,-0.3024392022192128,1.7151198820974285,-0.7154184932430465,-0.0,0.0
-0.06804151986321065,0.43805668501513007,0.8027041619596453,1.3180696114695765,-0.13383493457471507,0.6361243182577039,0.6530372072660765,1.5450662675754727,-0.047448569245839886,-0.0473459248248807,0.7873810326723181,0.2378790530535346,1.3907971771596426,0.20847116123616335,-0.30067200454954585,1.7119999343085504,0.7772585034103653,-0.0,0.0
-0.047130292878450775,0.44227921653069185,0.8135612768115231,1.3253958133762225,-0.11677674448910394,0.6245571935660307,0.6456517953270196,1.5432802884984238,-0.047448569245839886,-0.0473459248248807,0.7873810326723181,0.2378790530535346,1.398121170923982,0.21039403270053747,-0.30224276544270584,1.7149334125232136,-0.7086572258125896,-0.0,0.0
-0.0707649001473345,0.43678718604637445,0.8019792995836243,1.3180003755678815,-0.1360921215308566,0.6370555123250461,0.6546916237104853,1.546201494652982,-0.047448569245839886,-0.0473459248248807,0.7873810326723181,0.2378790530535346,1.3898463515632382,0.2082259625779577,-0.3004983481737563,1.7118304353951423,0.7688883847571725,-0.0,-0.0
-0.04736428741661895,0.4414210090243557,0.8142139342789319,1.3263055190570447,-0.11700941107434551,0.6240401543822097,0.6465151461322014,1.5443208821153351,-0.047448569245839886,-0.0473459248248807,0.7873810326723181,0.2378790530535346,1.3980372054885053,0.21037710912964214,-0.3022585722492889,1.7151377458303418,-0.7190134494080466,0.0,0.0
-0.06900856113088145,0.4363973189258729,0.8036033285555165,1.319531066117849,-0.13469583475590954,0.6354900290039903,0.6547877744358407,1.5469836791213047,-0.047448569245839886,-0.0473459248248807,0.7873810326723181,0.2378790530535346,1.3904649908973998,0.20839294919322787,-0.30066232691557737,1.7122966504289157,0.7806566282241326,0.0,-0.0
-0.05248808863776154,0.4397129771096866,0.8121974250098815,1.3253361139814634,-0.12122317262130285,0.6263367449974105,0.648973045535987,1.5456044234619766,-0.047448569245839886,-0.0473459248248807,0.7873810326723181,0.2378790530535346,1.3962433459428418,0.20991033870221762,-0.30190201642527736,1.7146168629028429,-0.7117835358080269,0.0,-0.0
-0.07715925796516664,0.434167826395074,0.799930355147849,1.3173965571625144,-0.14137165053473624,0.639533401487638,0.6582277723081772,1.5484062750620062,-0.047448569245839886,-0.0473459248248807,0.7873810326723181,0.2378790530535346,1.3876170006064679,0.20764869779540812,-0.30007625424963397,1.711327041752716,0.7763670294389415,0.0,-0.0
-0.05573325501368151,0.4382129598762573,0.8113166825491523,1.3252341355791364,-0.12391141919874564,0.627462948417237,0.6509316338376085,1.5469362265483269,-0.047448569245839886,-0.0473459248248807,0.7873810326723181,0.2378790530535346,1.3951085192325658,0.20961758535213512,-0.3016939966195729,1.7144094327543409,-0.704886951572934,0.0,-0.0
-0.07903886440342237,0.43308234160417597,0.7996273582862299,1.3176078644008973,-0.14293684966465425,0.6400147218798006,0.6595701012944596,1.5494421745847933,-0.047448569245839886,-0.0473459248248807,0.7873810326723181,0.2378790530535346,1.3869656873063352,0.20748188807245002,-0.29996640575966776,1.7112725440702965,0.7788841720126047,0.0,-0.0
-0.0554257709205456,0.43747739729334634,0.8122335353597834,1.326317227982157,-0.12434039093235907,0.6267399690841633,0.6514815303362534,1.5477743941120365,-0.047448569245839886,-0.0473459248248807,0.7873810326723181,0.2378790530535346,1.3952168608373512,0.20965092834665877,-0.3017505329053052,1.7146857167482032,-0.7011555887914549,0.0,0.0
-0.07874687861138767,0.4323311904868597,0.8005499741855707,1.3187066690621632,-0.1427390997881641,0.6392324317750021,0.6602140315452538,1.5503865001508694,-0.047448569245839886,-0.0473459248248807,0.7873810326723181,0.2378790530535346,1.3870747770825362,0.20751535594907183,-0.30002393921813686,1.7115528561540585,0.7801120627808958,-0.0,0.0
-0.05739586679385275,0.43631698322760704,0.8119353897315602,1.3265616101198667,-0.12592614735406504,0.6272395099036051,0.6528899171044761,1.548868815487843,-0.047448569245839886,-0.0473459248248807,0.7873810326723181,0.2378790530535346,1.3945297868164706,0.20947516982640219,-0.30163509697245233,1.7146331721749852,-0.6931427572835085,-0.0,0.0
-0.0807490802108467,0.43122850967661047,0.8001755202204102,1.3188665313449177,-0.14434476821056602,0.639798361121106,0.6615740491366431,1.5514012533179304,-0.047448569245839886,-0.0473459248248807,0.7873810326723181,0.2378790530535346,1.3863820695736746,0.20733758026876978,-0.2999049132958559,1.7114792874411984,0.7799260089072608,-0.0,0.0
-0.057582440070970936,0.4354873226389168,0.8125893848873792,1.3274648515507879,-0.12547798818545136,0.6270507952047726,0.654188592633497,1.550153376990383,-0.047448569245839886,-0.0473459248248807,0.7873810326723181,0.2378790530535346,1.3944661711340958,0.20946328768878336,-0.30165449580910064,1.714838571709339,-0.6686778543011574,-0.0,0.0
-0.07838567226652488,0.43095845686243484,0.80211147431168,1.3206103007481835,-0.14188553758977013,0.6382428895907623,0.6619226152570084,1.5523986654523751,-0.047448569245839886,-0.0473459248248807,0.7873810326723181,0.2378790530535346,1.3872135156683112,0.2075603680742982,-0.3001145069921598,1.7120301401734266,0.7732296900200413,-0.0,0.0
-0.061800631583001225,0.43388073004624417,0.8106199381984479,1.3264945791302911,-0.1287936328313601,0.6289129157308726,0.6562068077615726,1.551209247753995,-0.047448569245839886,-0.0473459248248807,0.7873810326723181,0.2378790530535346,1.3930109239574646,0.20908453753821638,-0.3013664611157863,1.7144218181171773,-0.6763958346982876,0.0,0.0
-0.08545780959301127,0.4291553400504838,0.7990164145172788,1.31878694767258,-0.14749073956975942,0.6417812110738593,0.6648921955744181,1.5535939483563062,-0.047448569245839886,-0.0473459248248807,0.7873810326723181,0.2378790530535346,1.3847464134598182,0.206915158087689,-0.2996059344642203,1.7111801385038299,0.7762258498667925,0.0,0.0
-0.06436111255296255,0.4326605739408651,0.8100396133930888,1.3265288702429363,-0.1308466139402707,0.6297487951824017,0.6578239123560506,1.5523431956017044,-0.047448569245839886,-0.0473459248248807,0.7873810326723181,0.2378790530535346,1.3921192180775082,0.20885486846409224,-0.30120710803140993,1.7142852195487428,-0.6707641201529841,0.0,0.0
-0.08863208907556151,0.4278981400461095,0.7980547119027587,1.3185215621054283,-0.15002285922297667,0.6430181501675932,0.6666525368811896,1.55467845731633,-0.047448569245839886,-0.0473459248248807,0.7873810326723181,0.2378790530535346,1.3836456931410037,0.20662994366399684,-0.29939869461693247,1.710935866271468,0.788605024436938,0.0,0.0
-0.06561640651330447,0.43161982610398747,0.8101757380634518,1.3270883642693987,-0.1318703373631404,0.6298130053929769,0.6590392081956705,1.5534426162468984,-0.047448569245839886,-0.0473459248248807,0.7873810326723181,0.2378790530535346,1.3916850016557547,0.20874573757326795,-0.3011487621219818,1.714352164700202,-0.6616197167043066,-0.0,-0.0
-0.0864921665177026,0.42755860834394255,0.7998355490264303,1.3201633297962316,-0.14836044553118038,0.6412530091372592,0.6665990866900489,1.5554032410352345,-0.047448569245839886,-0.0473459248248807,0.7873810326723181,0.2378790530535346,1.3844021332720553,0.20683309522428384,-0.299593262021998,1.711463040585314,0.7604134369475631,-0.0,-0.0
-0.06950854614941376,0.4303591234859846,0.8087270681578783,1.326414388335445,-0.13496506911049544,0.6315514163977443,0.6609296289838138,1.5544283813902215,-0.047448569245839886,-0.0473459248248807,0.7873810326723181,0.2378790530535346,1.3903299137421132,0.20839295185015536,-0.3008810723300483,1.7139657673450401,-0.6926276970821936,-0.0,-0.0
-0.09290425542165065,0.42593467702043825,0.797018461033557,1.3185012585144897,-0.1534387812424689,0.6444722473699928,0.6692804478427085,1.5564649857892652,-0.047448569245839886,-0.0473459248248807,0.7873810326723181,0.2378790530535346,1.382171201812713,0.20624940697077143,-0.2991332608812339,1.7106910428539737,0.7663047583349497,-0.0,0.0
-0.07107782621736272,0.42933432055663145,0.8086326456780691,1.3267761767210564,-0.13623194243381978,0.6318512059048661,0.6621846328407722,1.5554569614894944,-0.047448569245839886,-0.0473459248248807,0.7873810326723181,0.2378790530535346,1.3897879514009162,0.2082549602443984,-0.30079646586050884,1.7139662979976416,-0.697921449103948,0.0,0.0
-0.08776474977410095,0.42621408570663716,0.8002489214768393,1.3210923845756577,-0.14940523739850226,0.6410942279059956,0.6681067207594795,1.5568625069157156,-0.047448569245839886,-0.0473459248248807,0.7873810326723181,0.2378790530535346,1.3839725381181023,0.206726757089299,-0.29954935296186846,1.7116215670596742,0.7743278217600105,0.0,-0.0
-0.06544102002403937,0.429858462325948,0.8119679878461457,1.3293459851455516,-0.1318024609166221,0.6283154106559968,0.6606900753028169,1.5556320309080078,-0.047448569245839886,-0.0473459248248807,0.7873810326723181,0.2378790530535346,1.3917564223335177,0.20877544874856305,-0.301241502037177,1.7149187185063768,-0.7065989400541233,0.0,0.0
-0.0821483093946259,0.42660064499252304,0.8037028641390349,1.3238222566188151,-0.14499637165848994,0.6374633133631841,0.6667472140449534,1.5572026221389759,-0.047448569245839886,-0.0473459248248807,0.7873810326723181,0.2378790530535346,1.3859376897871223,0.20724713014950563,-0.29999960706545903,1.7126129992103214,0.7756744095065101,0.0,-0.0
-0.05754713330350302,0.4308166885854241,0.8164263802320478,1.3326676988153945,-0.1255924999478899,0.6235367792901589,0.6583834875136164,1.5556067452723488,-0.047448569245839886,-0.0473459248248807,0.7873810326723181,0.2378790530535346,1.3945087087458528,0.20950192780290516,-0.3018539103212224,1.7161837467601453,-0.7081215032683238,-0.0,-0.0
-0.07895600744514197,0.4264042352531411,0.8060647757050716,1.325885179613466,-0.14250855209375288,0.635068536281873,0.6663727770357335,1.5579125791599684,-0.047448569245839886,-0.0473459248248807,0.7873810326723181,0.2378790530535346,1.3870575758462789,0.20754625158306517,-0.3002740351057618,1.7133030592835428,0.7719660145235246,0.0,-0.0
-0.05443287238980389,0.4307210718788608,0.8186374060706648,1.3345564198677782,-0.12316427252317261,0.6212763769661203,0.6579267875017052,1.556186805657875,-0.047448569245839886,-0.0473459248248807,0.7873810326723181,0.2378790530535346,1.395594142530059,0.20979145351703093,-0.30211558202549255,1.7168251579989289,-0.7053752994756535,-0.0,0.0
-0.07815214667971122,0.42572800660830334,0.8072597042698303,1.3271752056664174,-0.14190879507893361,0.6339678034661508,0.6668782406208852,1.5588678372927571,-0.047448569245839886,-0.0473459248248807,0.7873810326723181,0.2378790530535346,1.3873447651995543,0.20762679506520199,-0.3003712227927565,1.7136675956444793,0.7745031872494919,-0.0,-0.0
-0.05593393097760156,0.4296670742437002,0.8186220316473759,1.3349913227794632,-0.12438382500887371,0.6214949658594527,0.6591995180154377,1.557274570331981,-0.047448569245839886,-0.0473459248248807,0.7873810326723181,0.2378790530535346,1.3950727446920075,0.20965930928878132,-0.3020367794913924,1.716847583220321,-0.7087488157603097,-0.0,-0.0
-0.07270474154307377,0.42617050435857123,0.8105461004612714,1.329734811987824,-0.1376340695264417,0.6304949167457122,0.6654962417999892,1.5591244649633722,-0.047448569245839886,-0.0473459248248807,0.7873810326723181,0.2378790530535346,1.3892440958563275,0.20812953768149484,-0.30080308196182676,1.7146064985885485,0.7735271558961666,0.0,-0.0
-0.04804814278016181,0.43073349489994067,0.8229715887696866,1.338169325606929,-0.11817985503715475,0.6168043892308298,0.6567917631591919,1.557124261227968,-0.047448569245839886,-0.0473459248248807,0.7873810326723181,0.2378790530535346,1.3978141166789926,0.2103824636514086,-0.30264161024947067,1.7180754586371785,-0.7070348455562748,-0.0,0.0
-0.06951450334836956,0.42602260696406613,0.8128623554891993,1.3317330403363745,-0.13515025716976328,0.6281337288205696,0.6650771175164018,1.559785046666388,-0.047448569245839886,-0.0473459248248807,0.7873810326723181,0.2378790530535346,1.390357618143854,0.2084268767395935,-0.30107356810151253,1.7152797709733165,0.7750374518702973,-0.0,0.0
-0.05198562516739576,0.4293468330754439,0.8216179420397025,1.337626738040037,-0.12131807855520792,0.6184649662552807,0.6588121593008697,1.5582672618635447,-0.047448569245839886,-0.0473459248248807,0.7873810326723181,0.2378790530535346,1.3964453607399803,0.2100268639294392,-0.30237588279608707,1.7177197704960445,-0.7043446078696861,-0.0,0.0
-0.07575532393860962,0.424258561610583,0.8103017701029857,1.3303470261620713,-0.1401013199532922,0.6311126954602655,0.6678636756298063,1.561048457677948,-0.047448569245839886,-0.0473459248248807,0.7873810326723181,0.2378790530535346,1.3881932882532562,0.20786168131935992,-0.3006353529047702,1.7145871667422408,0.7733135351797656,-0.0,-0.0
-0.053321335317372355,0.42831789259016506,0.8216917799665997,1.3381248942113004,-0.12240808696033609,0.6185856434076912,0.6600322006042753,1.5593497683806232,-0.047448569245839886,-0.0473459248248807,0.7873810326723181,0.2378790530535346,1.3959815563532232,0.20990990313509303,-0.30230956044275564,1.717767149702195,-0.7078393188663729,-0.0,-0.0
-0.07710409085991289,0.4232691778728526,0.8103303623049193,1.3307947754357392,-0.14119739960257147,0.6312733703669171,0.6690480806726907,1.5620745066792117,-0.047448569245839886,-0.0473459248248807,0.7873810326723181,0.2378790530535346,1.3877308708932523,0.20774466573560296,-0.3005678535109807,1.714622459924505,0.7742118239574449,0.0,0.0
-0.05233017441278624,0.42770734434352264,0.8229486894460023,1.339432680698025,-0.1216626998547657,0.6174060116432172,0.6604424091872678,1.560257911527087,-0.047448569245839886,-0.0473459248248807,0.7873810326723181,0.2378790530535346,1.3963258086511228,0.21000544910282448,-0.30241702674962434,1.7181450087904204,-0.7093593529342688,-0.0,0.0
-0.07383940499070395,0.4231103232250901,0.81270483147648,1.3328465061285106,-0.13865526987099544,0.6288548627717817,0.6686260988066005,1.5627564448214195,-0.047448569245839886,-0.0473459248248807,0.7873810326723181,0.2378790530535346,1.3888696842838835,0.20804878754318246,-0.30084467826483247,1.7153126923742654,0.7747476267865983,0.0,-0.0
-0.056376677330309495,0.42632069120522037,0.8215199172323798,1.3388305536859015,-0.1248839212150925,0.6191451542224858,0.6624817471917238,1.5613785501967257,-0.047448569245839886,-0.0473459248248807,0.7873810326723181,0.2378790530535346,1.3949230723824348,0.20964066077219276,-0.302143280552956,1.7177689833053498,-0.7082573175551438,-0.0,0.0
-0.08019855817412577,0.42136132788098873,0.8100491894324762,1.3313788397590893,-0.143695443119793,0.6319301862294253,0.671418876401713,1.56397675047551,-0.047448569245839886,-0.0473459248248807,0.7873810326723181,0.2378790530535346,1.3866695328491356,0.20747378441775688,-0.3003974352797108,1.714594098964239,0.7740022650685782,-0.0,0.0
-0.05786958030634201,0.42526832250670094,0.8215072216906424,1.3392688426376345,-0.12609588413532766,0.6193606552145431,0.6637515992875698,1.5624609114154309,-0.047448569245839886,-0.0473459248248807,0.7873810326723181,0.2378790530535346,1.3944072095317368,0.20950987591186868,-0.3020655849286905,1.7177929037376634,-0.7080256688765928,-0.0,0.0
-0.07474067580609274,0.42178965981474675,0.8133524317046653,1.3339541173926655,-0.13941539004453146,0.6284413891718283,0.6700488009259686,1.5642556386641264,-0.047448569245839886,-0.0473459248248807,0.7873810326723181,0.2378790530535346,1.388566025929796,0.20797602165326964,-0.30082882732411953,1.715535984335849,0.773228307311149,0.0,-0.0
-0.050035047789452704,0.4263040397037381,0.8258467230767446,1.342444809238551,-0.11993680233066198,0.6146847785829191,0.6613823523967863,1.5623471552148327,-0.047448569245839886,-0.0473459248248807,0.7873810326723181,0.2378790530535346,1.397120967692702,0.21022612849991779,-0.30266470559798647,1.7190153214275503,-0.7057948873862808,-0.0,0.0
-0.07152560400230126,0.42163987171430256,0.8156841038092536,1.3359636957546288,-0.13691334338942834,0.6260637703207395,0.6696272906187188,1.5649224174097762,-0.047448569245839886,-0.0473459248248807,0.7873810326723181,0.2378790530535346,1.3896847425649246,0.2082748244636681,-0.3011002843058868,1.7162124912323489,0.7720885217333738,-0.0,-0.0
-0.04654921154248707,0.42631850758659284,0.8282041640625392,1.3444009629385687,-0.11721882718970342,0.6122479067458471,0.6607560118604481,1.562856389615858,-0.047448569245839886,-0.0473459248248807,0.7873810326723181,0.2378790530535346,1.3983263996099884,0.21054719134027677,-0.3029495223348418,1.7196926086916078,-0.7106110153572306,-0.0,0.0
-0.07052249436280696,0.42099970747066556,0.8169806771906049,1.3373179596529008,-0.1361605872908929,0.6248466788196287,0.6700647071154261,1.5658707054375933,-0.047448569245839886,-0.0473459248248807,0.7873810326723181,0.2378790530535346,1.3900367394334314,0.20837255621057194,-0.3012107308980953,1.7166032676165268,0.7754200718877818,0.0,0.0
-0.0458660068770294,0.4256554616433751,0.8293029274763433,1.3455953459580035,-0.11671920857064802,0.6112383603761686,0.6612715002127617,1.563790518338647,-0.047448569245839886,-0.0473459248248807,0.7873810326723181,0.2378790530535346,1.3985606970704703,0.21061391202307644,-0.30303282087913225,1.720024737693457,-0.7051917036162303,-0.0,0.0
-0.06735959915942935,0.42086551832479996,0.819262505056005,1.3392762769705249,-0.13370080704984427,0.622515602603942,0.6696379402825867,1.5665153990753853,-0.047448569245839886,-0.0473459248248807,0.7873810326723181,0.2378790530535346,1.3911342408580605,0.2086657204531141,-0.3014762918933937,1.7172637166547227,0.7746163393977912,0.0,0.0
-0.042513072283302394,0.4256686452842376,0.8315716213885345,1.3474752717906413,-0.114106973145531,0.6088917218501858,0.6606700988678234,1.5642859978098387,-0.047448569245839886,-0.0473459248248807,0.7873810326723181,0.2378790530535346,1.3997171369422097,0.21092203671898616,-0.30330590781932065,1.7206753182187375,-0.704989605670704,0.0,0.0
-0.06653180357451546,0.4202050953719235,0.8204601697449135,1.3405544458006495,-0.13308764037895193,0.6214026523150571,0.6701261012163315,1.5674669129342016,-0.047448569245839886,-0.0473459248248807,0.7873810326723181,0.2378790530535346,1.3914236126362436,0.20874697717412663,-0.30157258241134743,1.7176256259786657,0.7764899792867419,-0.0,0.0
-0.04409095763745394,0.4245710552662642,0.8315489918105521,1.34791970285977,-0.11539185391851647,0.6091211926428767,0.6619996699338762,1.5654234181443607,-0.047448569245839886,-0.0473459248248807,0.7873810326723181,0.2378790530535346,1.3991692420582609,0.21078316550985732,-0.30322219541541506,1.7206959270587914,-0.7112657796498584,-0.0,0.0
-0.06094064940882918,0.42077358447323443,0.8237211209743944,1.343025269843941,-0.1287038274839182,0.6179258373230667,0.6685994924884149,1.5676067909283655,-0.047448569245839886,-0.0473459248248807,0.7873810326723181,0.2378790530535346,1.3933554967791513,0.2092581158812303,-0.30200588802857065,1.7185475639923526,0.7750652523501262,0.0,-0.0
-0.036071401285618185,0.425805517155618,0.8358238946000371,1.350946860744654,-0.10908587367749827,0.6044700200086185,0.6594081109037301,1.5651052501720004,-0.047448569245839886,-0.0473459248248807,0.7873810326723181,0.2378790530535346,1.4019340781917768,0.21151217347448809,-0.3038244933841278,1.72188993384786,-0.7048637979880311,0.0,-0.0
-0.05760414743160472,0.42071787361491386,0.8260483533912739,1.3449822063902794,-0.1261095432190567,0.615529355576167,0.6680679315618784,1.5681908020256865,-0.047448569245839886,-0.0473459248248807,0.7873810326723181,0.2378790530535346,1.3945074005600038,0.20956548980120598,-0.3022807008995915,1.719216634678546,0.7716952347360586,-0.0,-0.0
-0.039568159621420115,0.4244512506938464,0.8347439880192685,1.3506204149991916,-0.11187947375970775,0.6058387666537157,0.6613212697914272,1.5662751072674261,-0.047448569245839886,-0.0473459248248807,0.7873810326723181,0.2378790530535346,1.4007242624207568,0.21119857313154086,-0.30359486653201284,1.721613507266997,-0.7101387147345399,-0.0,-0.0
-0.06162489889358032,0.41934338074924893,0.8246314521359704,1.3443879711901474,-0.1293100531048853,0.6172512265632456,0.6700924865972046,1.5693004519924227,-0.047448569245839886,-0.0473459248248807,0.7873810326723181,0.2378790530535346,1.3931216178245638,0.20920496759865378,-0.3020104181358849,1.7188456745440275,0.7728885069426202,-0.0,0.0
-0.03639125613512969,0.42442865102783417,0.8369277016193207,1.352440321543773,-0.10940935464635393,0.6035842332320539,0.6607855115820632,1.5667957388585372,-0.047448569245839886,-0.0473459248248807,0.7873810326723181,0.2378790530535346,1.401815100502784,0.21148961085025667,-0.30385364040724616,1.7222386619018306,-0.7060258458768748,-0.0,-0.0
-0.06059768383801167,0.4187181284544339,0.8259325609758389,1.345733710182848,-0.12854274992561057,0.6160220496911901,0.6705126279001842,1.570244776000264,-0.047448569245839886,-0.0473459248248807,0.7873810326723181,0.2378790530535346,1.393476905345424,0.20930368095324856,-0.3021205475876336,1.7192349337695105,0.7719787633173306,-0.0,-0.0
-0.03748514302591127,0.42341052260305045,0.8371602265348229,1.3530609364589372,-0.11031546681126504,0.6035327787573016,0.6619545265896024,1.5679123342562695,-0.047448569245839886,-0.0473459248248807,0.7873810326723181,0.2378790530535346,1.401433114392598,0.21139450889115877,-0.3038056479595331,1.7223296495369713,-0.7113755847533162,0.0,-0.0
-0.061907018913451226,0.4176842224501832,0.8260349832670012,1.346257541016322,-0.12961500144995722,0.6161087917148573,0.6717348730735213,1.5713424433336718,-0.047448569245839886,-0.0473459248248807,0.7873810326723181,0.2378790530535346,1.3930272220654725,0.209190441894529,-0.30205736052381277,1.7192911507176558,0.773617427999621,0.0,-0.0
-0.03903740299146484,0.4222879823008286,0.8371803419477557,1.3535502042180314,-0.11158317927125613,0.603720729633485,0.6633041163492829,1.5690877456593293,-0.047448569245839886,-0.0473459248248807,0.7873810326723181,0.2378790530535346,1.4008940588764984,0.2112581737192212,-0.3037248551913054,1.7223627276821658,-0.7033512012856921,-0.0,0.0
-0.06348258561459424,0.41660636153860897,0.8259977169124528,1.3466848744719448,-0.13089609956381754,0.616348496511008,0.6730459620123891,1.5724523755451576,-0.047448569245839886,-0.0473459248248807,0.7873810326723181,0.2378790530535346,1.3924867509255514,0.20905324594458896,-0.30197453048987577,1.7193087930484807,0.7744140337260366,0.0,-0.0
