muneebpandith/TeleoperationWork/DATASET/TRANSORMER_DATA/training_data_for_transformer1686207570.2780306.csv
J0,J1,J2,J3,J4,J5,J6,J7,J8,J9,J10,J11,J12,J13,J14,J15,ThetaXHG,ThetaYHG,ThetaZHG
0.043252361618724054,0.6372657212295717,0.672122510983142,1.098455683849717,-0.008300483522224839,0.7823234296947733,0.5118265840552682,1.3322757694582432,0.0014035316944537933,0.03867560686951156,0.7329050949742133,0.2378790530535346,1.4652128878699824,0.2161365782581212,-0.2934589711374567,1.672684168388287,-0.00042329974538957447,0.0,0.0
0.043262301713295516,0.6372698917913191,0.6721273380112724,1.0984584278854386,-0.008290752754044577,0.7823187134556722,0.5118221471636952,1.3322733228355008,0.0014035316944537933,0.03867560686951156,0.7329050949742133,0.2378790530535346,1.4652173300954001,0.21613772194955966,-0.29345979352776674,1.6726849054725004,-0.00039218594491617403,-0.0,-0.0
0.043303840842198474,0.6372873212405452,0.6721475089921639,1.0984698939389332,-0.008250088347490171,0.7822990052730173,0.5118036047347576,1.3322630972952558,0.0014035316944537933,0.03867560686951156,0.7329050949742133,0.2378790530535346,1.4652358939514258,0.21614250137445182,-0.2934632302172184,1.6726879854318617,-0.0018953042614574924,-0.0,-0.0
0.04337291685649005,0.637316311124218,0.6721810452539179,1.0984889531758886,-0.008182466632769303,0.7822662373318003,0.5117727640507835,1.3322460845264286,0.0014035316944537933,0.03867560686951156,0.7329050949742133,0.2378790530535346,1.4652667642712682,0.21615044914132517,-0.29346894488655556,1.6726931052187977,-0.004042464199655153,-0.0,-0.0
0.0435250617828527,0.6373801861589592,0.6722548880341233,1.0985309038552178,-0.008033523848787505,0.7821940821708964,0.5117048124553509,1.3322085812755706,0.0014035316944537933,0.03867560686951156,0.7329050949742133,0.2378790530535346,1.465334759182302,0.21616795464648048,-0.293481530940807,1.6727043748817214,-0.006259657279800443,-0.0,-0.0
0.043812145685719575,0.6375008070501033,0.672394126076366,1.0986099418947137,-0.0077524777063608516,0.7820580091495369,0.5115764992878605,1.3321376854935454,0.0014035316944537933,0.03867560686951156,0.7329050949742133,0.2378790530535346,1.465463062819367,0.21620098586017172,-0.29350527588329484,1.67272561047658,-0.011758629855012226,-0.0,-0.0
0.04404314553687126,0.6375980070220056,0.672506016079538,1.098673358366649,-0.007526329416375173,0.7819486364858895,0.511473109501636,1.3320804415769962,0.0014035316944537933,0.03867560686951156,0.7329050949742133,0.2378790530535346,1.4655663063797677,0.2162275640017733,-0.2935243762713956,1.6727426531182852,-0.009490790073559097,-0.0,0.0
0.04412269663725145,0.6376315201844768,0.6725445077718063,1.0986951474474465,-0.007448447232926851,0.7819110035819683,0.5114374646198494,1.3320606731423308,0.0014035316944537933,0.03867560686951156,0.7329050949742133,0.2378790530535346,1.4656018625131546,0.21623671686344675,-0.29353095240548005,1.6727485099090464,-0.0032661962381989986,0.0,0.0
0.04438162935353931,0.637740647447466,0.6726697496692703,1.0987660130672023,-0.007194944638235639,0.7817885478748573,0.5113213986688766,1.3319962668217658,0.0014035316944537933,0.03867560686951156,0.7329050949742133,0.2378790530535346,1.465717596563213,0.21626650867316355,-0.2935523554172698,1.6727675595166158,-0.011796429923379925,-0.0,-0.0
0.04464494707659163,0.6378517700363168,0.6727969615824596,1.098837892906859,-0.006937142127498861,0.7816641392400488,0.5112032195180929,1.3319305659012772,0.0014035316944537933,0.03867560686951156,0.7329050949742133,0.2378790530535346,1.4658352957596954,0.21629680483546446,-0.2935741149331557,1.6727868860614863,-0.015443661779748714,-0.0,-0.0
0.04501748559689489,0.638009196674219,0.672976722181373,1.0989393201883115,-0.006572396574714545,0.7814883014468129,0.511035808769512,1.3318373196607844,0.0014035316944537933,0.03867560686951156,0.7329050949742133,0.2378790530535346,1.4660018225641462,0.21633966721470682,-0.2936048914524579,1.6728141633048745,-0.015257853900263397,-0.0,0.0
0.045044653334196064,0.6380206990166739,0.6729898089920099,1.0989466892905746,-0.006545796127200228,0.7814754962573732,0.5110235782605452,1.3318304893025574,0.0014035316944537933,0.03867560686951156,0.7329050949742133,0.2378790530535346,1.4660139674705002,0.2163427929712979,-0.2936071349771987,1.672816145745591,-0.0011123570464727766,-0.0,0.0
0.044222171087701455,0.6376724262575667,0.6725936653860036,1.0987236562985057,-0.007351106366646929,0.7818631238172091,0.5113938958530426,1.3320373399996086,0.0014035316944537933,0.03867560686951156,0.7329050949742133,0.2378790530535346,1.4656462881000567,0.21624816315960727,-0.2935392159485497,1.6727561438518603,0.03373689580132602,-0.0,0.0
0.04295564797109696,0.6371383775004914,0.6719813461110753,1.0983773737253175,-0.008591081652863106,0.7824618709966881,0.5119618842989158,1.3323527480619604,0.0014035316944537933,0.03867560686951156,0.7329050949742133,0.2378790530535346,1.4650801864723684,0.2161024422447505,-0.29343453802079006,1.6726630505122537,0.05218509207632021,-0.0,0.0
0.04116644643508399,0.6363888300405466,0.6711113140378728,1.0978820049258933,-0.010342551127924458,0.7833117271562899,0.5127593676207827,1.3327915481967858,0.0014035316944537933,0.03867560686951156,0.7329050949742133,0.2378790530535346,1.4642806345463593,0.21589657853091937,-0.29328646292692917,1.672530021079715,0.07350098672871111,-0.0,0.0
0.03841181771410974,0.6352455001698111,0.669760916037938,1.0971058874392379,-0.013038592245522935,0.7846288636474593,0.5139764900581868,1.3334524120701305,0.0014035316944537933,0.03867560686951156,0.7329050949742133,0.2378790530535346,1.4630500272098401,0.21557962081708154,-0.2930580573950025,1.6723219103895821,0.11309016415699397,-0.0,0.0
0.03454822044625303,0.6336649499897232,0.6678433143532811,1.0959882168658839,-0.016818946553491056,0.7864950076746794,0.5156605648664219,1.334347647707682,0.0014035316944537933,0.03867560686951156,0.7329050949742133,0.2378790530535346,1.461324784610531,0.21513503079339902,-0.29273676548601374,1.6720228912947765,0.15831950135853712,0.0,0.0
0.02945628817044016,0.6316246537069468,0.6652725169689911,1.0944612854413267,-0.021799200036135436,0.7889889476060397,0.5178374627475559,1.3354691406157093,0.0014035316944537933,0.03867560686951156,0.7329050949742133,0.2378790530535346,1.4590524582126256,0.2145490314876572,-0.2923115921677754,1.6716156340798798,0.2094283889794011,0.0,0.0
0.023474455818102404,0.6292942185934557,0.6621850048839916,1.092583711907635,-0.027646795621334458,0.7919718389921919,0.520328879408951,1.3366966879735442,0.0014035316944537933,0.03867560686951156,0.7329050949742133,0.2378790530535346,1.4563851067367866,0.21386050661801467,-0.2918094090736258,1.671116806598173,0.24590303821604,-0.0,0.0
0.0174652879186583,0.6270319206916938,0.6590037703313826,1.0905982093949529,-0.03351754265869617,0.7950305591570378,0.5227538713446107,1.3378242803389018,0.0014035316944537933,0.03867560686951156,0.7329050949742133,0.2378790530535346,1.453707911067542,0.2131686790619145,-0.2913017113260917,1.6705916231607638,0.27309481088916093,-0.0,0.0
0.01267254686429741,0.6252910558883757,0.6564026542794292,1.0889345757615674,-0.03819703899093894,0.7975195540840716,0.5246256203851325,1.3386395232200201,0.0014035316944537933,0.03867560686951156,0.7329050949742133,0.2378790530535346,1.4515744085833027,0.21261674934191463,-0.29089417778686716,1.6701534486071445,0.2831122185098069,-0.0,0.0
0.005506251863447662,0.6227641596066412,0.6524371036194997,1.0863510301274297,-0.04519063546281229,0.8012997632962482,0.5273499466777304,1.3397587286080799,0.0014035316944537933,0.03867560686951156,0.7329050949742133,0.2378790530535346,1.4483862517149575,0.21179127857004362,-0.2902816717101605,1.669475230281313,0.29292565709449253,-0.0,0.0
-0.001901026283332173,0.6202706266397134,0.6482201578521667,1.0835313175883636,-0.05241422113353793,0.805296971970489,0.5300508283778681,1.3407620912484433,0.0014035316944537933,0.03867560686951156,0.7329050949742133,0.2378790530535346,1.4450936958594256,0.21093770207178172,-0.2896436581321497,1.668738556102995,0.3015905389778288,0.0,0.0
-0.009474934399951467,0.6178470532582367,0.6437832478202788,1.0804890666540867,-0.059794863354083426,0.8094783015936566,0.5326907335338094,1.341626741515903,0.0014035316944537933,0.03867560686951156,0.7329050949742133,0.2378790530535346,1.4417297499942925,0.21006450372889426,-0.2889860250438937,1.6679475631741614,0.3098838003077906,0.0,0.0
-0.01852313427881657,0.6151070204865344,0.6383293224753698,1.076658460708473,-0.0686055829815866,0.8145876822627373,0.5356955873830812,1.3424637383364708,0.0014035316944537933,0.03867560686951156,0.7329050949742133,0.2378790530535346,1.437713901099796,0.20902075297247036,-0.28819384411429155,1.6669563817520834,0.3688669569649125,-0.0,0.0
-0.02792716545407673,0.6124539732119254,0.6324696518855298,1.072430997416148,-0.07775466929829779,0.8200385235152469,0.5386333259686553,1.3430915939063695,0.0014035316944537933,0.03867560686951156,0.7329050949742133,0.2378790530535346,1.4335432609143628,0.2079351493472651,-0.28736225229066675,1.6658686625507408,0.42760311267764994,0.0,0.0
-0.034396891473446864,0.6109018019200888,0.6285711116104187,1.0695366241699926,-0.08387124460596913,0.8239130423899027,0.5405707606556919,1.34338903189757,0.0014035316944537933,0.03867560686951156,0.7329050949742133,0.2378790530535346,1.4307542458620623,0.20720807829385682,-0.28679992253749864,1.6651006128619135,0.4351928354413789,-0.0,0.0
-0.04396391001825779,0.60892393202301,0.6230541658671936,1.0653575021088564,-0.09239507815793006,0.8297511693330757,0.543407447760774,1.3437551655725122,0.0014035316944537933,0.03867560686951156,0.7329050949742133,0.2378790530535346,1.4267411252587847,0.2061608595551624,-0.28598474172467053,1.6639561987952647,0.4630977035828472,0.0,0.0
-0.053704465855196684,0.6071058505439663,0.6172438478856651,1.0608527327851123,-0.10078715863907649,0.8358087763922161,0.546145581762506,1.343933625069142,0.0014035316944537933,0.03867560686951156,0.7329050949742133,0.2378790530535346,1.4226566069961215,0.20509352298210148,-0.28514613394026833,1.662733735329435,0.4694770356848246,-0.0,0.0
-0.0631174371652632,0.6056149420382414,0.6116002495977234,1.0563699978607413,-0.10866169732390295,0.8416254540777159,0.5485434032107146,1.3438792443941532,0.0014035316944537933,0.03867560686951156,0.7329050949742133,0.2378790530535346,1.4188220951637485,0.20409013087946282,-0.2843502340419422,1.6615307460018731,0.47102659184379064,-0.0,-0.0
-0.07146767803371087,0.6045332522259478,0.6066120634464142,1.0523157425799166,-0.11566058802925558,0.8470724114877209,0.5506452679844535,1.343688702955494,0.0014035316944537933,0.03867560686951156,0.7329050949742133,0.2378790530535346,1.4154120570620987,0.2031966851933754,-0.2836351567450371,1.6604145172834952,0.4657989144640842,0.0,-0.0
-0.0774475603679682,0.6039521783170311,0.6031629006295517,1.0494483412874023,-0.12038101457973027,0.8510421624099473,0.5521250302686593,1.343499242340366,0.0014035316944537933,0.03867560686951156,0.7329050949742133,0.2378790530535346,1.4130314441925362,0.20257227063033284,-0.28313137545817546,1.6596063269815362,0.463516595153994,0.0,-0.0
-0.08382703789660871,0.6034083097033045,0.5994077715337408,1.04629091538042,-0.12524210009839967,0.8553076417167703,0.5536646655171436,1.3432469567405358,0.0014035316944537933,0.03867560686951156,0.7329050949742133,0.2378790530535346,1.410491265382434,0.201905505084808,-0.28259038792683855,1.6587223409574008,0.4688103025526505,0.0,0.0
-0.09116853326886265,0.6029775897443801,0.595259466610105,1.0427384195259337,-0.1306973593353537,0.8601551437541257,0.5553120296232177,1.3428616034316305,0.0014035316944537933,0.03867560686951156,0.7329050949742133,0.2378790530535346,1.4076393339608795,0.20115632129683442,-0.2819788527916245,1.6577038841786362,0.464785979472907,-0.0,-0.0
-0.09774237750207869,0.6026505176218546,0.5913558398973073,1.039361971271894,-0.1355379412887131,0.8646547400728388,0.5567789359089249,1.3424441536007725,0.0014035316944537933,0.03867560686951156,0.7329050949742133,0.2378790530535346,1.4050136132356368,0.20046596574585898,-0.28141149262178683,1.6567392691034772,0.46884710460062695,0.0,0.0
-0.10239408492362503,0.6025045306262709,0.5886010442142513,1.0369457595422285,-0.138870443630302,0.8678832710113802,0.5577935401172189,1.3421083322567942,0.0014035316944537933,0.03867560686951156,0.7329050949742133,0.2378790530535346,1.4032050542085874,0.19999008824419523,-0.2810179300617125,1.6560577134620358,0.46884710460062695,0.0,0.0
-0.1089521822283584,0.6023592528816176,0.584657042062302,1.033460189052318,-0.143568741069783,0.8724734258604198,0.5591720268680597,1.3415696293430608,0.0014035316944537933,0.03867560686951156,0.7329050949742133,0.2378790530535346,1.4006543589031988,0.19931858234183147,-0.28046015412621056,1.6550797823999865,0.47191853538410616,0.0,-0.0
-0.11495007789828567,0.6023498078404308,0.581103814108021,1.0302726398151778,-0.14771656185365795,0.8767084531975973,0.5604023983784219,1.341033206211473,0.0014035316944537933,0.03867560686951156,0.7329050949742133,0.2378790530535346,1.3983146746206492,0.19870217725342415,-0.2799449811671031,1.6541610892533114,0.4692521325152421,0.0,-0.0
-0.12094794428626822,0.6024113130055808,0.577479859511662,1.0269919271142327,-0.1518648852015,0.8809879243774255,0.5615728313071924,1.3404217652308337,0.0014035316944537933,0.03867560686951156,0.7329050949742133,0.2378790530535346,1.3959736170320145,0.1980850043159,-0.2794262269041019,1.6532219102089207,0.4692521325152421,0.0,0.0
-0.12690220334666008,0.6025436065172343,0.5738112953885239,1.0236412993489237,-0.15598372130756383,0.8852804871905302,0.5626749780172072,1.3397401768615802,0.0014035316944537933,0.03867560686951156,0.7329050949742133,0.2378790530535346,1.3936480617678897,0.1974715218324996,-0.2789076199138179,1.6522690627452894,0.46784437661626815,-0.0,0.0
-0.13108145000593266,0.6027330418948281,0.5713361169518654,1.021342596399558,-0.15880554076171277,0.8883354158854384,0.5634348257972253,1.339232076421807,0.0014035316944537933,0.03867560686951156,0.7329050949742133,0.2378790530535346,1.392054008328825,0.1970507448001595,-0.27854988153610843,1.6516023484944222,0.463673353128667,0.0,-0.0
-0.13461291764746464,0.6029219495184065,0.5692157027177389,1.0193620496298734,-0.16109869813014396,0.8909207454473774,0.564074108806257,1.3387987596433992,0.0014035316944537933,0.03867560686951156,0.7329050949742133,0.2378790530535346,1.3907062873697176,0.19669484031624937,-0.2782461054898152,1.6510307683273107,0.4540925685743775,0.0,-0.0
-0.13711281063086478,0.6030987476231069,0.5677833482848405,1.0180060992022792,-0.1626840956995135,0.8927181907155577,0.5645020385076646,1.3384818707674107,0.0014035316944537933,0.03867560686951156,0.7329050949742133,0.2378790530535346,1.3897742566721891,0.19644862358287857,-0.27803524967713517,1.6506308603981774,0.43665418218334895,0.0,-0.0
-0.13944972870466593,0.603275146745901,0.5664331603237054,1.0167237866896675,-0.16410708939058372,0.894395763659714,0.5649075316925595,1.3381920557533515,0.0014035316944537933,0.03867560686951156,0.7329050949742133,0.2378790530535346,1.3889026648759064,0.19621831729572012,-0.27783756265951376,1.6502538886068647,0.4311816894389485,0.0,-0.0
-0.16285840847429994,0.5973873086424251,0.5262191177791224,0.9823112178587969,-0.1907954751425776,0.887164714226926,0.5523899834412795,1.3291606612753701,0.0014035316944537933,0.03867560686951156,0.7329050949742133,0.2378790530535346,1.3532306610304654,0.18679035398458005,-0.2697273645226919,1.6347105724851827,0.4306103615238118,-0.0,-0.0
-0.16318645452133118,0.5974389061106832,0.526006179832209,0.9820967386350772,-0.1909945745358185,0.8874029151750724,0.5524435941410425,1.3291158935900536,0.0014035316944537933,0.03867560686951156,0.7329050949742133,0.2378790530535346,1.3531091107637545,0.18675796026847286,-0.26969688887178583,1.6346412788958462,0.3941532710425141,0.0,-0.0
-0.15952248581744125,0.5967892260853985,0.5279994536799111,0.9841619362410906,-0.18917196342479176,0.8847134345697193,0.5516724547728595,1.3294617437325087,0.0014035316944537933,0.03867560686951156,0.7329050949742133,0.2378790530535346,1.3544443934366663,0.18711382698777385,-0.27003179538607464,1.635403133283309,0.37403455553485915,0.0,-0.0
-0.1540172308263736,0.5958174084105297,0.5307771362987312,0.9870602826874505,-0.18649673088446408,0.8807866247837923,0.550512672476376,1.329934344046562,0.0014035316944537933,0.03867560686951156,0.7329050949742133,0.2378790530535346,1.3564039977194398,0.1876359584478016,-0.2705213877903665,1.6365109831426832,0.34908952973349877,0.0,-0.0
-0.14847273322151222,0.5948692853097092,0.5333919917980872,0.9897970209123812,-0.18393344588657815,0.8768824987999699,0.549263846204628,1.3303122616485428,0.0014035316944537933,0.03867560686951156,0.7329050949742133,0.2378790530535346,1.3583799425035736,0.18816225757177366,-0.27101226917292165,1.637612996418867,0.3124115698686643,0.0,-0.0
-0.13918790687338436,0.5933714811156405,0.537679866744249,0.994260374813812,-0.1796441173121869,0.8704005081585762,0.5471068301702007,1.3308593789467424,0.0014035316944537933,0.03867560686951156,0.7329050949742133,0.2378790530535346,1.3616858137544483,0.18904246506473157,-0.27182887474351014,1.6394313863625838,0.27391414133526726,0.0,-0.0
-0.1292028182418417,0.591920512290973,0.5421294669040233,0.998848398555772,-0.17503648397414778,0.8635297503651543,0.5446695180337641,1.33129380971873,0.0014035316944537933,0.03867560686951156,0.7329050949742133,0.2378790530535346,1.3652358942380804,0.1899871001352087,-0.2726975156299207,1.641338765919132,0.25511859444441803,0.0,-0.0
-0.1182817460778266,0.5905181915905401,0.5468093439204786,1.0036224607506898,-0.1700022827863546,0.8561318738858446,0.5418665409396726,1.3315885434010357,0.0014035316944537933,0.03867560686951156,0.7329050949742133,0.2378790530535346,1.3691133854885418,0.19101813085180216,-0.2736367030224684,1.6433691881808516,0.22701390344025557,0.0,-0.0
-0.10646509945417623,0.5892154873316354,0.5516558389429228,1.008505469247825,-0.16456059572772339,0.8482647963596195,0.5386726842523804,1.331694579784272,0.0014035316944537933,0.03867560686951156,0.7329050949742133,0.2378790530535346,1.3733033284322373,0.19213135339282558,-0.2746404752284873,1.6455012101584219,0.20135374613697055,0.0,-0.0
-0.09369145169354473,0.5880537084012474,0.5566454334781824,1.013460777079414,-0.1586831974787366,0.8399203293740876,0.5350333562102655,1.3315607820400122,0.0014035316944537933,0.03867560686951156,0.7329050949742133,0.2378790530535346,1.3778272069744422,0.19333221778059848,-0.2757115386754936,1.6477312733022835,0.17394836703029667,0.0,-0.0
-0.08026410029473484,0.5871073554421794,0.5616120576461238,1.018310640669857,-0.15250916624553812,0.8313292877757936,0.5309971597079625,1.3311381734612155,0.0014035316944537933,0.03867560686951156,0.7329050949742133,0.2378790530535346,1.382577760921646,0.1945919745167917,-0.27682213874216927,1.649992138929231,0.15628280601929995,0.0,-0.0
-0.019566858519568492,0.607805920408017,0.6761963469582337,1.1153785883869953,-0.08587450881999971,0.8541718624299679,0.5713603319186948,1.3612452715683478,0.0014035316944537933,0.03867560686951156,0.7329050949742133,0.2378790530535346,1.4711078313807409,0.21804234741141498,-0.297248039752998,1.690552388262468,0.15456554148872495,-0.0,-0.0
-0.006372206878474356,0.6090225008725068,0.6790503441588968,1.1174206150970658,-0.0798011705806182,0.8457794760690435,0.56735426257133,1.3608390946555786,0.0014035316944537933,0.03867560686951156,0.7329050949742133,0.2378790530535346,1.4758137653124461,0.21925700102346507,-0.29810082495203455,1.6912262308378285,0.12955769905392264,0.0,-0.0
0.0003306238058956995,0.6100045716585311,0.6807704423032911,1.1185645880571409,-0.0761597134690511,0.8416012535564188,0.5653050700163946,1.3605823393585905,0.0014035316944537933,0.03867560686951156,0.7329050949742133,0.2378790530535346,1.4782499012354964,0.21988450898252687,-0.29853691886750905,1.691536610571128,0.1166481798032471,0.0,-0.0
0.0118568719576769,0.6118003376517511,0.6836112506498153,1.1203927038340498,-0.0696097671252097,0.8344693922216445,0.5617098806475614,1.3600487981600649,0.0014035316944537933,0.03867560686951156,0.7329050949742133,0.2378790530535346,1.4824404831937417,0.22096276417679994,-0.2992823107349502,1.6920363525052196,0.09044567076221298,0.0,-0.0
0.023021923262479937,0.6137172638461149,0.686168294485696,1.1219329327702066,-0.06325818043266587,0.8276883280710619,0.5580511016407078,1.3593071423454905,0.0014035316944537933,0.03867560686951156,0.7329050949742133,0.2378790530535346,1.4865026778711457,0.22200600866379636,-0.29999693257074633,1.6924639040005247,0.07563357818656276,0.0,-0.0
0.03460912083234893,0.6160784721095386,0.6889229078531888,1.1234885177360088,-0.05650223957543333,0.8206161086186905,0.5539827096190292,1.3582860365626523,0.0014035316944537933,0.03867560686951156,0.7329050949742133,0.2378790530535346,1.490822176226811,0.2231132553229673,-0.30074865771475184,1.692860025525108,0.04530268716526117,0.0,-0.0
0.04777219594285642,0.6187512753863348,0.6914824732672964,1.124768265609288,-0.048993811530096715,0.8129241621301031,0.5492537000298394,1.3568754581845843,0.0014035316944537933,0.03867560686951156,0.7329050949742133,0.2378790530535346,1.4956214878748295,0.22434099237161562,-0.30157425312278574,1.6932311475870574,0.015201947141730326,0.0,-0.0
0.06180216697071331,0.6218516307231856,0.6939312834004046,1.1258055066989758,-0.04097594563579576,0.8049121621451247,0.5439593445264993,1.355040204220178,0.0014035316944537933,0.03867560686951156,0.7329050949742133,0.2378790530535346,1.500745179749501,0.22564867940259845,-0.30244422753085826,1.6935456544926875,-0.012068675231087646,0.0,-0.0
0.07649151388894092,0.6253778190468596,0.6961826918196735,1.1265274651773443,-0.03256236620294223,0.7967340303218361,0.5381317757762458,1.352743392915367,0.0014035316944537933,0.03867560686951156,0.7329050949742133,0.2378790530535346,1.5061207252673126,0.22701717339450456,-0.303344162093236,1.693784274217817,-0.03774394769492635,-0.0,-0.0
0.090933245302345,0.6293902652647463,0.6984311372659342,1.1270800766455686,-0.024072549193380137,0.7887282219638604,0.5319656668532401,1.3500300055741599,0.0014035316944537933,0.03867560686951156,0.7329050949742133,0.2378790530535346,1.5115443289864912,0.22839413995465693,-0.3042385622307093,1.6939284901441531,-0.07608903993402444,0.0,-0.0
0.10447328924894779,0.6337622303434722,0.7006895571169109,1.1275176565075775,-0.015780261374218764,0.7816828707538311,0.5261348932610357,1.3472300844262208,0.0014035316944537933,0.03867560686951156,0.7329050949742133,0.2378790530535346,1.5166208408597144,0.22967934708263973,-0.3050628558434609,1.693972437506164,-0.10686853953807608,-0.0,-0.0
0.11629826814760619,0.6380489125372953,0.7027116715668157,1.1277820101693248,-0.007721717183033041,0.7757440877901696,0.5208776279497926,1.3445190931894897,0.0014035316944537933,0.03867560686951156,0.7329050949742133,0.2378790530535346,1.5211749563998949,0.23082917366915723,-0.30579147102068677,1.6939355026319731,-0.13420527732599932,-0.0,-0.0
0.12680358955881332,0.6424077327676063,0.7047654074414043,1.128047805502978,-0.00010008760128380964,0.7706719689767783,0.5160757340852918,1.3418838630200305,0.0014035316944537933,0.03867560686951156,0.7329050949742133,0.2378790530535346,1.5253230868443064,0.23187388708570933,-0.3064462150576777,1.6938395135788098,-0.15729118099093897,0.0,-0.0
0.13557909518539404,0.6465194801608827,0.7067203580299198,1.128312553583507,0.006912408382846123,0.7666020809860578,0.5119654486007464,1.3395048826685014,0.0014035316944537933,0.03867560686951156,0.7329050949742133,0.2378790530535346,1.528877131514064,0.23276690371548162,-0.30700018889902037,1.6937086406539663,-0.18141338917953564,-0.0,-0.0
0.14344835196822303,0.6504087565795292,0.708444052719508,1.1284558853912243,0.013617596475803084,0.7629480911427726,0.5080462243831056,1.3371334565161623,0.0014035316944537933,0.03867560686951156,0.7329050949742133,0.2378790530535346,1.5321629264865877,0.23359084629339003,-0.3075067736297327,1.6935491353267431,-0.20936458132676192,-0.0,-0.0
0.15275764530304323,0.655273703909765,0.710502220239492,1.1285515920347085,0.021546543820198362,0.7589023510100695,0.5034431652338671,1.3342359048454455,0.0014035316944537933,0.03867560686951156,0.7329050949742133,0.2378790530535346,1.5360495434579042,0.2345635959071287,-0.3080998563360455,1.6933183552201894,-0.23527341227310125,-0.0,-0.0
0.15948095564475714,0.6589007153901242,0.7118637221234363,1.1284762967538449,0.027287254707772688,0.7560739848720829,0.4999999183473401,1.3319769169220559,0.0014035316944537933,0.03867560686951156,0.7329050949742133,0.2378790530535346,1.5388647337837797,0.2352665756427368,-0.30852415559186414,1.6931151172578631,-0.24951735565569738,0.0,-0.0
0.16844755454799587,0.6638474093743371,0.7135581876376371,1.1282362822708132,0.03495745945731532,0.7523935593096017,0.4952925103109177,1.3288014263479637,0.0014035316944537933,0.03867560686951156,0.7329050949742133,0.2378790530535346,1.5426275632842956,0.23620460687518902,-0.30908612690508863,1.6928085344949717,-0.24791300158405585,-0.0,-0.0
0.1763914325416909,0.6684793765736633,0.7150476611830381,1.1279295612086138,0.04197938897040712,0.7493855142329122,0.4911316878362306,1.3258807628443057,0.0014035316944537933,0.03867560686951156,0.7329050949742133,0.2378790530535346,1.5459631606669098,0.23703423531366424,-0.3095781452417369,1.6924953640344562,-0.2565090925042738,0.0,-0.0
0.18343480868633644,0.6728777633728942,0.7164527911299398,1.1276306398187972,0.048593247651612465,0.7466514095009783,0.4871063364322285,1.3229715479851185,0.0014035316944537933,0.03867560686951156,0.7329050949742133,0.2378790530535346,1.549106830716899,0.2378145182496018,-0.310036677377568,1.6921656161485985,-0.27083879944147693,0.0,-0.0
0.18813428860223297,0.6760254116884691,0.7174735601968687,1.1274296013751477,0.05328579762431733,0.7449241772322664,0.48435831463719237,1.3209204342593255,0.0014035316944537933,0.03867560686951156,0.7329050949742133,0.2378790530535346,1.5512689711157825,0.23835012121712157,-0.31034866422271074,1.6919163884408632,-0.2696117428899248,0.0,-0.0
0.19293946975670356,0.679369136287807,0.7185459579478878,1.1272060275997906,0.05839774820603052,0.7432391157935212,0.48149713887102935,1.3187325217984116,0.0014035316944537933,0.03867560686951156,0.7329050949742133,0.2378790530535346,1.5535541407827649,0.23891542389536188,-0.31067592961008483,1.6916366639577434,-0.27235318582332113,0.0,-0.0
0.19773910416650564,0.682926186116585,0.7197327681603077,1.1270069148522033,0.06363613905572847,0.7417050973190406,0.4786890763789453,1.3165299631295024,0.0014035316944537933,0.03867560686951156,0.7329050949742133,0.2378790530535346,1.5558283054050066,0.2394771799705925,-0.3109990022218094,1.691341119106904,-0.2736627158724716,0.0,-0.0
0.20301019673169066,0.6868906674500872,0.7209718366492246,1.1267147269348596,0.06939633706225871,0.7400738863615848,0.47554142809319444,1.3140183935075418,0.0014035316944537933,0.03867560686951156,0.7329050949742133,0.2378790530535346,1.5583306322370285,0.24009438538376335,-0.31135160562328545,1.6909971153276997,-0.27457018213571005,0.0,-0.0
0.20730129862670205,0.6901700162001587,0.7219226436993768,1.1264109253972985,0.0740920594105024,0.7387943997646296,0.47292168185212424,1.3118899674256954,0.0014035316944537933,0.03867560686951156,0.7329050949742133,0.2378790530535346,1.5603720954474054,0.24059709294181758,-0.311636664788378,1.6906995761360775,-0.27498465924359994,0.0,0.0
0.2114327795279955,0.6933681423373926,0.7227923925263632,1.1260665698654566,0.07861813680381123,0.7376009859172286,0.47035422138609795,1.3097742533622314,0.0014035316944537933,0.03867560686951156,0.7329050949742133,0.2378790530535346,1.5623411208792022,0.2410813079695928,-0.3119095469804997,1.6903992950886078,-0.2745701990544137,-0.0,-0.0
0.2143226421950087,0.6958033081233893,0.7235315300142194,1.1258689672976334,0.08199137632949655,0.7367909149767602,0.46847895264295236,1.3081998971518365,0.0014035316944537933,0.03867560686951156,0.7329050949742133,0.2378790530535346,1.5638096124016148,0.24144195899641918,-0.3121115696116751,1.6901657747309795,-0.27550981237296995,-0.0,-0.0
0.21619634346995545,0.6974387492730401,0.7240353368281763,1.125742507117585,0.08432287272658054,0.7363010085959447,0.46724381162207285,1.3071430504792565,0.0014035316944537933,0.03867560686951156,0.7329050949742133,0.2378790530535346,1.5647961203449867,0.24168399882875927,-0.3122465337090809,1.6900041015860892,-0.27466658171293057,0.0,0.0
0.21805916343896148,0.6991108920871393,0.7245601562633242,1.1256213642038777,0.08670083830219516,0.7358643335421331,0.46604738815475694,1.3061023919870873,0.0014035316944537933,0.03867560686951156,0.7329050949742133,0.2378790530535346,1.5657747133112294,0.24192393632884435,-0.31237991237495083,1.6898405269313805,-0.27425926551104024,-0.0,-0.0
0.21993084175076516,0.7008005478315258,0.7250768160324316,1.1254875385190508,0.08909110232241903,0.7354349668865889,0.46483446857838484,1.3050408097303814,0.0014035316944537933,0.03867560686951156,0.7329050949742133,0.2378790530535346,1.5667587584055924,0.24216505003348976,-0.3125135313447418,1.6896728492959445,-0.2748082948665751,0.0,-0.0
0.22160490072984787,0.702320397213263,0.7255293213108419,1.125356948999946,0.09122987384849454,0.7350594138535396,0.4637398810108971,1.3040768888213234,0.0014035316944537933,0.03867560686951156,0.7329050949742133,0.2378790530535346,1.5676396271398887,0.242380738078421,-0.3126326865411051,1.6895198787083052,-0.27393412407888196,0.0,0.0
0.22290188799807892,0.7035038666744712,0.7258732289768358,1.1252482156918762,0.09288750469895395,0.7347743583564261,0.46288508362632924,1.303320043032289,0.0014035316944537933,0.03867560686951156,0.7329050949742133,0.2378790530535346,1.5683225903614268,0.24254786626237906,-0.31272475508842523,1.6893992809913239,-0.27393412407888196,0.0,0.0
0.2247550828196245,0.7052014583089787,0.7263572145120629,1.1250844763010828,0.09525666748821525,0.7343736257811323,0.4616562134253221,1.3022274655085084,0.0014035316944537933,0.03867560686951156,0.7329050949742133,0.2378790530535346,1.5692990021910853,0.24278669200939768,-0.3128560316085399,1.6892246539221782,-0.2730210813166813,0.0,0.0
0.22665560065694798,0.706952066650141,0.7268426813594172,1.1249042682088626,0.09768729360067027,0.7339723265060527,0.46038495836731463,1.3010905687104426,0.0014035316944537933,0.03867560686951156,0.7329050949742133,0.2378790530535346,1.5703011762941939,0.24303165375534694,-0.3129902553656474,1.6890421723775888,-0.27602981663381815,0.0,0.0
0.22860862728301562,0.7087612330205777,0.7273300628725909,1.1247061137324486,0.10018608058962733,0.7335701831310968,0.45906695593170493,1.29990487142973,0.0014035316944537933,0.03867560686951156,0.7329050949742133,0.2378790530535346,1.571331918930132,0.2432834233490625,-0.3131277585193247,1.6888510600385966,-0.2786255177878319,-0.0,0.0
0.23051466009614957,0.7105370912520801,0.7277941496086362,1.1244997030439583,0.10262573945955093,0.7331880476232904,0.45776898107724784,1.2987301749033278,0.0014035316944537933,0.03867560686951156,0.7329050949742133,0.2378790530535346,1.5723387487744522,0.24352917535581445,-0.31326152050479394,1.688660935353462,-0.27643808177723406,0.0,0.0
0.23186012941054318,0.7117700634038739,0.7280898126956361,1.124334257755812,0.10435382502545741,0.7329246565228504,0.45684185278680595,1.2978862528714574,0.0014035316944537933,0.03867560686951156,0.7329050949742133,0.2378790530535346,1.5730522549903034,0.24370320874420023,-0.3133559303315499,1.688523814060164,-0.2772467655693658,0.0,0.0
0.23263686481486393,0.7125428840429934,0.7283074436339129,1.1242575773815613,0.1054229306570177,0.7327649113097935,0.4562648764798931,1.2973589350021413,0.0014035316944537933,0.03867560686951156,0.7329050949742133,0.2378790530535346,1.5734938272541537,0.24381085991242493,-0.31341419000228227,1.6884379059432104,-0.27100796263485183,0.0,0.0
0.2333347751353049,0.7132389030350992,0.7285011526031859,1.1241866102274958,0.10638367758777025,0.7326361083839857,0.45576356775100285,1.296896347372059,0.0014035316944537933,0.03867560686951156,0.7329050949742133,0.2378790530535346,1.573890729347828,0.2439075907951813,-0.3134664621911843,1.6883601058977438,-0.26628513611013643,0.0,0.0
0.23384039145772534,0.7137552938209129,0.7286497572219944,1.1241380470196083,0.1070775348901909,0.7325442146556919,0.455400318923399,1.2965604249082938,0.0014035316944537933,0.03867560686951156,0.7329050949742133,0.2378790530535346,1.5741774302992724,0.24397744445186723,-0.31350415982778596,1.688303528998139,-0.25998753177821804,0.0,0.0
0.23401439445425123,0.7139332780394558,0.728700589803236,1.1241209870326883,0.10731634116791551,0.7325128683448162,0.45527500019561973,1.2964443519932214,0.0014035316944537933,0.03867560686951156,0.7329050949742133,0.2378790530535346,1.574276118731582,0.24400148465734794,-0.3135171209507372,1.6882839599790547,-0.24445503865621337,0.0,0.0
0.23362482067319787,0.713534580148214,0.7285870188557934,1.1241594502521661,0.10678166302950902,0.7325828348487089,0.4555558142802205,1.2967045879417536,0.0014035316944537933,0.03867560686951156,0.7329050949742133,0.2378790530535346,1.574055148265984,0.24394766067784948,-0.31348811178271857,1.68832784892562,-0.21214710815355092,0.0,0.0
0.2318954609225258,0.7117668106572218,0.7280805032819959,1.1243275314337644,0.10440833716405415,0.7328955550406716,0.45680000184755837,1.2978562123593906,0.0014035316944537933,0.03867560686951156,0.7329050949742133,0.2378790530535346,1.5730744137816217,0.24370873601559478,-0.3133592438192902,1.6885219208956102,-0.14497995181357468,0.0,0.0
0.22911782510392675,0.7089424094656287,0.7272501414712518,1.1245785355342686,0.10059759238727692,0.7334129900637083,0.45878144588979014,1.299680368657025,0.0014035316944537933,0.03867560686951156,0.7329050949742133,0.2378790530535346,1.5715004547930378,0.2433250252408156,-0.31315159865685616,1.6888282509872152,-0.09218146451948436,0.0,0.0
0.22676938250455547,0.7065747001503532,0.7265253338337339,1.1247650441674766,0.09737734596223259,0.7338709184478801,0.4604337972346524,1.3011881768159477,0.0014035316944537933,0.03867560686951156,0.7329050949742133,0.2378790530535346,1.5701714032835885,0.2430006608960986,-0.3129751454976754,1.6890799652398614,-0.06304524836127506,-0.0,0.0
0.2223292197179089,0.70213051230195,0.725118742423397,1.125076647941716,0.09129161357081393,0.7347691385618514,0.46352134713968873,1.3039842388139486,0.0014035316944537933,0.03867560686951156,0.7329050949742133,0.2378790530535346,1.5676612810647625,0.24238747886786366,-0.31264011232802197,1.6895442880511795,-0.010383034249141707,-0.0,0.0
0.21738592945475674,0.6972509688769121,0.7234769490599975,1.125337384985327,0.08452221573785534,0.7358367390405941,0.4668821508602136,1.3069828860405766,0.0014035316944537933,0.03867560686951156,0.7329050949742133,0.2378790530535346,1.5648723574946624,0.24170500315436752,-0.3122641653008768,1.6900369500794417,0.042368318364892375,0.0,0.0
0.21326538469487857,0.6932468898896433,0.7220385843862851,1.1254749868437894,0.0788852157851392,0.7367885173546519,0.4696128873939691,1.3093777176729982,0.0014035316944537933,0.03867560686951156,0.7329050949742133,0.2378790530535346,1.5625527506859875,0.24113628714016455,-0.31194808930289136,1.6904252568937106,0.06285431603473583,-0.0,0.0
0.20872625927004654,0.6888942196016759,0.7203904621504205,1.1255535452704966,0.07268103890643647,0.7378930116150398,0.4725564455551093,1.3119208122008548,0.0014035316944537933,0.03867560686951156,0.7329050949742133,0.2378790530535346,1.5600021360645326,0.24050994933901507,-0.31159745711017106,1.6908326336937836,0.09367036655558358,-0.0,0.0
0.2016812119757777,0.6822380447433953,0.7177243763748645,1.1255509116097424,0.06306134833326832,0.7397018715223982,0.47701515697272934,1.315707166450289,0.0014035316944537933,0.03867560686951156,0.7329050949742133,0.2378790530535346,1.5560511870986884,0.23953807975530658,-0.31104911496308946,1.6914303054314956,0.11866416223320692,0.0,0.0
0.19300765939705242,0.6742335503799746,0.7142372316352972,1.125310289008758,0.05123720977760852,0.7421067995869569,0.48229565921784767,1.3200657052478768,0.0014035316944537933,0.03867560686951156,0.7329050949742133,0.2378790530535346,1.5512015935205623,0.23834203476943036,-0.3103662392911608,1.6921005377412297,0.19844266310447178,0.0,0.0
0.18282348236452542,0.6651104568496269,0.7098501107573298,1.124685728600824,0.03738303546160596,0.7451822756747506,0.4881961203842019,1.3247530903402247,0.0014035316944537933,0.03867560686951156,0.7329050949742133,0.2378790530535346,1.5455279770551698,0.2369383484093425,-0.3095534058063599,1.6927937322514972,0.22243185335960047,-0.0,0.0
0.1739538290643708,0.6574472823418736,0.7057339455737204,1.1237931296790244,0.02534894174257378,0.7481116610618377,0.4930310153167069,1.3284045384206815,0.0014035316944537933,0.03867560686951156,0.7329050949742133,0.2378790530535346,1.540607048014926,0.23571648857542962,-0.3088344633981767,1.6933027997357915,0.2469841030438274,-0.0,0.0
0.1636251470046627,0.6488106177603397,0.7006450545210715,1.122400922993843,0.011369482828626267,0.7517708118032823,0.4983555021891448,1.332228679054087,0.0014035316944537933,0.03867560686951156,0.7329050949742133,0.2378790530535346,1.5348964237388016,0.2342942210164059,-0.30798629568903074,1.6938008682500785,0.26722576992526437,0.0,0.0
0.15423442620080607,0.6412632457396501,0.6957090153530014,1.120762133669103,-0.0013022945729896408,0.7553537493084976,0.5028750381905898,1.335260970510727,0.0014035316944537933,0.03867560686951156,0.7329050949742133,0.2378790530535346,1.529724576809427,0.23300168259125267,-0.3072037593568705,1.6941545758438112,0.280022110178713,-0.0,0.0
0.14677832294607682,0.6354917593802755,0.6915691888818672,1.1191917666254354,-0.011334515217549804,0.7583788127557747,0.5062330892276641,1.337353747780209,0.0014035316944537933,0.03867560686951156,0.7329050949742133,0.2378790530535346,1.5256321177913035,0.23197577985571255,-0.30657434356145546,1.6943647013761378,0.28599156705023854,0.0,0.0
0.13495648984005176,0.6266202262655147,0.684730123965756,1.1163627860210108,-0.027202854163386317,0.7633973130700433,0.5112689718522301,1.340281796784135,0.0014035316944537933,0.03867560686951156,0.7329050949742133,0.2378790530535346,1.5191601834934623,0.23034955701710647,-0.30556631487751956,1.6946096997397873,0.2908601964086564,0.0,0.0
0.12512001320913424,0.6196090166607867,0.6786797917250541,1.113560839926148,-0.04035390281230809,0.7678598330667374,0.515080471959938,1.3422112018357353,0.0014035316944537933,0.03867560686951156,0.7329050949742133,0.2378790530535346,1.5137965819659647,0.2289969043571483,-0.3047144642476035,1.6946982973324125,0.297800478437609,-0.0,0.0
0.11398360715747115,0.6120223964605049,0.6714941480078062,1.1099651186272115,-0.055191340894418864,0.7731755558582214,0.5190411339410621,1.3439265479698912,0.0014035316944537933,0.03867560686951156,0.7329050949742133,0.2378790530535346,1.5077431944842499,0.2274658071582235,-0.30373780488707375,1.6946911794639175,0.3053495890149304,0.0,0.0
0.1025882410704333,0.6046690124402437,0.6637554864742836,1.1057930353244827,-0.07031157484895646,0.7789132686787854,0.522685078009834,1.3451466082853425,0.0014035316944537933,0.03867560686951156,0.7329050949742133,0.2378790530535346,1.501570058617316,0.22589937883714664,-0.302724377625069,1.6945605354275175,0.3184350745735504,0.0,0.0
0.08964107230379657,0.5969769918545356,0.6548401700548022,1.1006936234091595,-0.08747138500436727,0.7860886392521977,0.5266465858849031,1.346078741917677,0.0014035316944537933,0.03867560686951156,0.7329050949742133,0.2378790530535346,1.494556500884946,0.2241140045689878,-0.3015528730407418,1.6942689621010651,0.3344196531031061,-0.0,0.0
0.07852317072780284,0.590827613026931,0.6467659873409427,1.0957675465854766,-0.1021300275874193,0.7925835427587382,0.5295746774179945,1.346271278816758,0.0014035316944537933,0.03867560686951156,0.7329050949742133,0.2378790530535346,1.4885550655894402,0.2225809002526157,-0.3005309547960902,1.6938800565441277,0.35823704356137853,-0.0,0.0
0.0650899012324313,0.5842982630327934,0.6374474591395096,1.0898574607043736,-0.11853463404492003,0.8002003697891884,0.5324112237195282,1.3459092147853058,0.0014035316944537933,0.03867560686951156,0.7329050949742133,0.2378790530535346,1.4818262932848674,0.22085699220564806,-0.29936653890043463,1.693309969468987,0.41071947035580825,0.0,0.0
0.050730730456061954,0.5782340545078316,0.6277488511088559,1.0834186506458365,-0.13543661321255918,0.8087574196107703,0.5350834586657557,1.3449987040759646,0.0014035316944537933,0.03867560686951156,0.7329050949742133,0.2378790530535346,1.4748761726660753,0.2190707479446396,-0.2981422216298349,1.6925655008820757,0.4555741556054465,0.0,0.0
0.03809452711942648,0.5733981376895388,0.6187613328756962,1.0771469733887606,-0.14981079182800472,0.8165567438781481,0.5370211752324223,1.3436838807050575,0.0014035316944537933,0.03867560686951156,0.7329050949742133,0.2378790530535346,1.4687781004722877,0.2174985513511873,-0.2970483833061325,1.691770814369419,0.4641493413735411,0.0,0.0
0.027187850958114587,0.5698269772824122,0.6112359242768429,1.0717029878123423,-0.1617845204385613,0.8235478877831817,0.538479556420219,1.3422358337568374,0.0014035316944537933,0.03867560686951156,0.7329050949742133,0.2378790530535346,1.4636833466993726,0.21618152849031128,-0.2961200723073783,1.6910027978294655,0.4746586037732806,0.0,0.0
0.016380894147619743,0.5667904342441172,0.604047595606954,1.0663511355754045,-0.17259848309015802,0.8308031039214416,0.5400954868236734,1.3408352151484062,0.0014035316944537933,0.03867560686951156,0.7329050949742133,0.2378790530535346,1.4587897975398019,0.21491379113566633,-0.2952167686893403,1.6901813075366692,0.49411434116549485,-0.0,0.0
0.004676236556017335,0.5640857207620357,0.5968033270222077,1.0608131141360235,-0.18326222270695222,0.8387961326115794,0.5418995046589721,1.3393177775683291,0.0014035316944537933,0.03867560686951156,0.7329050949742133,0.2378790530535346,1.4538003219229,0.21361860092191196,-0.29428427492432296,1.6892613753894428,0.4895802597885193,-0.0,-0.0
-0.006087094665352044,0.5619647738255525,0.5901383652293293,1.055570688295942,-0.19305381401094884,0.8463336205221454,0.5432974746823167,1.3375950403824415,0.0014035316944537933,0.03867560686951156,0.7329050949742133,0.2378790530535346,1.4492063273962703,0.2124236915591374,-0.2934148363594115,1.688336797567377,0.4874451869104012,-0.0,-0.0
-0.016627117806096436,0.5602752887765612,0.5838483328660543,1.0504974827621318,-0.20177109321423842,0.8537598486769981,0.5447070109104164,1.3359318625057504,0.0014035316944537933,0.03867560686951156,0.7329050949742133,0.2378790530535346,1.4448319705702541,0.2112838786270419,-0.2925773689642717,1.6873881790517025,0.491742247297703,0.0,-0.0
-0.025160257082608474,0.5591430230589772,0.5787418402250054,1.0462823657997484,-0.20860612404826004,0.8597070139769775,0.5456479208561426,1.3344202315574567,0.0014035316944537933,0.03867560686951156,0.7329050949742133,0.2378790530535346,1.4413936683750064,0.21038648770587992,-0.2919118645213708,1.6865912941496404,0.4901974531529401,0.0,-0.0
-0.031072386817534218,0.558526910303688,0.5753501031246364,1.0434282142862719,-0.21305729268011125,0.8638607809734584,0.546315301409677,1.3333757276157796,0.0014035316944537933,0.03867560686951156,0.7329050949742133,0.2378790530535346,1.439072639219856,0.20977993458140765,-0.29145873858975696,1.6860260675135545,0.49035762431179397,-0.0,-0.0
-0.03913384724601743,0.5578610672574968,0.5709545102107597,1.03967701343018,-0.21876422285300645,0.8695440028237622,0.5472841665418193,1.3320018756119916,0.0014035316944537933,0.03867560686951156,0.7329050949742133,0.2378790530535346,1.4359863658168406,0.20897272332156613,-0.2908527129763417,1.6852499262437928,0.4918593142976864,0.0,0.0
-0.045787979419513195,0.5574640304101071,0.5674369970162103,1.0366214799491906,-0.22344606306502907,0.8745385707782446,0.5481566967308107,1.3308164063588435,0.0014035316944537933,0.03867560686951156,0.7329050949742133,0.2378790530535346,1.4333561126999483,0.20828402727407458,-0.2903322372838762,1.684560569868315,0.49341945572031926,-0.0,-0.0
-0.05272532853660816,0.5571829717401925,0.563892050335046,1.0334954893333872,-0.2280626279647045,0.8795198807030193,0.54894153828133,1.3295529982402594,0.0014035316944537933,0.03867560686951156,0.7329050949742133,0.2378790530535346,1.4307587891036961,0.2076033280232223,-0.28981489091090384,1.6838563042705232,0.49542536843846763,0.0,-0.0
-0.05982527546647121,0.5569857403127564,0.5601782436688064,1.0301811836254522,-0.23260583788170158,0.8846267104203835,0.5497273634063755,1.3282410744152156,0.0014035316944537933,0.03867560686951156,0.7329050949742133,0.2378790530535346,1.428100566594294,0.20690604651090738,-0.28928196811066315,1.6831116767707874,0.49666231355672524,0.0,0.0
-0.06567237924221368,0.5569002431572369,0.5570468408525042,1.0273535446439588,-0.23634235120867306,0.8888730353122848,0.5503109436706034,1.327084132027,0.0014035316944537933,0.03867560686951156,0.7329050949742133,0.2378790530535346,1.4259112030568035,0.20633123596829556,-0.28884011680222743,1.6824782325771597,0.4772411346457301,0.0,-0.0
-0.06947229556600092,0.5569039239348543,0.5550609078425592,1.0255374735140432,-0.23877368091415313,0.8916608732013378,0.5506568798000698,1.3262894302619193,0.0014035316944537933,0.03867560686951156,0.7329050949742133,0.2378790530535346,1.4244848792510933,0.20595648661931598,-0.2885506790125246,1.682054715850563,0.41188169236395855,0.0,-0.0
-0.06994423288424352,0.5569110077931608,0.5548282156558451,1.0253221776967265,-0.23906833715401266,0.892009630545256,0.5507010187337732,1.326190904729203,0.0014035316944537933,0.03867560686951156,0.7329050949742133,0.2378790530535346,1.4243118831973607,0.20591101273531062,-0.2885154480221369,1.6820024900057735,0.34650623887895377,0.0,-0.0
-0.06848632014302161,0.5568879066904531,0.5555482179257452,1.0259888349234407,-0.23819316041719635,0.8909400872932582,0.5505529188472278,1.3264807623309776,0.0014035316944537933,0.03867560686951156,0.7329050949742133,0.2378790530535346,1.424846314851321,0.20605150178605874,-0.2886243333119281,1.6821641517126626,0.2839338982656605,0.0,-0.0
-0.06591190946361049,0.5568537542245465,0.5568132436676462,1.0271575046679877,-0.2366474111834764,0.8890550706121438,0.5502858391130393,1.3269859037900167,0.0014035316944537933,0.03867560686951156,0.7329050949742133,0.2378790530535346,1.4257899654242312,0.20629952136710134,-0.2888163354716285,1.6824478432813572,0.24749222526499212,0.0,-0.0
-0.062350344188463545,0.5568226838971863,0.5585478231204529,1.0287535397357181,-0.23450808976711823,0.8864560430794288,0.5499027729596796,1.327668393371517,0.0014035316944537933,0.03867560686951156,0.7329050949742133,0.2378790530535346,1.4270953225184473,0.2066425024229125,-0.28908130535567095,1.6828359896481717,0.2156516102805723,0.0,-0.0
-0.0577390047976508,0.5568113146907553,0.5607659808713151,1.0307830174863821,-0.23173662942658033,0.8831066865189011,0.5493825157985889,1.3285227829515422,0.0014035316944537933,0.03867560686951156,0.7329050949742133,0.2378790530535346,1.4287852212747905,0.20708633061537066,-0.28942321132449866,1.6833308125546855,0.18202376635994355,0.0,-0.0
-0.05157243795857793,0.5568458089537264,0.5636845367807276,1.0334333574754109,-0.22802765105851747,0.8786549227675218,0.5486448285272988,1.329614692602791,0.0014035316944537933,0.03867560686951156,0.7329050949742133,0.2378790530535346,1.4310447563135147,0.20767943269696457,-0.28987843622586035,1.683979181037774,0.13261661131822422,0.0,-0.0
-0.0450057748498551,0.5569528277305579,0.5667249568489564,1.0361658787307981,-0.22407385912866265,0.8739529853093965,0.5477996481920546,1.3307053972020328,0.0014035316944537933,0.03867560686951156,0.7329050949742133,0.2378790530535346,1.4334505898553263,0.20831045681909438,-0.2903604001484616,1.6846507008273153,0.09640396677154657,0.0,-0.0
-0.039455612319592756,0.5571060338387199,0.569234431752107,1.038395447052781,-0.22072816677180224,0.8700136183196087,0.5470317581452261,1.331562453065903,0.0014035316944537933,0.03867560686951156,0.7329050949742133,0.2378790530535346,1.4354838792254498,0.20884332887475351,-0.2907652859092177,1.6852013306887528,0.07684571421832667,0.0,-0.0
-0.03031966673364489,0.5574448724673078,0.5732818944605809,1.0419553016286796,-0.21521520181658946,0.8635773706319722,0.5456934217145778,1.332883074763976,0.0014035316944537933,0.03867560686951156,0.7329050949742133,0.2378790530535346,1.4388308412048,0.20971986259227468,-0.2914283794019111,1.6860842464123762,0.037872499783196685,0.0,-0.0
-0.02352796872957816,0.5578019706507912,0.5761895510861614,1.0444682527523215,-0.211109491240252,0.8588515840851481,0.5446077323605386,1.3337544908040782,0.0014035316944537933,0.03867560686951156,0.7329050949742133,0.2378790530535346,1.4413192654949605,0.21037078782845803,-0.2919172683864681,1.686712031536106,0.019064773784685646,0.0,-0.0
-0.013162961770761365,0.5584652379747311,0.5805130736375154,1.048153707513932,-0.20483483827489748,0.851706201848205,0.5428480586534066,1.3349591004142691,0.0014035316944537933,0.03867560686951156,0.7329050949742133,0.2378790530535346,1.4451176324793047,0.21136348331403895,-0.29265888356527436,1.6876378659472417,-0.0012616907842450467,0.0,-0.0
-0.001565171400720107,0.5594077599421894,0.5851575584794061,1.0520246366183792,-0.1977980619189945,0.843825001236716,0.5407039123119304,1.336092742836553,0.0014035316944537933,0.03867560686951156,0.7329050949742133,0.2378790530535346,1.4493695491795668,0.2124731739745351,-0.2934811912777315,1.6886189901163482,-0.0399834189460406,-0.0,-0.0
0.010177734310151086,0.5605868332237519,0.5896429702310946,1.0556612298150914,-0.19065409571628883,0.8359744543886602,0.5383347883598976,1.3369971725026486,0.0014035316944537933,0.03867560686951156,0.7329050949742133,0.2378790530535346,1.4536776113884866,0.21359573292283868,-0.2943055181930411,1.6895506041316914,-0.08779050543956701,-0.0,-0.0
0.025359573342886084,0.5624026224827074,0.5951597365760009,1.0599972936598776,-0.18139123704974938,0.8259943833870266,0.5350127057630353,1.3378465089741565,0.0014035316944537933,0.03867560686951156,0.7329050949742133,0.2378790530535346,1.4592524844003598,0.21504599031990412,-0.2953607531286094,1.6906745458965229,-0.154173036904808,-0.0,-0.0
0.04224488380821874,0.5648373513216148,0.6008922646124463,1.0643006426657438,-0.17104777349856562,0.8151392504173897,0.530945285260301,1.3383282499797367,0.0014035316944537933,0.03867560686951156,0.7329050949742133,0.2378790530535346,1.465462385609822,0.21665790276723376,-0.2965197668837626,1.6918092926394928,-0.20789950662518772,-0.0,-0.0
0.061780718429842826,0.5681836122325846,0.6070085802880366,1.0686195964084206,-0.1590231789651015,0.802897294959124,0.5257593223647358,1.3382842822844052,0.0014035316944537933,0.03867560686951156,0.7329050949742133,0.2378790530535346,1.4726626126068294,0.21852215908434036,-0.2978425973105834,1.6929742318240644,-0.2372051248067708,-0.0,-0.0
0.07801282019484522,0.5714688394381625,0.6115959672007432,1.071580596875919,-0.14897196676297353,0.7930338181899634,0.5209873379247517,1.337661876856408,0.0014035316944537933,0.03867560686951156,0.7329050949742133,0.2378790530535346,1.4786637472120547,0.22007123883381483,-0.29892498939783374,1.6938000896318532,-0.24638625537447384,0.0,-0.0
0.09634670082242894,0.5756507183738597,0.6163132593403662,1.0743406332648946,-0.137558196541666,0.7821865939973802,0.5151603964828864,1.3363996847173083,0.0014035316944537933,0.03867560686951156,0.7329050949742133,0.2378790530535346,1.4854630513960005,0.22182174401245422,-0.30013245210421546,1.694599335860809,-0.25440541328636196,0.0,-0.0
0.11473597015392013,0.5803778496644557,0.6205173412441661,1.0764494924871633,-0.12603566647872017,0.7716446131947357,0.5088171955961287,1.3344884247085103,0.0014035316944537933,0.03867560686951156,0.7329050949742133,0.2378790530535346,1.4923105834807338,0.22357924746291521,-0.30132701299765763,1.6952490661820516,-0.2620420164698945,-0.0,-0.0
0.13322355496448843,0.585667359387875,0.6242085652656348,1.0779051564326123,-0.11437105843381783,0.7613944449323706,0.5019322904744498,1.3319012733973632,0.0014035316944537933,0.03867560686951156,0.7329050949742133,0.2378790530535346,1.4992268746708426,0.22534870549123184,-0.3025117862063592,1.69574796253887,-0.2687338464287877,0.0,-0.0
0.1507953097175309,0.5912910795845413,0.6273972972240864,1.078798103647477,-0.1029060706453107,0.7517440674163344,0.4947109842450141,1.3287070203713258,0.0014035316944537933,0.03867560686951156,0.7329050949742133,0.2378790530535346,1.5060104564381602,0.22707838824100782,-0.3036522510893507,1.6960818213222175,-0.27905564581830733,0.0,-0.0
0.16883399326944465,0.5976444215082432,0.6303160091107162,1.0792009563008271,-0.0909186816251675,0.742671357186108,0.4873753159701934,1.3251314179207534,0.0014035316944537933,0.03867560686951156,0.7329050949742133,0.2378790530535346,1.512817410210882,0.2288081174815306,-0.30477536852139725,1.6962641694694156,-0.27905564581830733,0.0,0.0
0.18365154479154747,0.6035149935657579,0.6327398991727885,1.0793314593119423,-0.08075272381667473,0.7353380945022795,0.4807831300196715,1.321550051777851,0.0014035316944537933,0.03867560686951156,0.7329050949742133,0.2378790530535346,1.5185796186946905,0.2302671880690409,-0.30570795878556223,1.6962890870718679,-0.27702070082529895,0.0,-0.0
0.19738752171426568,0.609520165065575,0.635088201874184,1.0793489807682966,-0.07028050068373434,0.7287468488084053,0.47451766115329774,1.3179650871849005,0.0014035316944537933,0.03867560686951156,0.7329050949742133,0.2378790530535346,1.524083936941103,0.23165665053951442,-0.3065840485365812,1.6962083522527003,-0.2781808904638747,-0.0,0.0
0.20990286862907762,0.6155120386182128,0.6373475621697294,1.0792925410930327,-0.06043019906834601,0.7228209882135693,0.468349120812053,1.3141769842432565,0.0014035316944537933,0.03867560686951156,0.7329050949742133,0.2378790530535346,1.5292547852973364,0.23295797488107667,-0.3073937248757655,1.696038774667671,-0.2809605112581894,-0.0,-0.0
0.22170489468767596,0.6215640999737473,0.6394396211429019,1.0790688232154122,-0.050770690221201925,0.7175970166982313,0.46252850088657693,1.3104268742766372,0.0014035316944537933,0.03867560686951156,0.7329050949742133,0.2378790530535346,1.5341455235975512,0.23418520572757523,-0.30814759799892005,1.6957951374013687,-0.2793704193684941,-0.0,0.0
0.23296072950441882,0.6275942651219771,0.6411740426841809,1.0785398035898845,-0.04118085617219085,0.7127893401132734,0.4567438138689961,1.3065177142366096,0.0014035316944537933,0.03867560686951156,0.7329050949742133,0.2378790530535346,1.5388349879222338,0.23535859705913018,-0.3088595241910862,1.6954860450843918,-0.2793704193684941,0.0,0.0
0.2415332143559441,0.6326240729186959,0.6427512601620916,1.0782132211153754,-0.033422568767418975,0.7092006501820685,0.4520758175573296,1.3032236256578653,0.0014035316944537933,0.03867560686951156,0.7329050949742133,0.2378790530535346,1.5426260047682545,0.2363045443371076,-0.3094265110574294,1.6951776593933754,-0.28019525016697655,-0.0,-0.0
0.248960563942003,0.637204616058803,0.644136797621485,1.077871774651593,-0.02646146057217797,0.706300979428639,0.44807827095020253,1.3003174761154475,0.0014035316944537933,0.03867560686951156,0.7329050949742133,0.2378790530535346,1.5459161771187668,0.2371236363522439,-0.30991254403397234,1.6948689535078216,-0.28019525016697655,0.0,0.0
0.2563720632086352,0.6419734119478996,0.6455308693164006,1.0774744455673446,-0.01904561653236892,0.7034126265989792,0.44385262904083916,1.2971597538719417,0.0014035316944537933,0.03867560686951156,0.7329050949742133,0.2378790530535346,1.549310562617683,0.23796696167601417,-0.31040851372341494,1.6945136913113092,-0.2812641746702103,-0.0,-0.0
0.26382297900279494,0.6469859772667781,0.6469631927468935,1.0770285148790972,-0.011578778332236743,0.7007257811199818,0.439656555016465,1.293935631203769,0.0014035316944537933,0.03867560686951156,0.7329050949742133,0.2378790530535346,1.552727292351106,0.23881403851984156,-0.31090203601436434,1.6941178813735125,-0.28256559244950674,0.0,-0.0
0.2706486674512435,0.6516961821761723,0.6481552669411007,1.0764760969163054,-0.004709750553352503,0.6983626154789689,0.43569141976156095,1.29080319775669,0.0014035316944537933,0.03867560686951156,0.7329050949742133,0.2378790530535346,1.5558698322750701,0.23959144954040582,-0.3113506206162477,1.6937184415386175,-0.28108515385764155,0.0,0.0
0.2767229650939836,0.6560591745414011,0.6492338617331975,1.0759427551903649,0.0018134751395287836,0.6962780846905262,0.43195229293325754,1.2877780908308467,0.0014035316944537933,0.03867560686951156,0.7329050949742133,0.2378790530535346,1.5587634309567997,0.24030582799270592,-0.31175911460215316,1.6933206507536915,-0.28108515385764155,0.0,0.0
0.2827428533325012,0.6604713807634432,0.6502124215318643,1.0753065230285277,0.008300499773603977,0.6942937317197893,0.42814911166122976,1.2846335694019264,0.0014035316944537933,0.03867560686951156,0.7329050949742133,0.2378790530535346,1.561640890734959,0.24101487970469207,-0.31216112474198865,1.692897596921013,-0.2797900434031747,-0.0,-0.0
0.2882261099503226,0.6646468662825029,0.6511358948668121,1.0747028765092326,0.014392591751139827,0.69263916976532,0.4247427894126648,1.281755870596039,0.0014035316944537933,0.03867560686951156,0.7329050949742133,0.2378790530535346,1.564263797661376,0.24165997531625977,-0.31252372831047365,1.6924870395380787,-0.28009149703213754,0.0,0.0
0.2927136346760056,0.668125909251892,0.651827978712269,1.074133348811063,0.01939378411068107,0.691341969930929,0.42188801594236647,1.2792991207313023,0.0014035316944537933,0.03867560686951156,0.7329050949742133,0.2378790530535346,1.5664172503747609,0.2421886795947891,-0.3128185329479709,1.692131294014254,-0.28193307408560786,0.0,0.0
0.2970081307161038,0.6716282935255135,0.6526189665505391,1.0736422541974915,0.02433035469194244,0.6901674194983083,0.4191368700879746,1.276893682097973,0.0014035316944537933,0.03867560686951156,0.7329050949742133,0.2378790530535346,1.5685431656120707,0.24270986163309868,-0.3131072006119779,1.6917649535189188,-0.285091349660382,0.0,0.0
0.3007176970026466,0.6747552200005235,0.653341170097534,1.0732180801111961,0.028744336369638815,0.6891600339598059,0.41663612354861645,1.2746764882114996,0.0014035316944537933,0.03867560686951156,0.7329050949742133,0.2378790530535346,1.5704443625582485,0.2431752748944149,-0.3133632513333947,1.6914239573849612,-0.2814110545889676,0.0,0.0
0.30475124693396843,0.678196892330691,0.6540835201679217,1.0727060778858744,0.033553686762248895,0.6881044053727001,0.41387152152093964,1.2721955346572735,0.0014035316944537933,0.03867560686951156,0.7329050949742133,0.2378790530535346,1.5725162513113888,0.24368180802880635,-0.31364022743011827,1.6910392976817856,-0.2778182649883224,-0.0,-0.0
0.3081711167212983,0.6812127046000467,0.6547538920546973,1.0722750390809204,0.03777834288932849,0.6872175603922296,0.41140480258099243,1.2699533792505804,0.0014035316944537933,0.03867560686951156,0.7329050949742133,0.2378790530535346,1.5743366963037202,0.24412622662037076,-0.3138816019244445,1.6906888169688277,-0.27780769252458415,0.0,0.0
0.3117333037763466,0.6843831169720156,0.6554072507225638,1.0717778087043974,0.042155989508496666,0.6864122167668325,0.4089820045038039,1.2677185321362394,0.0014035316944537933,0.03867560686951156,0.7329050949742133,0.2378790530535346,1.5761696247138097,0.24457312070660528,-0.3141228617151581,1.6903248634149899,-0.27920062563608733,0.0,0.0
0.31522010588438293,0.6875224329766745,0.6560093420146483,1.0712470717852243,0.046449284547321334,0.6856582673878859,0.40657181818111404,1.2654707554940032,0.0014035316944537933,0.03867560686951156,0.7329050949742133,0.2378790530535346,1.5779677559144096,0.2450109619175317,-0.31435778260922836,1.6899568775762,-0.27959081770761385,-0.0,0.0
0.3176029152676952,0.6897750727659807,0.6565036374461389,1.0709203625375059,0.04956532714451861,0.6851869123812522,0.4049122216409426,1.2638994237400973,0.0014035316944537933,0.03867560686951156,0.7329050949742133,0.2378790530535346,1.5792369750436144,0.24531961762220936,-0.31452237736121025,1.689689550681764,-0.2782526563376352,0.0,0.0
0.31917339809031703,0.6913033589580763,0.6568583383437139,1.0707155579198893,0.05169307007205803,0.6848772275632403,0.4037673630060159,1.2628073787677343,0.0014035316944537933,0.03867560686951156,0.7329050949742133,0.2378790530535346,1.5801038610181308,0.24553023940960952,-0.3146342028671,1.6895033064123772,-0.2736848973671366,0.0,0.0
0.3198735779843881,0.6920036368877719,0.6570323328924875,1.0706316559822906,0.052676627327309544,0.6847475092956162,0.40325667837595275,1.2623161754805836,0.0014035316944537933,0.03867560686951156,0.7329050949742133,0.2378790530535346,1.5805046557671416,0.2456275569785875,-0.314685715830256,1.6894160428041272,-0.2737375509034865,0.0,0.0
0.32053709281998066,0.6926722537668762,0.6571999564000306,1.0705528535077409,0.05364697555709182,0.684621243496124,0.40275121098282374,1.2618288803305309,0.0014035316944537933,0.03867560686951156,0.7329050949742133,0.2378790530535346,1.5809001026817542,0.24572354813508182,-0.3147364553600102,1.6893294161926016,-0.27243012704286945,0.0,0.0
0.3213810430827715,0.6935202234619501,0.6574056423109861,1.0704469696788306,0.05486627136009014,0.68448257919208,0.4021557697880956,1.2612502508479628,0.0014035316944537933,0.03867560686951156,0.7329050949742133,0.2378790530535346,1.581383616462583,0.24584088302258222,-0.31479839068654303,1.6892228613237785,-0.27989648873234513,0.0,-0.0
0.32223779804074426,0.6943835066022973,0.6576119133988995,1.070336495270312,0.056104597681855745,0.684344343828911,0.4015485204476137,1.2606585031591873,0.0014035316944537933,0.03867560686951156,0.7329050949742133,0.2378790530535346,1.5818747326892126,0.24596002088507166,-0.31486117048541884,1.689113840628494,-0.2807347854437883,-0.0,-0.0
