muneebpandith/TeleoperationWork/DATASET/TRANSORMER_DATA/training_data_for_transformer1686208911.7844331.csv
J0,J1,J2,J3,J4,J5,J6,J7,J8,J9,J10,J11,J12,J13,J14,J15,ThetaXHG,ThetaYHG,ThetaZHG
0.03858300403926662,0.6318493848449218,0.6810031278412192,1.1013865597700732,-0.007449134249938972,0.7651263779984208,0.5032144151487478,1.334012369786999,-0.006465704000996881,-0.11340014653373168,0.7223218843002908,0.2378790530535346,1.4820291445060445,0.23489394139203554,-0.29281471273366017,1.6806573649520327,0.0025807964981591886,-0.0,-0.0
0.03897852068155292,0.6320083910482934,0.6811889650084527,1.101492078997523,-0.007060709665325148,0.7649469703749937,0.503028431670875,1.3339014313764797,-0.006465704000996881,-0.11340014653373168,0.7223218843002908,0.2378790530535346,1.4822065563078617,0.2349401933226255,-0.2928453723956927,1.680674440567278,0.006913783625417046,0.0,0.0
0.03882874385228422,0.631948054429458,0.6811187177400195,1.1014522754519827,-0.007207806171276566,0.7650148020901903,0.5030989877896707,1.3339436208588464,-0.006465704000996881,-0.11340014653373168,0.7223218843002908,0.2378790530535346,1.4821393689852005,0.23492267889335242,-0.29283376700995767,1.680668013930459,0.005999070630197362,-0.0,-0.0
0.039223899250368024,0.6321071172220539,0.6813041773735414,1.10155744392917,-0.006819727595181456,0.7648357345778078,0.5029129665326966,1.333832491055805,-0.006465704000996881,-0.11340014653373168,0.7223218843002908,0.2378790530535346,1.482316625061464,0.23496888766796567,-0.29286439044489326,1.6806850089247238,0.006086343413987718,-0.0,-0.0
0.039012415956898236,0.6320243318279085,0.6812088031790822,1.1015036992363005,-0.007021205267033236,0.7649285499770231,0.5030097125164009,1.3338904283796733,-0.006465704000996881,-0.11340014653373168,0.7223218843002908,0.2378790530535346,1.4822245975611044,0.23494489921418926,-0.29284849920019573,1.6806762402863331,0.008255945076130538,0.0,0.0
0.03877827817454074,0.6319327783387181,0.6811031088070085,1.1014440710229008,-0.007244261291814986,0.7650313925124248,0.5031167224178232,1.333954431485019,-0.006465704000996881,-0.11340014653373168,0.7223218843002908,0.2378790530535346,1.4821227150097278,0.23491834065322692,-0.2928309017224237,1.6806665011384878,0.009116427975554888,-0.0,0.0
0.03854393980726539,0.6318412572769824,0.6809972091864773,1.1013842517692187,-0.0074675036288392145,0.7651344168403068,0.5032237135282909,1.3340183336953613,-0.006465704000996881,-0.11340014653373168,0.7223218843002908,0.2378790530535346,1.482020748611609,0.2348917588740454,-0.2928132848097684,1.6806567190802901,0.009116427975554888,0.0,0.0
0.038854078313813815,0.6319622352801748,0.6811375155049203,1.10146360584418,-0.007172056651279585,0.7649979437422455,0.5030822609127344,1.3339339676083966,-0.006465704000996881,-0.11340014653373168,0.7223218843002908,0.2378790530535346,1.4821556929796968,0.23492693953371735,-0.29283660594388217,1.6806697110728412,0.01169703608426873,-0.0,-0.0
0.03857221746016439,0.6318521110926775,0.6810101847144898,1.101391710104289,-0.007440573121896405,0.765121824349233,0.5032109922179451,1.334010889431648,-0.006465704000996881,-0.11340014653373168,0.7223218843002908,0.2378790530535346,1.4820330470549548,0.2348949673057956,-0.29281541812174616,1.6806579587291035,0.0109480281176345,-0.0,-0.0
0.03833556002054473,0.6317597828594766,0.6809031351453548,1.1013311744668763,-0.007666020475137139,0.7652259514849014,0.5033189439538754,1.3340752856389841,-0.006465704000996881,-0.11340014653373168,0.7223218843002908,0.2378790530535346,1.4819300746305275,0.2348681220541756,-0.2927976229943703,1.680648049143321,0.00920301249709808,0.0,0.0
0.03867940259279774,0.6318978469287294,0.6810648669243855,1.1014231197563091,-0.007328350929119509,0.7650698458757327,0.5031574218663867,1.3339790704555314,-0.006465704000996881,-0.11340014653373168,0.7223218843002908,0.2378790530535346,1.4820843023240369,0.2349083318031155,-0.29282428334673194,1.6806629446468444,0.010031398691988816,-0.0,-0.0
0.03917998254649752,0.6320932536595868,0.6812911826727446,1.1015510225350758,-0.006851477911885738,0.7648496960393435,0.5029289628544856,1.333842691854017,-0.006465704000996881,-0.11340014653373168,0.7223218843002908,0.2378790530535346,1.4823021139965813,0.23496511456580904,-0.29286191903766445,1.6806838683223406,0.004329731203850255,-0.0,-0.0
0.03906875865984835,0.6320497237320929,0.6812410139617414,1.1015227458401458,-0.006957439200442801,0.7648985160764279,0.5029798362623666,1.333873151831167,-0.006465704000996881,-0.11340014653373168,0.7223218843002908,0.2378790530535346,1.4822537149345762,0.23495249847573274,-0.2928535611868959,1.6806792543665536,0.00432163965525259,0.0,-0.0
0.03960663010368565,0.632266510341562,0.6814931717696406,1.1016655497619638,-0.0064291887329766696,0.7646550249662802,0.502726337855683,1.3337214727713516,-0.006465704000996881,-0.11340014653373168,0.7223218843002908,0.2378790530535346,1.4824949981192272,0.2350153948284989,-0.29289523303359116,1.680702295481697,-0.0001337340084046467,0.0,-0.0
0.03964731356912233,0.6322829530808731,0.68151219762941,1.101676293856167,-0.0063892310037754075,0.7646366475656459,0.5027071169739267,1.333709934070955,-0.006465704000996881,-0.11340014653373168,0.7223218843002908,0.2378790530535346,1.4825132497063227,0.23502015197297632,-0.29289838315279404,1.6807040236088624,-0.002046352811312405,0.0,-0.0
0.03971344002523973,0.6323088966099731,0.681541959106854,1.1016930252298878,-0.006326230637249206,0.7646076772227525,0.5026768064158834,1.3336917334784129,-0.006465704000996881,-0.11340014653373168,0.7223218843002908,0.2378790530535346,1.4825420265981715,0.23502765239328108,-0.2929033496288336,1.6807067465464935,-0.002869072790617274,0.0,0.0
0.04055268795529983,0.632638272549936,0.6819195626843699,1.1019052309867166,-0.005526652824249123,0.7642400932224478,0.5022920063919183,1.3334605819043883,-0.006465704000996881,-0.11340014653373168,0.7223218843002908,0.2378790530535346,1.482907253768367,0.23512284396620345,-0.2929663775550826,1.6807412699080757,-0.005859264601569194,0.0,0.0
0.04133425859839283,0.6329556690745379,0.6822835046809441,1.1021097256801604,-0.004758957798363974,0.7638883500697806,0.501921217023982,1.333236742820724,-0.006465704000996881,-0.11340014653373168,0.7223218843002908,0.2378790530535346,1.483257933450264,0.23521422711819223,-0.29302683394322454,1.6807739880422476,-0.01108244182600923,-0.0,-0.0
0.04228466581353606,0.6333318005925141,0.6827078831263415,1.1023460877971534,-0.0038533403209161906,0.7634747553041659,0.5014823028250295,1.3329705305512978,-0.006465704000996881,-0.11340014653373168,0.7223218843002908,0.2378790530535346,1.4836716337675013,0.23532201365949357,-0.2930980858009178,1.680812098831867,-0.013317848726332624,-0.0,-0.0
0.04327192480266208,0.6337362469746987,0.6831639697693082,1.1025999621197617,-0.002883454227909874,0.7630335059728004,0.5010103335090119,1.3326826967229441,-0.006465704000996881,-0.11340014653373168,0.7223218843002908,0.2378790530535346,1.4841147165812634,0.23543743145325832,-0.29317431086707774,1.680852301019411,-0.015431459400268964,-0.0,0.0
0.043642986914768075,0.633884557140794,0.6833281449838754,1.1026904012928036,-0.0025298160590376847,0.7628732817588045,0.5008375004074482,1.3325766805164116,-0.006465704000996881,-0.11340014653373168,0.7223218843002908,0.2378790530535346,1.4842762820978457,0.23547950790110941,-0.2932020714284872,1.6808667200488177,-0.014401771506214068,-0.0,-0.0
0.0456808645570024,0.6347006011831814,0.6842282161578566,1.1031851713188474,-0.0005875645379554827,0.7619946278474847,0.49988677576559,1.3319922805609863,-0.006465704000996881,-0.11340014653373168,0.7223218843002908,0.2378790530535346,1.4851636515907627,0.2357105862654965,-0.2933544730009716,1.680945432835803,-0.05530333128156005,-0.0,-0.0
0.04685464399576675,0.6351896309376113,0.6847620108443213,1.1034767026994026,0.0005659211269924613,0.7614771450779801,0.499317287974156,1.3316382317828532,-0.006465704000996881,-0.11340014653373168,0.7223218843002908,0.2378790530535346,1.4856907162021524,0.2358477763638456,-0.2934447710598087,1.680990616038521,-0.05125821957958727,-0.0,0.0
0.04946856361029519,0.6362533139951443,0.6858988696679275,1.1040898970395252,0.003057923726034761,0.7603647514645738,0.4980807251734397,1.3308643721559705,-0.006465704000996881,-0.11340014653373168,0.7223218843002908,0.2378790530535346,1.4868294781419122,0.236144105981166,-0.2936395807660355,1.681086224500908,-0.14332358219959943,-0.0,-0.0
0.05178902061529033,0.6372380604877478,0.6869354734725454,1.1046435492692663,0.005339063380497153,0.7593575453800449,0.4969364683958986,1.3301382278399148,-0.006465704000996881,-0.11340014653373168,0.7223218843002908,0.2378790530535346,1.487872057819861,0.2364152488563861,-0.2938173709379466,1.6811697767210796,-0.09210503117375932,-0.0,-0.0
0.05835430245965418,0.6399750676404258,0.6897227191533559,1.1061010733995555,0.011601003136513171,0.7566205489886327,0.49376441320104775,1.3281001431964519,-0.006465704000996881,-0.11340014653373168,0.7223218843002908,0.2378790530535346,1.490734501627689,0.23715928301511585,-0.29430407968154504,1.6813891706809758,-0.28100221501673134,-0.0,-0.0
0.06021327339209157,0.6407975984989468,0.6905180856990378,1.1065021662653372,0.013429998680436485,0.7558435865546373,0.49281310602039113,1.3274688383733255,-0.006465704000996881,-0.11340014653373168,0.7223218843002908,0.2378790530535346,1.4915709618124597,0.23737638145764117,-0.29444516496813816,1.6814452627920113,-0.08064378630082279,-0.0,-0.0
0.11525063522349889,0.6377368193244334,0.6762724888903289,1.0953973950704372,-0.01621419149975742,0.7492027335977353,0.4861690342581,1.3235641770513178,-0.006465704000996881,-0.11340014653373168,0.7223218843002908,0.2378790530535346,1.518689716499919,0.2444118129030776,-0.2990084695801655,1.6831879101977496,-0.4886052475954129,0.0,0.0
0.11368436514654481,0.6369547430822204,0.675703007321798,1.0951720730589452,-0.017768531486789946,0.74988924711055,0.48693726972586693,1.3240525967540568,-0.006465704000996881,-0.11340014653373168,0.7223218843002908,0.2378790530535346,1.5179767264381108,0.24422954735530703,-0.2988977252922461,1.6832065610483786,0.062449816996520024,0.0,0.0
0.13485071063423787,0.6474541344129894,0.6834704652486178,1.098303335469943,0.0032279206523262785,0.740551137469498,0.476629675672845,1.3175571334787606,-0.006465704000996881,-0.11340014653373168,0.7223218843002908,0.2378790530535346,1.5276079181101299,0.24669266593368538,-0.3003969926440304,1.682977422046045,-0.8472836556080715,0.0,0.0
0.12464341540198286,0.6420677505073307,0.6803690485783881,1.0974625189520077,-0.006649117611208993,0.7445305065802039,0.48192153787894904,1.3212660035324637,-0.006465704000996881,-0.11340014653373168,0.7223218843002908,0.2378790530535346,1.5230769237175497,0.24554057312658897,-0.2997128147706197,1.683230067722577,0.441203352047685,0.0,0.0
0.1551148721778114,0.6583159521262079,0.6914268712812368,1.1014641081385703,0.023583954477475695,0.7317492018459597,0.4663614408299667,1.3108637082063634,-0.006465704000996881,-0.11340014653373168,0.7223218843002908,0.2378790530535346,1.536941147631037,0.24907567600597133,-0.3018369391123162,1.6826654233457878,-1.2429959866781821,0.0,0.0
0.13389248676183196,0.6456116134473374,0.6851807200201838,1.100408974430602,0.002356983401157399,0.7394222019940443,0.4786522254791694,1.3202170375331053,-0.006465704000996881,-0.11340014653373168,0.7223218843002908,0.2378790530535346,1.5272005583714163,0.24661318828924536,-0.30041066963157753,1.6835101333708595,0.880344047261597,0.0,0.0
0.16608256094543228,0.6634127908121481,0.6962008196102863,1.1038366481346908,0.03437380227277391,0.7264567220844056,0.4615635543225426,1.3083096564741739,-0.006465704000996881,-0.11340014653373168,0.7223218843002908,0.2378790530535346,1.5418711046512767,0.25034512017680394,-0.3026293000156824,1.682711815963977,-1.316390818684839,0.0,0.0
0.1428258039259527,0.6489500326999771,0.6899335799763158,1.1033623811987923,0.011043253007587937,0.7343752546291177,0.47560125013607824,1.3193926702322347,-0.006465704000996881,-0.11340014653373168,0.7223218843002908,0.2378790530535346,1.531168424466598,0.24764756114968942,-0.30108800572758626,1.683814900198197,1.047907722015795,0.0,0.0
0.1619660933010287,0.6601676620597021,0.6964620226971313,1.1051556856789988,0.03073313761990825,0.7267408816168278,0.46473227913469817,1.311541488351955,-0.006465704000996881,-0.11340014653373168,0.7223218843002908,0.2378790530535346,1.5401829436502945,0.24993550641303275,-0.30243411696501427,1.6832057175177655,-1.170929196798648,0.0,0.0
0.1359721241600897,0.6438381510877437,0.688751558854193,1.1040853746244745,0.0038567159777867614,0.7360756470467181,0.48068974105944046,1.3239673214130654,-0.006465704000996881,-0.11340014653373168,0.7223218843002908,0.2378790530535346,1.527866306506087,0.24682732363904777,-0.3006496416228112,1.684406108895571,1.08514721419693,0.0,0.0
0.15908888604452665,0.6570340850618619,0.697002963177725,1.1066832431916358,0.027595653927172316,0.7265212055436707,0.46795067215811476,1.3150600247875648,-0.006465704000996881,-0.11340014653373168,0.7223218843002908,0.2378790530535346,1.5387218609536812,0.24958862114137545,-0.30228844476190314,1.6837912702045141,-1.1025855743210624,0.0,0.0
0.1404945524869824,0.6454752877298362,0.6913574059667371,1.1057693279350176,0.008383125235176973,0.7333268927129376,0.47922474183375263,1.3237272492243892,-0.006465704000996881,-0.11340014653373168,0.7223218843002908,0.2378790530535346,1.5299282627842419,0.247367001767576,-0.3010076662101033,1.6846056498408513,1.101043765326238,-0.0,-0.0
0.1660270539470269,0.6603017709603906,0.7002091731493296,1.108322103160636,0.03463557790887092,0.7229946932973766,0.4648882716693035,1.313513524721339,-0.006465704000996881,-0.11340014653373168,0.7223218843002908,0.2378790530535346,1.5419268016805547,0.2504154990682793,-0.30280722971528573,1.6838440544793227,-1.0966186528541775,0.0,-0.0
0.14173038831699236,0.6448327158477749,0.6932216931026137,1.1075883111609734,0.009483599755050448,0.7315442449566032,0.4800168427625006,1.3254201764289852,-0.006465704000996881,-0.11340014653373168,0.7223218843002908,0.2378790530535346,1.5304175722859168,0.24751347835592888,-0.3011488971368484,1.6850321053182706,1.10290361855952,-0.0,0.0
0.16758912625235656,0.6599148495456998,0.7021172169859783,1.1100849899033127,0.036082298071510296,0.7211271733475397,0.46543384950053146,1.3149988705230267,-0.006465704000996881,-0.11340014653373168,0.7223218843002908,0.2378790530535346,1.5425624930436626,0.2505987582202119,-0.30296789979540917,1.6842414852614094,-1.0928645761032891,0.0,0.0
0.14069100568976384,0.6427046592383785,0.6944722617931992,1.1093846575395294,0.008223348676825934,0.7305246198858479,0.4822673470417535,1.3282908945351277,-0.006465704000996881,-0.11340014653373168,0.7223218843002908,0.2378790530535346,1.529826242835021,0.2473881154980086,-0.30113625808016287,1.685582891390854,1.103906097107789,0.0,-0.0
0.16413943373751647,0.6566746290521459,0.7030636924888625,1.1119907770702642,0.032271392150062195,0.7214262813377089,0.46966491770089563,1.3193427350293978,-0.006465704000996881,-0.11340014653373168,0.7223218843002908,0.2378790530535346,1.5407932458342912,0.2501757287429736,-0.30278237384667267,1.6848903728726599,-1.0929804955667912,0.0,0.0
0.13695297778458213,0.6390406485226994,0.6946102386268032,1.1107544290615574,0.0042157152313887225,0.7307196547015667,0.48574441017499936,1.3318624806170345,-0.006465704000996881,-0.11340014653373168,0.7223218843002908,0.2378790530535346,1.5279845557930474,0.24694248158831686,-0.3009284968156753,1.6861642171711966,1.1049508637561805,-0.0,-0.0
0.16079652895515997,0.6530408774990132,0.7035582428053085,1.113651017385314,0.028644607562226813,0.7212820806540422,0.4731459827262349,1.3230878078968396,-0.006465704000996881,-0.11340014653373168,0.7223218843002908,0.2378790530535346,1.5391120601923969,0.2497746312219765,-0.3026089663091589,1.6855293260801132,-1.092689499155639,-0.0,-0.0
0.13391303753429099,0.6358134000983916,0.694976391081055,1.112174383557263,0.0009259954332277581,0.7306744383369241,0.48881942673647,1.335116172335613,-0.006465704000996881,-0.11340014653373168,0.7223218843002908,0.2378790530535346,1.5264739805798162,0.2465803627675378,-0.300768747565761,1.6867157624715579,1.1041254790348909,-0.0,0.0
0.15963796947987433,0.6507381167389739,0.7048156150720796,1.1155142876574473,0.02726084451116995,0.7203282036272052,0.47541810938534346,1.325936500728355,-0.006465704000996881,-0.11340014653373168,0.7223218843002908,0.2378790530535346,1.5384560981807724,0.24963340615140434,-0.30258734809399385,1.6860919020886802,-1.0942916257564352,0.0,0.0
0.13284258804604304,0.6336445903944196,0.6961799880567298,1.1139537525589418,-0.0003583622359491431,0.7297733380139325,0.49095001930696935,1.3377761627109848,-0.006465704000996881,-0.11340014653373168,0.7223218843002908,0.2378790530535346,1.525878340477089,0.24645241391612505,-0.30075130932471,1.6872452878452384,1.105709767915335,0.0,0.0
0.1583115130680565,0.6479812464559321,0.7054772509809656,1.1170249156089276,0.02577908461593669,0.7190038082101942,0.47716902199955763,1.3284090402931847,-0.006465704000996881,-0.11340014653373168,0.7223218843002908,0.2378790530535346,1.5377573121699517,0.24948085094952244,-0.3025580066747781,1.6866500854022572,-1.0887626909525776,0.0,-0.0
0.13414498009240272,0.6326637229237894,0.6975845167766549,1.1155002065376132,0.0008775495635961091,0.7275786945501421,0.491109448582316,1.3389791910910085,-0.006465704000996881,-0.11340014653373168,0.7223218843002908,0.2378790530535346,1.52643080472127,0.24661446513670598,-0.3009002627877503,1.687662485372948,1.106907065855121,0.0,-0.0
0.15969885599141642,0.6474726932475653,0.7073734533432302,1.1188237104877858,0.02703920239721863,0.7173085577831627,0.47778568016611295,1.329864739539898,-0.006465704000996881,-0.11340014653373168,0.7223218843002908,0.2378790530535346,1.5383095223467083,0.24964232328806343,-0.3027040984534332,1.6870454965457955,-1.088420935380296,-0.0,-0.0
0.13288585838074762,0.6304011789470555,0.6986971065585651,1.1172336990947618,-0.0005993341696738791,0.7267670153395108,0.4933225490585259,1.3416810932989336,-0.006465704000996881,-0.11340014653373168,0.7223218843002908,0.2378790530535346,1.5257490925090482,0.24646425427840948,-0.30086867731633604,1.6881910535996991,1.1054528840749562,-0.0,0.0
0.1586137864444944,0.6448567217724894,0.7081148429789883,1.120355273561759,0.025804490505628414,0.7158869199833079,0.4793998210611386,1.3322380525155586,-0.006465704000996881,-0.11340014653373168,0.7223218843002908,0.2378790530535346,1.5377243300927947,0.2495185580894754,-0.30269142638301055,1.6875959168279397,-1.0919696471797173,-0.0,-0.0
0.13445377144060572,0.6295602241556467,0.7002066011661541,1.11882177093119,0.0009070284803827725,0.7244538709927728,0.49334560530001603,1.3427977715025732,-0.006465704000996881,-0.11340014653373168,0.7223218843002908,0.2378790530535346,1.5264231120866618,0.24665746670081865,-0.3010363041863507,1.6886047053717361,1.103395404209276,0.0,0.0
0.15264804669845447,0.640095292413143,0.7071840676669379,1.1211886281364751,0.019535793888799207,0.7171496410293692,0.4838475472095047,1.3363064688432993,-0.006465704000996881,-0.11340014653373168,0.7223218843002908,0.2378790530535346,1.5348640131968452,0.24880981031767532,-0.3023186078078824,1.6881663461635923,-1.0942063442211465,0.0,-0.0
0.12583477252487507,0.6238941248923884,0.6985510133882544,1.1193471810014828,-0.008128606597608036,0.7274482876803049,0.49959041788744335,1.3479183281976455,-0.006465704000996881,-0.11340014653373168,0.7223218843002908,0.2378790530535346,1.5223211718843475,0.24562816274416177,-0.3004638843664601,1.6891674174679214,1.103626999131656,-0.0,0.0
0.14920576426709867,0.6366581028424412,0.7074818606603754,1.1226233616469805,0.015812194248291698,0.7172280038376353,0.4873403980866573,1.339927983569003,-0.006465704000996881,-0.11340014653373168,0.7223218843002908,0.2378790530535346,1.5331574055646595,0.24839856577401903,-0.3021314045066205,1.6887513785192947,-1.0959430983156144,-0.0,0.0
0.13022735927385126,0.6250460069090886,0.7008474589320691,1.1209284663564176,-0.0036975402754190825,0.7243322554784677,0.4978670022910314,1.3475776851901426,-0.006465704000996881,-0.11340014653373168,0.7223218843002908,0.2378790530535346,1.524322857373418,0.24615475824387703,-0.30081744665748406,1.6894066901153248,1.1045782089438423,0.0,0.0
0.15603197413289677,0.6397415196618301,0.7109945236119499,1.124576192238433,0.022694421960880718,0.7137429246312805,0.48466257366140536,1.3387723193862526,-0.006465704000996881,-0.11340014653373168,0.7223218843002908,0.2378790530535346,1.536261096547215,0.24920359142814758,-0.30264345327737324,1.6888693277023774,-1.0924260641673091,0.0,0.0
0.12896550956121292,0.622774741948677,0.7019567411661682,1.1226659598913116,-0.005180296953967337,0.7235303357610403,0.5000831244322148,1.350265427278516,-0.006465704000996881,-0.11340014653373168,0.7223218843002908,0.2378790530535346,1.5236433187126346,0.24600476925946604,-0.3007853510274395,1.6899345279142486,1.1085404762430293,-0.0,0.0
0.1527400336433337,0.6359099377478638,0.7109134908017142,1.1258251605263974,0.01837948552662243,0.7140067957187988,0.48836813431494347,1.3425232015263022,-0.006465704000996881,-0.11340014653373168,0.7223218843002908,0.2378790530535346,1.5342884507665622,0.24872499244149254,-0.3024172882328608,1.6894791175955564,-1.0812783330961135,-0.0,0.0
0.1228721833426489,0.6174355772762241,0.7006809271297962,1.1234173986326388,-0.012353161839990443,0.7250627533891821,0.5050980779823314,1.3547691376108526,-0.006465704000996881,-0.11340014653373168,0.7223218843002908,0.2378790530535346,1.5203945480317682,0.24519761708556903,-0.30035755192128116,1.6905615687045712,1.110718322598486,0.0,0.0
0.14578241196776018,0.6300827027812147,0.7100938763803551,1.1271312519844288,0.011030050801778248,0.715294205351552,0.4938091247000563,1.3475905320593133,-0.006465704000996881,-0.11340014653373168,0.7223218843002908,0.2378790530535346,1.5309469548639678,0.24789991081868784,-0.301991673278201,1.690223102051438,-1.0683296677826688,0.0,0.0
0.1184421744665353,0.6140148522216563,0.7008202750728042,1.1247222070972576,-0.01712640667337735,0.7262800700622154,0.5093218757915311,1.358584010139158,-0.006465704000996881,-0.11340014653373168,0.7223218843002908,0.2378790530535346,1.518236799194049,0.2446656606957736,-0.3000866246477302,1.6910732465377736,1.1165728202924199,0.0,0.0
0.14363881558609773,0.6276971890327846,0.7114020385076039,1.1290760483643791,0.008559577828740284,0.7152964475091542,0.4971887007688498,1.3511021376443377,-0.006465704000996881,-0.11340014653373168,0.7223218843002908,0.2378790530535346,1.5298163733772792,0.24763528204999183,-0.3018917321106513,1.6907840872269606,-1.059798018806382,0.0,0.0
0.11879160877193384,0.6128188451438613,0.7023804607278358,1.1264849721129149,-0.016943932417888077,0.724987703347891,0.5105428880859043,1.3604396506470309,-0.006465704000996881,-0.11340014653373168,0.7223218843002908,0.2378790530535346,1.5183176258905713,0.24470668292969017,-0.30016168193647214,1.6915103826679139,1.119159702595272,0.0,0.0
0.14403215043831014,0.6265421388074712,0.7129625256939841,1.1308176131287035,0.008788129806487216,0.7139891530774345,0.4983795251813471,1.352943248604608,-0.006465704000996881,-0.11340014653373168,0.7223218843002908,0.2378790530535346,1.5299068651422343,0.2476791328482184,-0.3019680863757732,1.6912176908807621,-1.0643767478450212,0.0,0.0
0.1164905943827933,0.6100323333969612,0.7029817276470012,1.1279754408612754,-0.01948293109181226,0.7247271298222745,0.5131916707994401,1.3632939570499016,-0.006465704000996881,-0.11340014653373168,0.7223218843002908,0.2378790530535346,1.5171724315435897,0.24443545094319472,-0.30005228298475056,1.6920258848929688,1.1154927323951205,0.0,0.0
0.1420170782407081,0.6237781134231335,0.7138163270453353,1.1325107092982178,0.006523022563139833,0.7134869035902598,0.501031719241883,1.3559215910245943,-0.006465704000996881,-0.11340014653373168,0.7223218843002908,0.2378790530535346,1.5288724711946529,0.24743888616187962,-0.30188243022929473,1.6917743489597488,-1.0733226165853404,0.0,0.0
0.11734863106839777,0.609105963833096,0.7047580859354216,1.1298310631744286,-0.01878392246732652,0.7232136365633176,0.5141731387615761,1.3649992067143843,-0.006465704000996881,-0.11340014653373168,0.7223218843002908,0.2378790530535346,1.517486610923833,0.24453630424116515,-0.30016356241963377,1.6924582084256103,1.1100554283772224,0.0,0.0
0.13581151342659628,0.6190813446362281,0.7125604502092034,1.133064881412087,2.926562426903631e-05,0.7151035589067845,0.5053506889543509,1.3596369671440265,-0.006465704000996881,-0.11340014653373168,0.7223218843002908,0.2378790530535346,1.5259424958265506,0.24670691520856636,-0.30148517929384044,1.6922675035860937,-1.0842761659121083,0.0,0.0
0.10838279809889285,0.6031460934644118,0.7021002655472035,1.1296270129811448,-0.028061014332483813,0.7262445318598184,0.5195732520906406,1.369165958644722,-0.006465704000996881,-0.11340014653373168,0.7223218843002908,0.2378790530535346,1.5133165138004234,0.24348200421117722,-0.2995614350114539,1.6929040589892914,1.1066221282563642,0.0,0.0
0.13467139935518707,0.6168262765185466,0.7137320056774012,1.1348623411633472,-0.0013406063079339885,0.7142747826876292,0.5075374028818603,1.3622675612437836,-0.006465704000996881,-0.11340014653373168,0.7223218843002908,0.2378790530535346,1.525317246720569,0.24657046239388494,-0.3014603575922829,1.6927981711168913,-1.089983234084776,-0.0,0.0
0.10995630917293445,0.6025348337302455,0.7042384933592356,1.1316904234748364,-0.026642457563658687,0.7243802502838929,0.5202764286534723,1.3707322543590605,-0.006465704000996881,-0.11340014653373168,0.7223218843002908,0.2378790530535346,1.5139574946085852,0.24366731173424216,-0.2997258766561253,1.6933476119188948,1.1054081023902622,0.0,0.0
0.13606861812203147,0.6158500849031652,0.715164493245162,1.1364400553411282,-1.7598539445360523e-05,0.7120547634007333,0.5076663440811473,1.3634206519720844,-0.006465704000996881,-0.11340014653373168,0.7223218843002908,0.2378790530535346,1.525903324156016,0.2467410272932244,-0.3016127826836676,1.6932166918443792,-1.0916939763919369,0.0,0.0
0.10861722429190855,0.5999214217145838,0.7046775219990231,1.132991435779499,-0.028131148841951985,0.7231963604250451,0.5219121747994001,1.3729518017813767,-0.006465704000996881,-0.11340014653373168,0.7223218843002908,0.2378790530535346,1.5132933470779057,0.24351895397010645,-0.29969052079832686,1.6938510424601334,1.104831881620179,-0.0,-0.0
0.13492817888621583,0.6135988820011906,0.7163290915869052,1.1382303782764742,-0.0013886030003092895,0.7112292851511705,0.5098495014660174,1.366043810674673,-0.006465704000996881,-0.11340014653373168,0.7223218843002908,0.2378790530535346,1.5252789142921774,0.24660464431292337,-0.3015875622907191,1.6937456109364455,-1.0923939807415433,0.0,0.0
0.11022206875939422,0.5993302849016461,0.7068229730068878,1.1350528101461246,-0.026681273898777325,0.7213230194317205,0.5225946292832907,1.3745008722923613,-0.006465704000996881,-0.11340014653373168,0.7223218843002908,0.2378790530535346,1.5139470917110243,0.2437075116466034,-0.29985650589470697,1.6942924933921604,1.1045921876309452,-0.0,0.0
0.13646105378186832,0.6130609586895042,0.71835133234718,1.14015832651558,-1.8032849575695675e-06,0.709450470563061,0.5104835612798972,1.3675112088615424,-0.006465704000996881,-0.11340014653373168,0.7223218843002908,0.2378790530535346,1.5258923782597618,0.2467821957908783,-0.3017437881844389,1.6941614189100818,-1.093010374884403,0.0,-0.0
0.10900334409207979,0.59711668898825,0.7078753570518662,1.1367408344770074,-0.028121726182904535,0.7206069604523859,0.5247271543623666,1.3770087306312182,-0.006465704000996881,-0.11340014653373168,0.7223218843002908,0.2378790530535346,1.5133057476881762,0.24356489738813616,-0.2998242985313846,1.694794369197444,1.1045872358083408,-0.0,0.0
0.1353008194980361,0.6108051709069006,0.719500323809654,1.1419363629913746,-0.0013935846130039321,0.7086408097956473,0.5126700346850328,1.3701271747797532,-0.006465704000996881,-0.11340014653373168,0.7223218843002908,0.2378790530535346,1.525259989288509,0.24664358989382834,-0.3017167044294521,1.694688136775045,-1.0930106324955946,0.0,0.0
0.11048277122646734,0.5964620240322814,0.7099623874751535,1.1387722462710645,-0.026800599308656664,0.7187918646198104,0.5254672532838176,1.3785894091768447,-0.006465704000996881,-0.11340014653373168,0.7223218843002908,0.2378790530535346,1.5139005938403143,0.24373832261399217,-0.29998069904639973,1.695235864879375,1.1047981156767586,-0.0,0.0
0.12897305482390858,0.6061450687343545,0.7180772510263068,1.1423481112043232,-0.008001042250579554,0.7104175727202325,0.5169375148462778,1.3736872820525907,-0.006465704000996881,-0.11340014653373168,0.7223218843002908,0.2378790530535346,1.5223002854285559,0.24590120375750676,-0.30130826202697825,1.6951445818033228,-1.092774071397774,0.0,0.0
0.10132230367157902,0.5905496243289636,0.7070604377403101,1.1383596870156278,-0.036257628702909404,0.7220512518463773,0.5308024094974679,1.3825529606209255,-0.006465704000996881,-0.11340014653373168,0.7223218843002908,0.2378790530535346,1.5096779379140906,0.24266678196536198,-0.2993617624409126,1.695630500844189,1.1044654547287645,0.0,0.0
0.1252319100867179,0.6025891957138031,0.718028669988018,1.1435608597456561,-0.0120109881179708,0.7108423917418495,0.5202538885167818,1.3768795348450327,-0.006465704000996881,-0.11340014653373168,0.7223218843002908,0.2378790530535346,1.5205044855401546,0.24546165227736555,-0.30109375742772715,1.6956630866494293,-1.093015814983152,0.0,0.0
0.09742742743847013,0.587138368850706,0.7067179106314595,1.1392774733255917,-0.04039345646040123,0.7227388580531721,0.5339556618304708,1.3854457366964452,-0.006465704000996881,-0.11340014653373168,0.7223218843002908,0.2378790530535346,1.5078393553152927,0.2422122436229314,-0.2991299196093597,1.696076073454,1.1048244026773106,0.0,0.0
0.12382292492339964,0.6002028213451218,0.7190476457527104,1.1452846864649877,-0.013656919532471785,0.7101826486909905,0.5225415412068899,1.3795064800643055,-0.006465704000996881,-0.11340014653373168,0.7223218843002908,0.2378790530535346,1.519767239740211,0.2452951172593731,-0.3010481392569811,1.6961838253731,-1.0919105729929053,0.0,0.0
0.09622959566605033,0.5849590471422494,0.7077335256698977,1.1409345506886166,-0.04181056924984569,0.7220719408146963,0.5360403960137287,1.3878559674855593,-0.006465704000996881,-0.11340014653373168,0.7223218843002908,0.2378790530535346,1.5072182167316843,0.2420734849221969,-0.2990977672652587,1.6965628368101482,1.1045394444367105,0.0,0.0
0.12270509453363138,0.5979922489855716,0.7201680786021109,1.1470351443891689,-0.015004432965278584,0.7094147534131152,0.5246701375967229,1.3820162841086276,-0.006465704000996881,-0.11340014653373168,0.7223218843002908,0.2378790530535346,1.5191647636169048,0.2451628159177453,-0.3010224606502971,1.6966947897989473,-1.0928004665606499,0.0,-0.0
0.09784220614766279,0.5843217870122395,0.7099093045626641,1.1430454847187965,-0.04036220141058805,0.7201891988424037,0.5367602958093359,1.3894257973992585,-0.006465704000996881,-0.11340014653373168,0.7223218843002908,0.2378790530535346,1.507874401745907,0.2422627390348527,-0.29926434314374195,1.6970136402346352,1.1046165388807188,0.0,0.0
0.11653888217804816,0.5935905874717025,0.7186256901707281,1.1472683553140215,-0.02142521740924792,0.7112943384971596,0.5286727525215038,1.3852311010092095,-0.006465704000996881,-0.11340014653373168,0.7223218843002908,0.2378790530535346,1.5163052147973368,0.24444248178964637,-0.30062022376601666,1.697088307119801,-1.092733251115689,-0.0,0.0
0.08878216341844028,0.5790951423594328,0.7073650915529469,1.142710314571494,-0.04976307626838597,0.7241513171919728,0.5424089822054,1.3933589288387385,-0.006465704000996881,-0.11340014653373168,0.7223218843002908,0.2378790530535346,1.5036971660455427,0.24119814114270938,-0.29864037405852456,1.6973261195540257,1.104267231930902,0.0,-0.0
0.11266046839355831,0.5904827666228825,0.7189365321664561,1.1486401296324837,-0.025639655268293347,0.7124055971829611,0.5325722444732837,1.3886750744223202,-0.006465704000996881,-0.11340014653373168,0.7223218843002908,0.2378790530535346,1.5144321305023944,0.24398039243726233,-0.3003869556006192,1.6975684699637084,-1.0930977758780582,0.0,0.0
0.09301824460551418,0.5800965686179043,0.7104189962650376,1.1449978123408657,-0.04561501476030988,0.7212923891504559,0.5416648909294861,1.3938767006694486,-0.006465704000996881,-0.11340014653373168,0.7223218843002908,0.2378790530535346,1.5055534639167572,0.24169285118473904,-0.29898506540191244,1.697681501431647,1.1046418300633218,0.0,0.0
0.11955804512161672,0.592997993711362,0.7230408924225573,1.1512860065794706,-0.01877311021433842,0.7084146409991268,0.530498378651874,1.388366143007325,-0.006465704000996881,-0.11340014653373168,0.7223218843002908,0.2378790530535346,1.5174874038593251,0.24478307531504287,-0.30091690159719287,1.6978777372896114,-1.0896348020043487,0.0,0.0
0.09417026666560732,0.5791987019029906,0.7124065639158005,1.147039864429568,-0.044639143580395405,0.7196116274632104,0.5426181500774729,1.395584602155985,-0.006465704000996881,-0.11340014653373168,0.7223218843002908,0.2378790530535346,1.5060001790217867,0.24182825394927318,-0.29911879632524513,1.6981393892442795,1.115112060188536,0.0,0.0
0.11238207069153378,0.5880965341784491,0.7210228578001583,1.1512939580927284,-0.02621588814709873,0.7108030467090856,0.5349172073352718,1.3917590014984873,-0.006465704000996881,-0.11340014653373168,0.7223218843002908,0.2378790530535346,1.5141826427020941,0.2439468906943994,-0.30044179519192843,1.6982616534987065,-1.059911747421892,0.0,0.0
0.08409436477843216,0.5731617016137389,0.7087357529870335,1.1460358013933423,-0.05497715412407928,0.7236330805662625,0.5479766060830804,1.3991829188608227,-0.006465704000996881,-0.11340014653373168,0.7223218843002908,0.2378790530535346,1.5014183005932733,0.24065689424536482,-0.2984246184116277,1.6984141259364085,1.1202908377990601,0.0,0.0
0.10977385447583882,0.5851444575827637,0.721430287579686,1.1527061750551304,-0.029074699563828337,0.7107875005006764,0.5376753547909572,1.3945394800596032,-0.006465704000996881,-0.11340014653373168,0.7223218843002908,0.2378790530535346,1.5129189807088672,0.24364255238461704,-0.30030760090146547,1.6987589740148263,-1.0497428318708824,0.0,0.0
0.08420261827595793,0.5721477328550406,0.7107022498090422,1.148103808504441,-0.05512457717957227,0.7229994545349345,0.5498863128143061,1.4013706236901142,-0.006465704000996881,-0.11340014653373168,0.7223218843002908,0.2378790530535346,1.5013699036895536,0.24066309622500917,-0.2984757344910016,1.6988493110619907,1.1241874611269336,0.0,-0.0
0.11001195068974665,0.5838838492623855,0.7228876229241032,1.1544161633994423,-0.02901996486042748,0.7095464213862472,0.5390189161948121,1.3964435130797734,-0.006465704000996881,-0.11340014653373168,0.7223218843002908,0.2378790530535346,1.5129490275382318,0.2436696836863356,-0.3003718605324944,1.699197938216632,-1.0594825272680568,0.0,0.0
0.08176659676899034,0.5691235959743386,0.7104710164161873,1.1490016874798459,-0.05771550985599272,0.7224947584574846,0.5518919630645265,1.4036029052287489,-0.006465704000996881,-0.11340014653373168,0.7223218843002908,0.2378790530535346,1.5002398998978657,0.2403904638344691,-0.2983559692211085,1.6992988933252389,1.1131958718081703,0.0,0.0
0.10778695522598974,0.5811328591470604,0.7234572653175283,1.155899676237819,-0.03149029523589465,0.7093661749387613,0.5415982584146024,1.399109311583253,-0.006465704000996881,-0.11340014653373168,0.7223218843002908,0.2378790530535346,1.511861630969249,0.2434104867539808,-0.30026492104053243,1.6996915308886282,-1.0611941724865164,0.0,0.0
0.08189110534557555,0.5677279676296539,0.7119490460141854,1.1507914108007609,-0.05777952173749738,0.7213446617642602,0.5532659299514125,1.405478611206129,-0.006465704000996881,-0.11340014653373168,0.7223218843002908,0.2378790530535346,1.5002303184219885,0.2404069625346823,-0.29841416446419655,1.6997427360899433,1.131306340431652,0.0,0.0
0.09990374983088009,0.5760459825213168,0.7209328163051186,1.1555539743179832,-0.03962654305114023,0.7122550039339499,0.5461410316241149,1.4023756855296585,-0.006465704000996881,-0.11340014653373168,0.7223218843002908,0.2378790530535346,1.508266924316205,0.24249570902561418,-0.2997342964645554,1.7000141995781408,-1.0399251551028994,0.0,-0.0
0.07125251738010016,0.5617022244249401,0.7077227587816878,1.1493216548481657,-0.06864651847999935,0.7258871057134997,0.5585624104306348,1.4087562327618353,-0.006465704000996881,-0.11340014653373168,0.7223218843002908,0.2378790530535346,1.495433900692585,0.2391747854229819,-0.29767174200518354,1.6999195981563835,1.1207822124383673,0.0,-0.0
0.09498128456609503,0.5721117706434795,0.7200799300874564,1.1562467368292029,-0.04480666346034703,0.7135125722235269,0.5497143492060352,1.4053805712189062,-0.006465704000996881,-0.11340014653373168,0.7223218843002908,0.2378790530535346,1.5059877268400534,0.2419251064934713,-0.299427593372024,1.7004422795372724,-1.0674403169150255,-0.0,-0.0
0.07556716121276125,0.5628600626063154,0.7113326662944859,1.1520335964836308,-0.06449566745724454,0.723293765121324,0.5583347318110733,1.4096568175201571,-0.006465704000996881,-0.11340014653373168,0.7223218843002908,0.2378790530535346,1.4972880045747143,0.2396705789603989,-0.2980205105232892,1.7003133397761134,1.1057815153755999,-0.0,-0.0
0.10423388030466585,0.5750174554867681,0.7248007980836175,1.1592826785688273,-0.036472917120495,0.7084040995610412,0.5471767808937539,1.405102373492563,-0.006465704000996881,-0.11340014653373168,0.7223218843002908,0.2378790530535346,1.5096809590150164,0.2428974046680435,-0.3000722783852792,1.7008511250685339,-1.1071277887936783,-0.0,-0.0
0.07960409773669513,0.563148207212059,0.7146243279201384,1.1547794635448976,-0.0607417778633265,0.7201035215273762,0.5582070985163889,1.410929275931173,-0.006465704000996881,-0.11340014653373168,0.7223218843002908,0.2378790530535346,1.4989701677470573,0.24012698083087547,-0.298357270323099,1.7008223973610095,1.0612190392858003,-0.0,-0.0
0.10144268983403894,0.5725883510920305,0.7247097304476323,1.1600784547733445,-0.039371629049143105,0.708888590268942,0.5495329030001569,1.4072396704783845,-0.006465704000996881,-0.11340014653373168,0.7223218843002908,0.2378790530535346,1.5084088508869415,0.2425828026713231,-0.29991300175669466,1.7011794014090436,-1.202697114864122,-0.0,-0.0
0.07404830498050242,0.5595425644048416,0.7132379752530582,1.1548883465352902,-0.06634195026812713,0.7220307463168315,0.561636262839599,1.4134891713744249,-0.006465704000996881,-0.11340014653373168,0.7223218843002908,0.2378790530535346,1.496513942753185,0.23950353209506953,-0.2980016190918845,1.7010981365427151,1.0699407877861997,-0.0,-0.0
0.10497931898193817,0.5725651259402256,0.727856815664728,1.1628033847833514,-0.03612332419457635,0.7058784992132581,0.5497090255415793,1.4087433760975476,-0.006465704000996881,-0.11340014653373168,0.7223218843002908,0.2378790530535346,1.509854590982912,0.24297957599751116,-0.3002148091024894,1.701709982264005,-1.1916798468696936,-0.0,-0.0
0.0806118794075513,0.5607917862208688,0.7178214965991746,1.158400703422364,-0.06013518629452914,0.7174434604711026,0.5606407448243087,1.4145127076786517,-0.006465704000996881,-0.11340014653373168,0.7223218843002908,0.2378790530535346,1.4992784528631105,0.24024335566187063,-0.2985219133037886,1.7016881787479718,1.0486342499696661,-0.0,-0.0
0.1128916512839799,0.5748096013530725,0.732661408870483,1.1661328593121925,-0.028544149051975887,0.700898070432311,0.5477716124604355,1.4090207537501802,-0.006465704000996881,-0.11340014653373168,0.7223218843002908,0.2378790530535346,1.5132032395881407,0.24386695766593078,-0.30081526447791457,1.7021997139020113,-1.2270329732800682,-0.0,-0.0
0.0863582099150102,0.5612262438682987,0.7216396234499337,1.1615433083234845,-0.05557990647255667,0.7135589430327438,0.5604857427180125,1.4160733456440067,-0.006465704000996881,-0.11340014653373168,0.7223218843002908,0.2378790530535346,1.501311228524402,0.24079549574962866,-0.29892906566277183,1.70230592250471,1.0465328585608424,-0.0,-0.0
0.1148277460931735,0.5738941934692022,0.7344267198075153,1.167982782416152,-0.02767761318343985,0.6991662139572021,0.5488599752745751,1.4108826967176722,-0.006465704000996881,-0.11340014653373168,0.7223218843002908,0.2378790530535346,1.5135906532815673,0.2439881236260113,-0.3009406296568162,1.7026745090105344,-1.212289393635963,-0.0,-0.0
0.08725878233487469,0.5596992883163628,0.7230585999335697,1.1633217649997385,-0.05578136567336846,0.7122873145435699,0.5621247940699714,1.4182679033820778,-0.006465704000996881,-0.11340014653373168,0.7223218843002908,0.2378790530535346,1.50124295932569,0.24079908554521806,-0.2989840455863493,1.7028007391918802,1.0803770670360826,0.0,0.0
0.11535102086601347,0.5722253787944839,0.735646204630167,1.1696333189842885,-0.028246053659903878,0.6980741897980258,0.5506591745803375,1.413168728463158,-0.006465704000996881,-0.11340014653373168,0.7223218843002908,0.2378790530535346,1.513346878227217,0.24394677844311866,-0.3009672814707671,1.703166272797889,-1.1036596928947366,0.0,0.0
0.08564062984432368,0.5573177187281774,0.7239681447429569,1.1649642357715109,-0.05760111898366933,0.7118126284535884,0.5644824644613862,1.4208218694861214,-0.006465704000996881,-0.11340014653373168,0.7223218843002908,0.2378790530535346,1.500464183838403,0.24061848501630323,-0.2989243156779874,1.7032880182846382,1.14903166904952,0.0,0.0
0.10936033859955463,0.5678162211975639,0.7346701108024909,1.1703772425004726,-0.034364280284356466,0.6997452377118869,0.5548876031434036,1.4166408773119803,-0.006465704000996881,-0.11340014653373168,0.7223218843002908,0.2378790530535346,1.5106674367651076,0.2432735060498959,-0.3005996182418691,1.7036217732096495,-1.0123425242230437,0.0,0.0
0.08858660509216572,0.5576424444675505,0.72625753487332,1.1668180166928692,-0.05485301486864115,0.7095571547519869,0.564290383258092,1.4216277182829569,-0.006465704000996881,-0.11340014653373168,0.7223218843002908,0.2378790530535346,1.5016840169114405,0.24094871739837695,-0.2991643546202717,1.7036281645593934,1.1362399092051456,0.0,0.0
0.11557686894360111,0.5697461933088904,0.7382806233869732,1.1727811386370024,-0.02839141857254013,0.695940549159082,0.5532169214765332,1.4166732102551756,-0.006465704000996881,-0.11340014653373168,0.7223218843002908,0.2378790530535346,1.5132929726090394,0.2439678957062133,-0.3010643784482059,1.7039611924025937,-1.0330558960124556,0.0,0.0
0.08933856548265942,0.5565766974400613,0.7279733697390478,1.1686777034597504,-0.05431469857409227,0.7080845260242343,0.5654178097724587,1.423400395664725,-0.006465704000996881,-0.11340014653373168,0.7223218843002908,0.2378790530535346,1.501937703279819,0.24103323856257555,-0.29926304199447024,1.704066959872469,1.1269956309824487,0.0,0.0
0.10832494621693617,0.5653532668974437,0.7367766600578907,1.1730664752174067,-0.03510554902536664,0.6982176713077041,0.5573564187888906,1.4197806168692098,-0.006465704000996881,-0.11340014653373168,0.7223218843002908,0.2378790530535346,1.510356053631703,0.24322268079667683,-0.30063998450794654,1.7043011679302293,-1.0622528924524695,-0.0,-0.0
0.08030436910162563,0.5513144111005579,0.7248437395376333,1.1678957858308716,-0.06361062689860127,0.7119091010903769,0.570398784202383,1.4266430282159377,-0.006465704000996881,-0.11340014653373168,0.7223218843002908,0.2378790530535346,1.4978776998175567,0.23999205602898152,-0.2986443949886487,1.7042978327168194,1.107330749405473,-0.0,-0.0
0.1059803486676277,0.5627062120106054,0.7372060623541355,1.1743946882771876,-0.037701928995759505,0.6981878788219161,0.5600017684238201,1.4224184150740908,-0.006465704000996881,-0.11340014653373168,0.7223218843002908,0.2378790530535346,1.509229190244879,0.2429511159640424,-0.3005209615869762,1.7047643085289557,-1.1212059789757518,-0.0,-0.0
0.0784040743008958,0.5493818005283714,0.7258625129245575,1.1694756786614502,-0.06487117087804113,0.7113630874478734,0.5722961987188411,1.4287549305540581,-0.006465704000996881,-0.11340014653373168,0.7223218843002908,0.2378790530535346,1.4973478161924205,0.23987257863150996,-0.2986148785761039,1.704717699105647,1.062503375784463,-0.0,-0.0
0.10864186086872944,0.562704721602507,0.7405102998482274,1.1772290568122339,-0.034374723270314364,0.6951473660091636,0.560130102149205,1.4238924803853974,-0.006465704000996881,-0.11340014653373168,0.7223218843002908,0.2378790530535346,1.510696650562973,0.24335383415011178,-0.30082468771284476,1.7052889002710725,-1.2105011878408924,-0.0,-0.0
0.08169717073050865,0.5495255921436386,0.7295841762491716,1.1726258419758269,-0.06094204169576246,0.707879266729875,0.5723263662973862,1.430317054678162,-0.006465704000996881,-0.11340014653373168,0.7223218843002908,0.2378790530535346,1.499094056191573,0.2403493815884503,-0.2989705175375229,1.7052993738319269,1.0374953722538638,-0.0,-0.0
0.11078530424514318,0.5622066241811545,0.7428894935469453,1.1794477526962888,-0.032481312764514506,0.6929372823591456,0.5607452479604257,1.4254854172541536,-0.006465704000996881,-0.11340014653373168,0.7223218843002908,0.2378790530535346,1.5115330872625359,0.24359101106951014,-0.30102044565678315,1.7057599070397902,-1.228908889409182,0.0,0.0
0.09047613882408848,0.5521909732906555,0.7347364109762556,1.1760841441408778,-0.052516782887029254,0.7024746829944233,0.5700177373266911,1.4304249189546023,-0.006465704000996881,-0.11340014653373168,0.7223218843002908,0.2378790530535346,1.5027934096270987,0.24132854882308377,-0.2996268163635299,1.705791898797877,1.1114114557482109,0.0,0.0
0.11726549067158407,0.564332887104003,0.7465398987705172,1.1818031194354266,-0.026241745250633636,0.6890583222004875,0.5588859682720115,1.4253743354622792,-0.006465704000996881,-0.11340014653373168,0.7223218843002908,0.2378790530535346,1.5142606724268977,0.24431148371478703,-0.301498494940683,1.70607727112212,-1.0212192745118442,0.0,0.0
0.09013549668087054,0.5506129069639085,0.7359878159642391,1.1777265355507072,-0.05305460048416892,0.7015320430156967,0.5716201861198169,1.4324316196899383,-0.006465704000996881,-0.11340014653373168,0.7223218843002908,0.2378790530535346,1.5025755315184288,0.24129076455202825,-0.2996488181711163,1.706224258326074,1.1561183811296893,0.0,0.0
0.10850924362056706,0.5589269898139105,0.7440952571348249,1.181658681241336,-0.03503658002440663,0.6923152470303082,0.5640033389603689,1.4289990199947014,-0.006465704000996881,-0.11340014653373168,0.7223218843002908,0.2378790530535346,1.5104311354343025,0.2433347855193004,-0.3009317841993663,1.7064250787126205,-1.0188118792452299,0.0,0.0
0.07923008479774929,0.5446246134849769,0.7322079839744398,1.1766595165633902,-0.06389961026372239,0.7061860219506564,0.5772204868768755,1.4358974679050747,-0.006465704000996881,-0.11340014653373168,0.7223218843002908,0.2378790530535346,1.4978600352520082,0.24007765308135628,-0.2989209640897453,1.7064263531067814,1.1231957415036673,-0.0,-0.0
0.10487972208630006,0.5556793357614281,0.7440574957155401,1.1828020538189519,-0.03882597309425134,0.6928983995457438,0.5671537452919518,1.4318536471257812,-0.006465704000996881,-0.11340014653373168,0.7223218843002908,0.2378790530535346,1.5087902496473555,0.24292917122802465,-0.3007280584634221,1.7068740356726302,-1.0792595621264027,-0.0,-0.0
0.08483811991266303,0.5460344931776964,0.7357787287973789,1.1792128088255325,-0.058560674583217634,0.7025128769636331,0.5760468724146838,1.43636049911011,-0.006465704000996881,-0.11340014653373168,0.7223218843002908,0.2378790530535346,1.5002032759763415,0.24070190942481368,-0.29934836475653875,1.7068291586425914,1.0781331586768257,-0.0,-0.0
0.11558192417018165,0.5596227538800108,0.7496540340825109,1.1861623669763872,-0.028461246901876357,0.6868342804995329,0.5636423802958163,1.4310820618614255,-0.006465704000996881,-0.11340014653373168,0.7223218843002908,0.2378790530535346,1.5133094486098404,0.2441172911479925,-0.30150218873385004,1.7072651384227717,-1.167461310980223,-0.0,-0.0
0.08818673946783537,0.5458718559569695,0.7388993842143977,1.181945679091383,-0.055518243612141235,0.6995335165689498,0.5763787178250761,1.4380082339995295,-0.006465704000996881,-0.11340014653373168,0.7223218843002908,0.2378790530535346,1.501550918798966,0.2410745950772929,-0.29963555340336195,1.707377257046357,1.045919520594096,0.0,-0.0
0.11748151062732876,0.5590098394528954,0.751934261530995,1.188327686543775,-0.026812632261348418,0.6847293719626512,0.5643725487834009,1.4327492614125692,-0.006465704000996881,-0.11340014653373168,0.7223218843002908,0.2378790530535346,1.5140324757027785,0.24432549685408245,-0.30167965528794705,1.7077369577712442,-1.2104819774666962,0.0,0.0
0.08877807638504509,0.5445020111635024,0.7407669908655741,1.1840403139987061,-0.055175327205813626,0.6979632938633589,0.5778146158507587,1.4401226085056666,-0.006465704000996881,-0.11340014653373168,0.7223218843002908,0.2378790530535346,1.5017211747963461,0.24114047352315637,-0.2997288701919657,1.7078836468450507,1.083871174801996,0.0,0.0
0.11527110643064784,0.556412000024899,0.7525253863753609,1.1897668201054639,-0.029212884191664082,0.6845892795284155,0.5669341386559197,1.4353498491328016,-0.006465704000996881,-0.11340014653373168,0.7223218843002908,0.2378790530535346,1.512996005099861,0.24407736003822358,-0.3015746015335899,1.708201843938549,-1.1206677608898363,0.0,0.0
0.09479147115810631,0.5461523165261971,0.7444677317729196,1.1866048705138914,-0.04943521154099929,0.6941106971341037,0.5764259211994397,1.4404672295839707,-0.006465704000996881,-0.11340014653373168,0.7223218843002908,0.2378790530535346,1.5042275230505422,0.24180717237141505,-0.3001811531047451,1.7082769129792295,1.1123706217480074,0.0,0.0
0.12257755263533113,0.5589673045519228,0.7564844992703418,1.1922160601669356,-0.0221601864583446,0.6803255200290254,0.5646877251133035,1.4350424534801187,-0.006465704000996881,-0.11340014653373168,0.7223218843002908,0.2378790530535346,1.516058944954999,0.24488529691947736,-0.3021055095238079,1.708513717298912,-1.0543474250735807,-0.0,0.0
0.09560734619119524,0.545079094262096,0.7462489161649267,1.1885116134886304,-0.04884666799041149,0.6925671705347601,0.5775746108376472,1.4422929529019304,-0.006465704000996881,-0.11340014653373168,0.7223218843002908,0.2378790530535346,1.504498628871174,0.24189705896714395,-0.30028339012391775,1.7087281743518488,1.1390467697331228,-0.0,-0.0
0.11553737805004388,0.5545619628485713,0.7552384578220624,1.192737522790353,-0.029332502445356217,0.6830813790531288,0.5695366078538344,1.4386039716734682,-0.006465704000996881,-0.11340014653373168,0.7223218843002908,0.2378790530535346,1.5129540407490392,0.24409691064084033,-0.30165774359252134,1.7088896524868098,-1.0656158151036137,-0.0,-0.0
0.08616879957740285,0.5398251756012227,0.7437080311315057,1.188247483014321,-0.05833098691864955,0.6967614515054836,0.5831280975460389,1.4458893746490857,-0.006465704000996881,-0.11340014653373168,0.7223218843002908,0.2378790530535346,1.5004011797101124,0.2408460036371928,-0.29966236261674045,1.7089958480027094,1.1004213731624257,-0.0,-0.0
0.11670109085524866,0.5534088666714111,0.757392502868327,1.1949876181499393,-0.028438955827236413,0.6811894538533292,0.570789277313309,1.4406875267424288,-0.006465704000996881,-0.11340014653373168,0.7223218843002908,0.2378790530535346,1.5133488236329455,0.2442224377198087,-0.3017893107007757,1.7094158255030647,-1.1553859194906475,-0.0,0.0
0.08954517516697182,0.5397275418307981,0.7467866105891589,1.190912428704471,-0.05525957837950324,0.6938037361632933,0.5834073828616316,1.4474762106317942,-0.006465704000996881,-0.11340014653373168,0.7223218843002908,0.2378790530535346,1.50175395667925,0.24121968300055738,-0.2999479346543531,1.7095291261754437,1.1268885123893673,0.0,0.0
0.11749523693023589,0.5523429894835522,0.7591369961367521,1.1968553641720352,-0.0278714593601374,0.6796776842799623,0.5719338884666668,1.442495708068465,-0.006465704000996881,-0.11340014653373168,0.7223218843002908,0.2378790530535346,1.5136004192157522,0.24430731396055724,-0.3018873221861854,1.709860620557492,-1.0554758878307102,-0.0,-0.0
0.08843173989641807,0.537661817066119,0.7478258601129599,1.19255018560026,-0.056580882565171034,0.6931548412265853,0.5854731334199341,1.4497935969027178,-0.006465704000996881,-0.11340014653373168,0.7223218843002908,0.2378790530535346,1.501202769435868,0.24109656158427578,-0.2999195747801594,1.7099921898109882,1.106590963567931,-0.0,0.0
0.11640249113062714,0.5502239441834389,0.7602436533772565,1.1985610786710816,-0.029183498202699443,0.6789640521008821,0.5740613715547574,1.4449137783873869,-0.006465704000996881,-0.11340014653373168,0.7223218843002908,0.2378790530535346,1.5130402852600742,0.24418331479532612,-0.30186030016348997,1.7103442515710297,-1.0750391678107232,0.0,0.0
0.08957473450813216,0.5367339055820335,0.7497427278945303,1.1945227832261962,-0.05567414939862556,0.691461348047431,0.5864896574873094,1.4515430914312037,-0.006465704000996881,-0.11340014653373168,0.7223218843002908,0.2378790530535346,1.5016139863454714,0.2412226515930552,-0.30004381101308925,1.7104449718810528,1.133190462568903,0.0,0.0
0.11611323122068568,0.5490412895140612,0.7619853508552751,1.200464749213132,-0.02884634560570988,0.6776067228443906,0.575263897780119,1.446707397411517,-0.006465704000996881,-0.11340014653373168,0.7223218843002908,0.2378790530535346,1.513192165500075,0.24424162166081323,-0.30194008908172976,1.7107733859110508,-1.0405983189618186,0.0,0.0
0.08680905713625724,0.5339144900465151,0.7499606629469694,1.1957401612684921,-0.05870002299745944,0.6916756929285957,0.5892907568194438,1.4541928731859621,-0.006465704000996881,-0.11340014653373168,0.7223218843002908,0.2378790530535346,1.5003290618226182,0.2409084003288139,-0.2998958075100579,1.7108934035006842,1.1187290998756567,0.0,0.0
0.11508736220265477,0.5465192060032832,0.762602321357359,1.2019092140834515,-0.031017820672543828,0.6772412883561806,0.5778644945389174,1.449429339230797,-0.006465704000996881,-0.11340014653373168,0.7223218843002908,0.2378790530535346,1.5122639506738544,0.24402305998353016,-0.3018569667272074,1.7112814360303288,-1.0560412899986233,0.0,0.0
0.08842198875878778,0.5331905667381713,0.7520888416086751,1.1978185305827453,-0.05733544227986312,0.6897431219406367,0.5901233686181296,1.4558647517063525,-0.006465704000996881,-0.11340014653373168,0.7223218843002908,0.2378790530535346,1.5009379974462045,0.24108607676844476,-0.30005234415050497,1.7113532361564396,1.109604766539559,-0.0,-0.0
0.11835827249990524,0.5466246271171686,0.7653824221659129,1.2042304959298769,-0.02801890627940197,0.6745236969890037,0.5779404921132186,1.4507224404183112,-0.006465704000996881,-0.11340014653373168,0.7223218843002908,0.2378790530535346,1.513562595983027,0.24438021807019727,-0.3021236980603071,1.7117381839979593,-1.1169045819860421,-0.0,-0.0
0.08933305490705805,0.5319414437665342,0.7541129165018382,1.1999973514135553,-0.05669095082298709,0.688000509499982,0.5914606154864894,1.457947842905701,-0.006465704000996881,-0.11340014653373168,0.7223218843002908,0.2378790530535346,1.5012384592265007,0.24118613074128706,-0.30016655054112723,1.7118686017041782,1.0953824604218145,-0.0,0.0
0.11644291664061253,0.5441517574670042,0.7661060446748849,1.2057391708477199,-0.030137687404460014,0.6742448127251922,0.5803880976828163,1.4532528045480975,-0.006465704000996881,-0.11340014653373168,0.7223218843002908,0.2378790530535346,1.5126582576047551,0.24416599636961744,-0.3020388714510159,1.7122051662100035,-1.1233415234403903,0.0,-0.0
0.09614403822728396,0.5339611601923725,0.7581483939600482,1.2026924674678494,-0.05017696487778379,0.6837372745738967,0.5897586803612986,1.458182402915432,-0.006465704000996881,-0.11340014653373168,0.7223218843002908,0.2378790530535346,1.5040542584502086,0.2419345505385536,-0.3006690935889418,1.7122711477788728,1.062131957329697,-0.0,-0.0
0.12799057105062736,0.5487169254106454,0.7718372837535787,1.2089382077724957,-0.01892432026951668,0.6678848107205607,0.5763327166871588,1.4521333872509385,-0.006465704000996881,-0.11340014653373168,0.7223218843002908,0.2378790530535346,1.5174788222417068,0.24543274263708442,-0.3028544952996293,1.7125434433183535,-1.1906798958210076,0.0,-0.0
0.10275005656417169,0.5351514469223813,0.7620164395291222,1.205544524996783,-0.04472027719493431,0.6796159445933194,0.5889399901904137,1.4592301154543807,-0.006465704000996881,-0.11340014653373168,0.7223218843002908,0.2378790530535346,1.5064160415814887,0.24257092666121077,-0.3011154781050562,1.7128015620993557,1.0867264171672275,0.0,0.0
0.13150700045860128,0.5495801476794095,0.7751856752992482,1.2114496598667095,-0.01563062196525044,0.6656557307024815,0.5767129606684628,1.453518956375496,-0.006465704000996881,-0.11340014653373168,0.7223218843002908,0.2378790530535346,1.5188927288000862,0.24581860124757499,-0.30313447786259295,1.7129583999934825,-1.1077465860070776,0.0,0.0
0.10081564856459224,0.5328407402555111,0.7634509866972359,1.2075965223860354,-0.045978824621928274,0.6787882002743671,0.5910867192052717,1.4617068536552662,-0.006465704000996881,-0.11340014653373168,0.7223218843002908,0.2378790530535346,1.5058921831992136,0.2424576307234657,-0.3010983110921129,1.713321562730751,1.1315995237982668,0.0,0.0
0.12823946422635557,0.5461509867550666,0.7755495632833105,1.212993368447709,-0.019107331864159506,0.665838348051677,0.5798503396907779,1.4565247185292332,-0.006465704000996881,-0.11340014653373168,0.7223218843002908,0.2378790530535346,1.5174033871344226,0.24545543348153476,-0.30296370636766934,1.7134854386720066,-1.0253245605533974,0.0,0.0
0.10018105389618492,0.5310339250241887,0.7646375740921608,1.2092593321005936,-0.04682119993838242,0.6779915996545615,0.5928025433205117,1.4637430742013897,-0.006465704000996881,-0.11340014653373168,0.7223218843002908,0.2378790530535346,1.5055455107778943,0.24238668648152442,-0.3010988148718309,1.7137596487947322,1.1402172879452004,0.0,0.0
0.12748251543481023,0.543883304422009,0.776173515150793,1.214343017287261,-0.020006443595429503,0.6645415503172284,0.5810975461849458,1.4583413465777666,-0.006465704000996881,-0.11340014653373168,0.7223218843002908,0.2378790530535346,1.5170204697649041,0.24537610769107263,-0.3029600878562213,1.7139355744599722,-1.0461066694355123,-0.0,-0.0
0.09993842974354203,0.5291256302775246,0.7654141353863022,1.210614774019294,-0.04814414186050222,0.6773958171982543,0.5947975763521186,1.4659650455549444,-0.006465704000996881,-0.11340014653373168,0.7223218843002908,0.2378790530535346,1.5049944366332337,0.242262634058044,-0.30106658142820353,1.7141989612074828,1.0715249565083331,-0.0,-0.0
0.13237002863151365,0.5443454110398638,0.7791558732004027,1.2166943915824735,-0.016296907062136164,0.6613523934571591,0.5809707352850675,1.459667031649485,-0.006465704000996881,-0.11340014653373168,0.7223218843002908,0.2378790530535346,1.5186083890508206,0.24581094783193616,-0.30327801965679513,1.714431608871231,-1.2061086674478565,-0.0,-0.0
0.10427241354707929,0.5294467764980905,0.7689354688495151,1.213472817650291,-0.04415393700409097,0.6739070756970096,0.5947274421062,1.4674693593563295,-0.006465704000996881,-0.11340014653373168,0.7223218843002908,0.2378790530535346,1.506718548308528,0.24273487128069382,-0.3014135437200505,1.7147534180328776,1.060830639739216,0.0,0.0
0.13162861107408852,0.5428715681557935,0.7808538439281142,1.2186484174347947,-0.01649235806926856,0.6610268374081925,0.5834531037722709,1.4622518566572444,-0.006465704000996881,-0.11340014653373168,0.7223218843002908,0.2378790530535346,1.5181672960896269,0.2457166861935672,-0.3032652903435121,1.714884582878882,-1.1697083379828768,0.0,0.0
0.10162420408708943,0.526131176181988,0.7687629458825341,1.2145412422825768,-0.04804884685059031,0.674354360796117,0.5978706952882684,1.4703347715176052,-0.006465704000996881,-0.11340014653373168,0.7223218843002908,0.2378790530535346,1.5051217649844122,0.24234018875411276,-0.3012169099601503,1.7152192523565424,1.1157470058416181,-0.0,-0.0
0.13067036922140207,0.5402051287157396,0.7815864209407343,1.2202376371848502,-0.01870678916302733,0.66051511874667,0.5861123376843892,1.4650863600188462,-0.006465704000996881,-0.11340014653373168,0.7223218843002908,0.2378790530535346,1.5172531252214474,0.245503083139979,-0.3031871335781385,1.7154206695020267,-1.081868483165883,-0.0,0.0
0.1010779674371818,0.5237855186899656,0.7695749517193937,1.2160906931901851,-0.049817579205261156,0.6737666173153751,0.6002060590143341,1.472869680715641,-0.006465704000996881,-0.11340014653373168,0.7223218843002908,0.2378790530535346,1.5044088334454768,0.2421762828308193,-0.3011651616696068,1.7157124230571439,1.121265656945183,-0.0,0.0
0.12537347763726575,0.5358271175657174,0.7808273485558259,1.2211909085353092,-0.024505270045391634,0.6617595193037616,0.59013876691685,1.4684576501118465,-0.006465704000996881,-0.11340014653373168,0.7223218843002908,0.2378790530535346,1.5148614908394515,0.24490306284475039,-0.3028658984824001,1.7159097595897892,-1.0535644985567723,0.0,0.0
0.10341224221222763,0.5241866542021684,0.7721049692156927,1.218080503641022,-0.04684679926995529,0.6714810159257704,0.600032348454971,1.4737207194180884,-0.006465704000996881,-0.11340014653373168,0.7223218843002908,0.2378790530535346,1.505647788083526,0.24251299777249152,-0.3014061696870282,1.7160479037103475,1.1417181142878623,0.0,0.0
0.13080763828418665,0.5375436566091979,0.7841160295945767,1.2233353709652366,-0.019162139371167265,0.6584751916079744,0.588871276713613,1.4687018232717441,-0.006465704000996881,-0.11340014653373168,0.7223218843002908,0.2378790530535346,1.5170690482180917,0.2454908415997784,-0.3032588122632971,1.7162173895115815,-1.0369821762341176,0.0,0.0
0.1030110204672097,0.522524745725612,0.7733581357175473,1.219745294482739,-0.047484352449344985,0.6705637097225872,0.6016812260902911,1.475733778982391,-0.006465704000996881,-0.11340014653373168,0.7223218843002908,0.2378790530535346,1.5053999485818512,0.24246718237933046,-0.3014205278822296,1.7164758686573867,1.1288978219984491,0.0,-0.0
0.12247812764563909,0.5319981666987472,0.7819091560528508,1.2234931485203095,-0.027816104581848165,0.6613048418136327,0.5937716390224751,1.4722033858906762,-0.006465704000996881,-0.11340014653373168,0.7223218843002908,0.2378790530535346,1.5135052558968545,0.24458108979587367,-0.3027361822549665,1.7166024131323674,-1.045778614340526,0.0,0.0
0.09209600059822792,0.5160746928385282,0.7696674153916958,1.218993202230314,-0.05869275924224548,0.6749026265221305,0.6072677372231323,1.4792100483536834,-0.006465704000996881,-0.11340014653373168,0.7223218843002908,0.2378790530535346,1.5007932384289215,0.24128019714209786,-0.30071478406852487,1.7167376301799602,1.1099940875736816,-0.0,0.0
0.11801375134266319,0.5281373742128757,0.7815750808703996,1.2246228421891987,-0.03259607102973562,0.6621716715059685,0.5972939780098511,1.4752326693020577,-0.006465704000996881,-0.11340014653373168,0.7223218843002908,0.2378790530535346,1.5115448265533227,0.24409149234380303,-0.3024801190288019,1.717065759372394,-1.0850766961910578,0.0,-0.0
0.09743934356413408,0.5175356895957831,0.7731090359207726,1.2213684993130687,-0.053474806950914236,0.6715223803836036,0.6062455038194449,1.4797210810049977,-0.006465704000996881,-0.11340014653373168,0.7223218843002908,0.2378790530535346,1.5029580362714228,0.24185898318826374,-0.30110766574422054,1.717102835088893,1.0642821960847857,-0.0,-0.0
0.1282432871116472,0.53218742085726,0.7869602353585136,1.227679471373534,-0.022410656055706347,0.6566152817160301,0.5940789087499256,1.474603679417287,-0.006465704000996881,-0.11340014653373168,0.7223218843002908,0.2378790530535346,1.5157416312384675,0.2451981918359722,-0.3031955130706754,1.7174029490289162,-1.182765861704424,-0.0,0.0
0.09794062351525017,0.5159849607496099,0.775067674016155,1.2235923255230379,-0.05325413552645273,0.6699433005457056,0.607857281270789,1.481983227589831,-0.006465704000996881,-0.11340014653373168,0.7223218843002908,0.2378790530535346,1.5030716104970583,0.24191124419492896,-0.30119197812519594,1.7176298327059674,1.098646246189693,0.0,0.0
0.12436127414755488,0.5285728295694837,0.7869253871209403,1.2289676754111902,-0.026609902543433223,0.6571671487475129,0.5974061151946483,1.4775871645289733,-0.006465704000996881,-0.11340014653373168,0.7223218843002908,0.2378790530535346,1.5140212304762615,0.2447717943965856,-0.3029798878870059,1.7178824242901976,-1.102455865881106,-0.0,-0.0
0.09401890323699821,0.5125824715024063,0.7747897634549853,1.2246104014656751,-0.0574542289976519,0.6706985443997429,0.6109599626498711,1.4846413522803126,-0.006465704000996881,-0.11340014653373168,0.7223218843002908,0.2378790530535346,1.5013651515835957,0.2414847336720556,-0.3009694210081997,1.7180389506056142,1.096658186554415,-0.0,-0.0
0.12414819905639504,0.5267057672305655,0.7885295993638051,1.231000101916269,-0.02710986329601077,0.6559562378536865,0.5992798554713012,1.4799451351270352,-0.006465704000996881,-0.11340014653373168,0.7223218843002908,0.2378790530535346,1.5138240532483016,0.2447430535519642,-0.3030124098579095,1.7183947890018627,-1.1268154812987596,-0.0,-0.0
0.09390914107893975,0.5112160672333951,0.7770017837327947,1.2269763028224479,-0.057926193912907945,0.6695013263338639,0.6127970176787629,1.4869418868841562,-0.006465704000996881,-0.11340014653373168,0.7223218843002908,0.2378790530535346,1.5011961859050518,0.24146231296327306,-0.3010051567381169,1.7185432300510513,1.0691364404409522,0.0,0.0
0.12172981478622946,0.5239070607696108,0.7891191776027491,1.2325159798051664,-0.029835809978543425,0.655835481554987,0.602002475459396,1.4826327572724782,-0.006465704000996881,-0.11340014653373168,0.7223218843002908,0.2378790530535346,1.512714703213925,0.24447554257830714,-0.3028947982275965,1.7188780414788474,-1.1380179793873206,0.0,0.0
0.10049334443716766,0.5128423409602755,0.7805279741898016,1.2293540374767544,-0.051471788667671964,0.6657191623898958,0.6117092663305662,1.4875742801855294,-0.006465704000996881,-0.11340014653373168,0.7223218843002908,0.2378790530535346,1.5035824938679765,0.24210109026584686,-0.301438919935252,1.7189528807973127,1.1040720885111537,-0.0,-0.0
0.13098450298675782,0.5271022555840041,0.7934688506890061,1.2350028099596648,-0.021559745086365767,0.6510442392773091,0.5994505606350627,1.4823217833856388,-0.006465704000996881,-0.11340014653373168,0.7223218843002908,0.2378790530535346,1.516214310727795,0.24540185823342897,-0.30349919775837847,1.7192221387991111,-1.0959779493518127,-0.0,-0.0
0.10443238159194346,0.5131943545210637,0.783652446282591,1.2318506662837199,-0.04784871711926503,0.663175889499929,0.6121694143248458,1.4891580830955957,-0.006465704000996881,-0.11340014653373168,0.7223218843002908,0.2378790530535346,1.505130422068167,0.24252511213149192,-0.30174773086948964,1.7194384046564406,1.0945310617674682,-0.0,-0.0
0.1256832064395255,0.5232840442664193,0.792524678090229,1.235600973524746,-0.026978676897730286,0.6526551900247722,0.6030778769940921,1.4851149096694387,-0.006465704000996881,-0.11340014653373168,0.7223218843002908,0.2378790530535346,1.5139317847212292,0.24482347364208645,-0.30317787758993625,1.7195816582670962,-1.1172080729302172,0.0,-0.0
0.0960604609344427,0.5080620287187141,0.7812837764202254,1.2317432660368737,-0.05625909556546301,0.6664279212763652,0.6169569347827801,1.49231905620246,-0.006465704000996881,-0.11340014653373168,0.7223218843002908,0.2378790530535346,1.5015963418474174,0.24161742116052146,-0.301217066806364,1.7197316568967296,1.0955465435586602,-0.0,-0.0
0.12376598778117161,0.5207848476230634,0.7932630266729892,1.2371321560941484,-0.029120668876889303,0.6523836438636164,0.6055541426166061,1.487636275072669,-0.006465704000996881,-0.11340014653373168,0.7223218843002908,0.2378790530535346,1.5130356931596627,0.24461064427563034,-0.3030920700845992,1.7200482712611562,-1.1227017683744804,-0.0,-0.0
0.10290847302785328,0.5101456996376221,0.7852719061938663,1.234330360796554,-0.04972361438864534,0.6621475203991168,0.6152416778100074,1.492585834798248,-0.006465704000996881,-0.11340014653373168,0.7223218843002908,0.2378790530535346,1.5043660172111815,0.24235583063293836,-0.3017106730663458,1.7201288182305166,1.0924864203130071,0.0,-0.0
0.13330386541624958,0.5244836951972983,0.7980486370817054,1.2397863098648783,-0.01989030930895666,0.6470201778092878,0.6023407825808749,1.4869583848543073,-0.006465704000996881,-0.11340014653373168,0.7223218843002908,0.2378790530535346,1.5169254416546367,0.2456377681569926,-0.30375548480288406,1.7203636406877705,-1.112982217233105,-0.0,-0.0
0.10636835986553972,0.5102792092130999,0.7881878648897054,1.2367261840730968,-0.04657356275914415,0.6592657468591862,0.6153364505622937,1.49397930418117,-0.006465704000996881,-0.11340014653373168,0.7223218843002908,0.2378790530535346,1.5057095828694005,0.2427266178523631,-0.3019858088618568,1.7206087409111057,1.1015902703769331,0.0,0.0
0.12734321076562932,0.5203031037813817,0.7968784641064703,1.2403301924213923,-0.025966401014895796,0.6489209417960053,0.6063016553251893,1.4899362595785248,-0.006465704000996881,-0.11340014653373168,0.7223218843002908,0.2378790530535346,1.51437304379142,0.2449892718073773,-0.3033917647366274,1.7207328345987254,-1.09405918332478,-0.0,-0.0
0.09736180896746252,0.5048250398088983,0.7855753788862053,1.236538069568239,-0.05561147449857777,0.6628201018792005,0.6204157238424615,1.4972746028119273,-0.006465704000996881,-0.11340014653373168,0.7223218843002908,0.2378790530535346,1.5019221834926246,0.2417525600744643,-0.3014142424763291,1.720902639972391,1.1016704618895212,0.0,-0.0
0.12510861602716755,0.517622982237083,0.7975133781852576,1.2418405903153436,-0.02842741196635162,0.648784166647859,0.6089465296263552,1.4925558275919844,-0.006465704000996881,-0.11340014653373168,0.7223218843002908,0.2378790530535346,1.5133452887144663,0.24474233568900397,-0.30328529219518185,1.7212057188725822,-1.0981180275006786,-0.0,-0.0
0.0919565709290946,0.5006521712689568,0.7848750182525497,1.2374893778304414,-0.06118277116091926,0.6642736101798644,0.6243987676918601,1.500448742553199,-0.006465704000996881,-0.11340014653373168,0.7223218843002908,0.2378790530535346,1.499604295561804,0.24116757468192215,-0.30109694661908015,1.72134789406908,1.104170624764136,0.0,-0.0
0.11944673391326524,0.5130546623368626,0.7969637122263885,1.2430556748951338,-0.03429698774509094,0.6501573084879007,0.6133264007451932,1.4961578393103332,-0.006465704000996881,-0.11340014653373168,0.7223218843002908,0.2378790530535346,1.5108910248628844,0.24412578644737434,-0.3029560564170431,1.7217314339625283,-1.0929166306871043,-0.0,0.0
0.09181125511382371,0.49920104116282205,0.7861435158065018,1.2390941212769526,-0.061552000341918336,0.6633041759307549,0.6258973163280382,1.502315020167632,-0.006465704000996881,-0.11340014653373168,0.7223218843002908,0.2378790530535346,1.4994712784899464,0.24115032245019433,-0.30112598764270343,1.72175955167564,1.1051438484011102,0.0,0.0
0.12202326644966519,0.5128195144219007,0.7994381537126766,1.245214267408197,-0.03200808544003185,0.6477769541733107,0.6137444961404929,1.4976322943483544,-0.006465704000996881,-0.11340014653373168,0.7223218843002908,0.2378790530535346,1.511860608592248,0.24439825451430885,-0.3031674114187023,1.7221854496784983,-1.08440736413078,0.0,0.0
0.10267216567121004,0.5030329949776419,0.7919462531964082,1.242548717620749,-0.05110634058535837,0.6569198143568765,0.6226347909718792,1.502047925258347,-0.006465704000996881,-0.11340014653373168,0.7223218843002908,0.2378790530535346,1.5038687183354607,0.2423166644311648,-0.30188962798698554,1.7222302965509433,1.143886117232524,0.0,0.0
0.13042602797615613,0.51609030522922,0.8036366210630198,1.2475204308252579,-0.02387804049286301,0.6430582120224991,0.6109059111288535,1.497038354749722,-0.006465704000996881,-0.11340014653373168,0.7223218843002908,0.2378790530535346,1.5152685549845464,0.24529876104622686,-0.3037483522413014,1.7224599905817795,-0.9950852524858704,0.0,0.0
0.10135457532745655,0.5009494550912525,0.7928117512645557,1.2440401734121205,-0.0526427805389266,0.656453725356595,0.6247197322120908,1.5042616902033379,-0.006465704000996881,-0.11340014653373168,0.7223218843002908,0.2378790530535346,1.5032434392966278,0.24217215713055723,-0.3018418846833365,1.7226596322715777,1.1628983589423605,0.0,0.0
0.12152749735497476,0.5103883981550179,0.8013569764563111,1.2477068083364455,-0.032861357328644536,0.6463363395081348,0.6162504544996831,1.5007015673674549,-0.006465704000996881,-0.11340014653373168,0.7223218843002908,0.2378790530535346,1.511516404710292,0.2443373659506222,-0.303192877519437,1.7228427414039298,-1.0188145465698235,-0.0,-0.0
0.09338004277686728,0.4961886230388542,0.7904271196162066,1.243803082068424,-0.06063395606019273,0.6596705459216315,0.6291411854148711,1.5070493152332096,-0.006465704000996881,-0.11340014653373168,0.7223218843002908,0.2378790530535346,1.4999147291947206,0.24131422716118153,-0.3013360904000153,1.7228953880438755,1.120022700698637,-0.0,-0.0
0.12328370163693894,0.5097431891147046,0.8035086606633073,1.249742383657963,-0.031383997442175945,0.6443453862265788,0.6170430293746485,1.5023616902437864,-0.006465704000996881,-0.11340014653373168,0.7223218843002908,0.2378790530535346,1.5121434153811828,0.24452066827201177,-0.30334905610485857,1.7232970953256457,-1.0787764727594913,-0.0,-0.0
0.09389720539005555,0.4948325880304077,0.7921827725857653,1.2457788348982886,-0.06039253517753405,0.6582054687175617,0.6305882788470097,1.509086458381034,-0.006465704000996881,-0.11340014653373168,0.7223218843002908,0.2378790530535346,1.5000407196682173,0.2413674930987253,-0.3014148872729825,1.7233767393817396,1.0750861629853172,-0.0,-0.0
0.12322881202366383,0.508150689887797,0.8049898269033474,1.2515650547497,-0.03170040374593083,0.64318557277862,0.6187012516940201,1.5044775748162107,-0.006465704000996881,-0.11340014653373168,0.7223218843002908,0.2378790530535346,1.5120206969250154,0.24450908381375608,-0.3033863850707152,1.7237649291572408,-1.1782483406166149,-0.0,-0.0
0.10203992354413878,0.49740737631387105,0.7968168488185141,1.2487060978219044,-0.05326828356282909,0.6528309907219546,0.6280113567110889,1.50903883440626,-0.006465704000996881,-0.11340014653373168,0.7223218843002908,0.2378790530535346,1.5033058669826902,0.2422380022606395,-0.3019930712024866,1.7238190491312722,1.0548341212140349,-0.0,-0.0
0.13542441408001063,0.513053942259904,0.8109273685044618,1.2547094663609826,-0.019511503414126503,0.6366545435738699,0.6146959279361545,1.5035877029780635,-0.006465704000996881,-0.11340014653373168,0.7223218843002908,0.2378790530535346,1.5169543352847186,0.24581155139257949,-0.3042218412695125,1.7241172070737771,-1.2092206480340175,-0.0,-0.0
0.10686159827024184,0.49755446191646013,0.7999926459637917,1.2513090268298683,-0.048709796572291686,0.6495550108247429,0.6283438392902563,1.5108256671022897,-0.006465704000996881,-0.11340014653373168,0.7223218843002908,0.2378790530535346,1.5048038934298367,0.2426532357035241,-0.3023027268204314,1.7243856783650382,1.03136893673835,-0.0,-0.0
0.13836591921165095,0.5125635312735194,0.8130705025268798,1.256674341257931,-0.016808889220641006,0.6344668571088801,0.6155171007909164,1.5053730700194443,-0.006465704000996881,-0.11340014653373168,0.7223218843002908,0.2378790530535346,1.517679570477971,0.24602248698829993,-0.3043979185043511,1.7246043074317086,-1.2591149908129415,-0.0,0.0
0.10837262956699587,0.4961590448253852,0.8017171889723265,1.2532662842927904,-0.04749584133961893,0.6479183952768379,0.6299905238357811,1.5131356360701569,-0.006465704000996881,-0.11340014653373168,0.7223218843002908,0.2378790530535346,1.5049273701232657,0.24270844202660202,-0.30238711580628225,1.724916044342968,1.083083392167396,0.0,0.0
0.1264356759846114,0.5050309168575832,0.809525843231995,1.256494267476935,-0.02918850472600567,0.6386981183585408,0.6219710596994318,1.5096467664476678,-0.006465704000996881,-0.11340014653373168,0.7223218843002908,0.2378790530535346,1.512535818194235,0.2446996591780567,-0.3036249187582744,1.7250419264312,-0.9802260616326944,0.0,0.0
0.09756690018926611,0.4898859676484265,0.7979715855283267,1.2524663631063702,-0.05861385954592606,0.6526712178656551,0.6358290486221747,1.516563732475754,-0.006465704000996881,-0.11340014653373168,0.7223218843002908,0.2378790530535346,1.5003178739987653,0.24151498153274664,-0.3016734288822826,1.725138849936515,1.1710368658754746,0.0,0.0
0.11580255961820005,0.49847395923893384,0.8062018259713705,1.256149489696946,-0.040194629823738975,0.6430773133503116,0.6281294756445036,1.513552135819454,-0.006465704000996881,-0.11340014653373168,0.7223218843002908,0.2378790530535346,1.5079710347468525,0.2435229645667929,-0.30293220769393786,1.72537888717245,-0.9916456012484841,0.0,0.0
0.0847453750552808,0.482359323645586,0.7925559229703374,1.2507517896873248,-0.07165692193617715,0.6579876218817607,0.6417026377170989,1.5197609194084611,-0.006465704000996881,-0.11340014653373168,0.7223218843002908,0.2378790530535346,1.4949149181179744,0.24011097813292953,-0.3008234391028056,1.725291103020567,1.131663203340853,-0.0,-0.0
0.11226696956652457,0.4949953520780923,0.806181470561131,1.2574373665635104,-0.04404930324555236,0.643606906871726,0.6313253138429125,1.5163460743736534,-0.006465704000996881,-0.11340014653373168,0.7223218843002908,0.2378790530535346,1.5063867681742074,0.24312956809747574,-0.3027341962045888,1.725850368253397,-1.1260175357110676,-0.0,-0.0
0.08553476309753777,0.4820397113796957,0.7953031852792336,1.2531752485336922,-0.07033537319193875,0.6562168643603098,0.6424923659520273,1.5212869499201933,-0.006465704000996881,-0.11340014653373168,0.7223218843002908,0.2378790530535346,1.4954907339894148,0.24027914828029018,-0.3009674789647742,1.725721936773646,0.917167204427888,-0.0,0.0
0.12282941986395207,0.4983205097804859,0.8121750757032816,1.2612077384933493,-0.03396847951496205,0.6373475099630097,0.6287289389506455,1.516681927776134,-0.006465704000996881,-0.11340014653373168,0.7223218843002908,0.2378790530535346,1.5105846697903318,0.2442502741431252,-0.30347820396218467,1.7264291707931656,-1.3099508742045973,0.0,0.0
0.09179951172455589,0.48228770286545947,0.7995250245825888,1.2566276196009267,-0.06554936242629233,0.6525904122366025,0.6433399018610854,1.52369327014096,-0.006465704000996881,-0.11340014653373168,0.7223218843002908,0.2378790530535346,1.4975178157311388,0.24083888645999985,-0.30138054258607616,1.7264518714646526,1.1598764768887302,0.0,0.0
0.11837209709269958,0.4941591769670473,0.8112860460277017,1.2620187735470143,-0.039594921518719794,0.6392903329846831,0.6333076662015911,1.5201552090458816,-0.006465704000996881,-0.11340014653373168,0.7223218843002908,0.2378790530535346,1.5082673295441444,0.24366481491097344,-0.3031603020089782,1.7268846886469524,-1.0371041716574438,-0.0,-0.0
0.09880746201192851,0.4844903538699344,0.8035082094531247,1.259134833035347,-0.05886341023914847,0.648420360544179,0.641635146507553,1.5239410379755665,-0.006465704000996881,-0.11340014653373168,0.7223218843002908,0.2378790530535346,1.5003032186730216,0.241582653033661,-0.3018745462493985,1.726839465458931,0.9820242816744094,-0.0,-0.0
0.1367059305811162,0.5018932062150925,0.8198367295518242,1.2662647916667849,-0.02176885541510786,0.6297797239285248,0.6268528932410464,1.5183147831264137,-0.006465704000996881,-0.11340014653373168,0.7223218843002908,0.2378790530535346,1.5156471860333203,0.2456111298849443,-0.30439869059089086,1.7273193071064938,-1.3328151289325325,0.0,0.0
0.1075612746874284,0.4865467291405859,0.8091667583094414,1.2630840279243687,-0.05063566119378948,0.6426822948894773,0.6402198289959479,1.5251778309149036,-0.006465704000996881,-0.11340014653373168,0.7223218843002908,0.2378790530535346,1.5037359488543358,0.24250887924738077,-0.30250952001432646,1.7275340600896925,1.1433382469524722,0.0,0.0
0.12767531564972615,0.4960921246264288,0.8175382655048343,1.2664970689652582,-0.03089757483456796,0.6330057750492771,0.6320635357565533,1.5218139944753442,-0.006465704000996881,-0.11340014653373168,0.7223218843002908,0.2378790530535346,1.5118831299527749,0.24464457787043775,-0.30383914721648847,1.727698533544349,-1.0115808516432725,-0.0,-0.0
0.10103921701415614,0.48250006489868946,0.8073654397477692,1.263090058962717,-0.05720198994724686,0.6451261432662254,0.6438342635159205,1.5274997499145913,-0.006465704000996881,-0.11340014653373168,0.7223218843002908,0.2378790530535346,1.501037306524016,0.24181362353338978,-0.3021029975922923,1.7277633216841994,0.9398231132660225,-0.0,-0.0
0.13834850412655916,0.4997673925092103,0.8233066372883413,1.2699210168400374,-0.02066833438244041,0.6268624246508767,0.6291526011372349,1.5218326409999872,-0.006465704000996881,-0.11340014653373168,0.7223218843002908,0.2378790530535346,1.5161114110490175,0.24577111179206196,-0.3045786988541009,1.7281980340105425,-1.306900473565711,0.0,0.0
0.10582532672303302,0.4825673171021386,0.8114754089912747,1.266482501495687,-0.052891033542483396,0.6412139958130051,0.6441406721934537,1.5295509615025227,-0.006465704000996881,-0.11340014653373168,0.7223218843002908,0.2378790530535346,1.5028470086782495,0.24231611462213748,-0.30247676987851885,1.7284574170607343,1.1530079477368247,-0.0,-0.0
0.1359769642045408,0.49677004340300324,0.8241205282564456,1.2716965551147468,-0.023327209424067828,0.6266254134578345,0.6320278229516664,1.5246804388491462,-0.006465704000996881,-0.11340014653373168,0.7223218843002908,0.2378790530535346,1.5150208668106204,0.24550998809974298,-0.3044678904087218,1.7287370915738427,-1.172978085019014,0.0,0.0
0.10243033734242983,0.4791816964178687,0.8117691029065933,1.2679851572505076,-0.056534512775177015,0.6415500155657068,0.6473277679937031,1.5324140417258778,-0.006465704000996881,-0.11340014653373168,0.7223218843002908,0.2378790530535346,1.5013699105019753,0.24195144428704995,-0.30229864040400795,1.7289566434322683,1.1839450537602607,0.0,0.0
0.1317219825347113,0.49279608238104833,0.8242239155012031,1.2732490235807847,-0.027849139413637085,0.6272436504919879,0.6357496487241895,1.5279352249441787,-0.006465704000996881,-0.11340014653373168,0.7223218843002908,0.2378790530535346,1.5131677796691603,0.24504966838099307,-0.3042349741332842,1.729283154460536,-1.0232586943462965,-0.0,-0.0
0.10117694856152841,0.47702192478681227,0.8127452899575376,1.2696020782008999,-0.05804005420256816,0.641018239241833,0.6494314931112172,1.5346368391724319,-0.006465704000996881,-0.11340014653373168,0.7223218843002908,0.2378790530535346,1.5007733995171564,0.24181475704458025,-0.30225630974463413,1.7294092291117742,1.067733377930497,-0.0,-0.0
0.13203672210566644,0.49129035298523205,0.8259346650157806,1.2752211057279899,-0.027835284194996573,0.6258898908581317,0.6373123601154552,1.530031107333947,-0.006465704000996881,-0.11340014653373168,0.7223218843002908,0.2378790530535346,1.5131817778861192,0.24507488624880175,-0.30429572048339404,1.7297759377746296,-1.1890928799105613,-0.0,-0.0
0.11122216243491098,0.4805366556372177,0.8181182379666677,1.272749967087566,-0.0484078558556927,0.6356467764012808,0.6470551864088737,1.5348140840768814,-0.006465704000996881,-0.11340014653373168,0.7223218843002908,0.2378790530535346,1.5047472745884634,0.24287308812276234,-0.30294909968863365,1.729862313956003,1.0669094934523042,-0.0,-0.0
0.14483843044744665,0.49666973031252476,0.831926005296329,1.2781745617129354,-0.015403285945517715,0.619566634511946,0.6332713288668029,1.5290861132099534,-0.006465704000996881,-0.11340014653373168,0.7223218843002908,0.2378790530535346,1.51828448575101,0.24642299415395424,-0.30515382223788795,1.7300894113192227,-1.193700763281613,0.0,0.0
0.11748114411045688,0.4819276181906625,0.8222472478855796,1.2756462491373122,-0.042551467022653444,0.6319435816332054,0.6466969789260961,1.5361581445128385,-0.006465704000996881,-0.11340014653373168,0.7223218843002908,0.2378790530535346,1.507167638926494,0.243528645955969,-0.3034004888925934,1.7303849717676716,1.0937527949965642,0.0,0.0
0.13851188253660954,0.49252622100068105,0.8310635563481222,1.278986731425782,-0.021206696924948407,0.6217144715521142,0.6375760957937868,1.5321953553623189,-0.006465704000996881,-0.11340014653373168,0.7223218843002908,0.2378790530535346,1.5159081116371649,0.2458182116612332,-0.30481610802247855,1.7304635081732727,-1.098013631757936,0.0,0.0
0.10678174458920603,0.47532995973596076,0.8189175699676657,1.2753506015091032,-0.05362905565673313,0.6362276451473332,0.6526110964719133,1.5397984429129061,-0.006465704000996881,-0.11340014653373168,0.7223218843002908,0.2378790530535346,1.5026431936366673,0.24235962169400044,-0.3027116944957811,1.7307155195736477,1.1139857317977258,-0.0,0.0
0.13103209804397642,0.48707600868451223,0.8295294949133136,1.2797435332154377,-0.02910296857465532,0.624078060948812,0.6425945750455642,1.535868722303261,-0.006465704000996881,-0.11340014653373168,0.7223218843002908,0.2378790530535346,1.5126812276899253,0.24499570371774548,-0.3043546546101928,1.730950974783804,-0.9869596576211055,0.0,-0.0
0.10792806307382695,0.4751901613590261,0.820806485123776,1.276964390317387,-0.05192695713977107,0.6345629511982743,0.6528764243111354,1.5407989709863128,-0.006465704000996881,-0.11340014653373168,0.7223218843002908,0.2378790530535346,1.50335348757124,0.24255895571816882,-0.30286321770464836,1.7310320971555604,1.1187503248274908,0.0,-0.0
0.1372360325258618,0.4894604808412124,0.8335621788125548,1.2821788054953007,-0.02227469595917838,0.6199487648053974,0.6406747822999327,1.5359377574178232,-0.006465704000996881,-0.11340014653373168,0.7223218843002908,0.2378790530535346,1.5154783823548097,0.24574226547157077,-0.30484457885542743,1.7312886262106406,-1.071145383431269,-0.0,0.0
0.1094365279968735,0.4744584103304317,0.8228599299839126,1.278938581171784,-0.050666083058251654,0.6327041604880695,0.6537956750822321,1.5425058696810796,-0.006465704000996881,-0.11340014653373168,0.7223218843002908,0.2378790530535346,1.5038884217144302,0.2427187063199465,-0.3030035629783579,1.7314932920032542,1.087419793025222,-0.0,0.0
0.13118143448140918,0.48510059432342073,0.832271276978807,1.282735416593995,-0.028656824930108165,0.6218987031692615,0.6446863605440897,1.5388396732575655,-0.006465704000996881,-0.11340014653373168,0.7223218843002908,0.2378790530535346,1.512876345742874,0.245078178827509,-0.3044705826136132,1.7316677520420332,-1.1322707857600076,0.0,-0.0
0.09972158632407468,0.46847372570145057,0.8198232497939734,1.2786705767936843,-0.06072234770835007,0.6366080107978832,0.659163182527116,1.545781075827074,-0.006465704000996881,-0.11340014653373168,0.7223218843002908,0.2378790530535346,1.4997976128241208,0.24166093488370732,-0.30237998978211134,1.7317901248369654,1.1040569494498809,0.0,-0.0
0.12686469842597486,0.4812768224286234,0.8320179213931839,1.2839550357812555,-0.033337276508743685,0.62276684795203,0.6482988256455873,1.541846155116425,-0.006465704000996881,-0.11340014653373168,0.7223218843002908,0.2378790530535346,1.510975954427888,0.24460204337718308,-0.3042216522307238,1.7321532693653985,-1.0976797201665875,-0.0,0.0
0.10475882338832938,0.46977232886652853,0.8231012420652196,1.2809007254055123,-0.05583555803492553,0.6332423513539932,0.6582816525231934,1.5464687483531259,-0.006465704000996881,-0.11340014653373168,0.7223218843002908,0.2378790530535346,1.5018103094206523,0.24220432582728374,-0.30274982548528545,1.7321835700654817,1.1054927916775898,0.0,0.0
0.13420183537850366,0.4839227995098318,0.8360830333084286,1.2863206772016218,-0.026083884835841478,0.6184164615118661,0.6462219335670306,1.5418708060971027,-0.006465704000996881,-0.11340014653373168,0.7223218843002908,0.2378790530535346,1.513939403227031,0.24539271752595931,-0.3047391087194429,1.732499059930292,-1.0727731986002358,0.0,-0.0
0.11500743761793362,0.4736856541654479,0.8285790866086167,1.2839622519369156,-0.04566408184091045,0.6273246323127091,0.6551520019508998,1.5462107279588786,-0.006465704000996881,-0.11340014653373168,0.7223218843002908,0.2378790530535346,1.5059719494113024,0.24331147205585527,-0.3034684623811945,1.7326009973461762,1.1148186033716638,-0.0,0.0
0.14433488237739678,0.48831559165062893,0.8410068523665405,1.2887340524648294,-0.015932788958191516,0.6129477826158146,0.6425770617480685,1.5409399836066784,-0.006465704000996881,-0.11340014653373168,0.7223218843002908,0.2378790530535346,1.5180744063783704,0.24648642861045322,-0.3054347194489009,1.7327542960360802,-1.07192197075807,-0.0,0.0
0.11270240259093842,0.47087816307413677,0.8291891641775614,1.2855143917595575,-0.04830534701595194,0.6271909890287377,0.6578948501589272,1.548853985024575,-0.006465704000996881,-0.11340014653373168,0.7223218843002908,0.2378790530535346,1.5049148045734873,0.24305622889617598,-0.30335638612247245,1.7330965940547274,1.1157083669476502,0.0,-0.0
0.14221189760541847,0.48546893416530273,0.8418139115314314,1.2904519526675846,-0.018414250128913956,0.6126248805724493,0.6453795394491294,1.5437404629827782,-0.006465704000996881,-0.11340014653373168,0.7223218843002908,0.2378790530535346,1.5170667693715183,0.2462465556578849,-0.3053356093974351,1.7332911825282806,-1.0767764668211472,-0.0,0.0
0.11379936891036146,0.4699254575366639,0.8310849935028664,1.2874341124658655,-0.04746966818735421,0.6255161786311159,0.6590116905149793,1.550666225168087,-0.006465704000996881,-0.11340014653373168,0.7223218843002908,0.2378790530535346,1.5052723610694811,0.24316987666407092,-0.3034680955108594,1.733560269833231,1.109395443510698,-0.0,0.0
0.13485091646870714,0.4803703938719144,0.8400557753825451,1.2909058137295508,-0.02613995489551697,0.615149291563488,0.650045774052954,1.5469823899454598,-0.006465704000996881,-0.11340014653373168,0.7223218843002908,0.2378790530535346,1.5139323693618516,0.24544341745757253,-0.3048775179305783,1.7336887665729939,-1.0857713249354575,-0.0,0.0
0.10335218785764264,0.463560385059455,0.8277556140213178,1.2870802419729352,-0.058273163354730664,0.629771235108872,0.6647109433520451,1.5540706520445409,-0.006465704000996881,-0.11340014653373168,0.7223218843002908,0.2378790530535346,1.5009000114841062,0.2420375255893971,-0.3027984422027397,1.7338559380771892,1.1059150285432966,-0.0,-0.0
0.13047406608394338,0.4765052110947055,0.8397892370345449,1.292132736364187,-0.030887982845604886,0.6160384721965443,0.6536995373341787,1.5500072636901585,-0.006465704000996881,-0.11340014653373168,0.7223218843002908,0.2378790530535346,1.5120139046445282,0.24496230068638794,-0.3046252458674642,1.7341759183933831,-1.0915814065893228,-0.0,-0.0
0.10458020218118043,0.4628970580464489,0.8294773841025742,1.2887547343038874,-0.05808809056626178,0.6282445772265085,0.6655024187963998,1.555498364810458,-0.006465704000996881,-0.11340014653373168,0.7223218843002908,0.2378790530535346,1.5013294562758033,0.24216661017264238,-0.302912885798442,1.7342478062628464,1.1042577436694072,0.0,-0.0
0.13574359737617034,0.4766954352063356,0.8415749533912299,1.2935430675130903,-0.029355242744432127,0.6133171473027872,0.6533570609120953,1.5509323552352017,-0.006465704000996881,-0.11340014653373168,0.7223218843002908,0.2378790530535346,1.5129780260360741,0.24523186796789267,-0.30482580166347184,1.734566830517996,-1.093868962853875,-0.0,-0.0
0.1054278625879804,0.46214374303876704,0.8318411279491765,1.2909721978442965,-0.05677350290393764,0.6278078049633391,0.6679103369730933,1.5579398897614498,-0.006465704000996881,-0.11340014653373168,0.7223218843002908,0.2378790530535346,1.5015263377504766,0.24223650581690523,-0.3029944093568665,1.7346793326438306,1.1047463883860096,-0.0,-0.0
0.13639641824929066,0.47557831747929463,0.843318733651082,1.295378107236184,-0.02901986483910033,0.6118151344910334,0.6545312877410923,1.55274237843269,-0.006465704000996881,-0.11340014653373168,0.7223218843002908,0.2378790530535346,1.5127623820838498,0.24519339547350796,-0.30483884313823745,1.7349796113195282,-1.0928559441449082,0.0,-0.0
0.10840230810301854,0.4620600777550872,0.8342769527383067,1.2929999931138099,-0.054356624518641164,0.6257051302844517,0.6685827579447198,1.559537970251846,-0.006465704000996881,-0.11340014653373168,0.7223218843002908,0.2378790530535346,1.5025242602230904,0.2425147171025645,-0.3032005413889742,1.7350733571759738,1.1042073822171965,0.0,-0.0
0.14405260979711956,0.4765478724876816,0.8456857515881219,1.2969601106336388,-0.024964672307310153,0.6066478236626385,0.6519841144401404,1.5527698193995292,-0.006465704000996881,-0.11340014653373168,0.7223218843002908,0.2378790530535346,1.5147905998892628,0.24574155205562204,-0.3052096966961413,1.7353617054692765,-1.092882682744541,-0.0,0.0
0.11544659223196738,0.46429926832042234,0.8391843467106107,1.2961608473732005,-0.047656826647876155,0.6204971870905798,0.6666738383506317,1.560177645110664,-0.006465704000996881,-0.11340014653373168,0.7223218843002908,0.2378790530535346,1.5053389515614106,0.24327095734442072,-0.30370420008248555,1.735509536273531,1.1052619591224755,-0.0,0.0
0.1502062080742447,0.47780307440936637,0.8484826114939167,1.2987597702610387,-0.020333603363579297,0.6025851432346216,0.6503074637307784,1.55311970778438,-0.006465704000996881,-0.11340014653373168,0.7223218843002908,0.2378790530535346,1.5167220975765883,0.2462615570406798,-0.3055570595556779,1.735674499976248,-1.092332891770782,-0.0,0.0
0.1292028230248708,0.4679259233213139,0.8429590979968624,1.2978998438208238,-0.03793660736719249,0.6125302179090107,0.6611416726819255,1.5587061914476121,-0.006465704000996881,-0.11340014653373168,0.7223218843002908,0.2378790530535346,1.5096286591428976,0.2444090779046584,-0.30443216487065394,1.7358291985328904,1.1043821932705278,-0.0,-0.0
0.16061539346212964,0.48316805561175513,0.8541978482796793,1.301407809105145,-0.008781474337992905,0.5974908056657177,0.646852315302763,1.5522466267095636,-0.006465704000996881,-0.11340014653373168,0.7223218843002908,0.2378790530535346,1.5203712634391895,0.24722537161050442,-0.3061639485522707,1.7358376884092048,-1.0932584238102594,0.0,-0.0
0.13296000620882667,0.46728743396201344,0.8443848646687095,1.2993105778836445,-0.03766692222757569,0.6094569482130328,0.6605940270456055,1.5596340398108457,-0.006465704000996881,-0.11340014653373168,0.7223218843002908,0.2378790530535346,1.510314750632492,0.24460408583059806,-0.30458270413900773,1.7361739471043887,1.104694661793643,0.0,-0.0
0.15376205599154424,0.47820628174915314,0.8527513110437273,1.30206813225705,-0.0167272946424616,0.5993371540368299,0.6509572124095084,1.555267106119517,-0.006465704000996881,-0.11340014653373168,0.7223218843002908,0.2378790530535346,1.5178064096708608,0.2465676570751652,-0.3057886116869779,1.7361633374270926,-1.0937345171401964,0.0,0.0
0.12209659381884715,0.46159142347042315,0.8426437724991793,1.2999971093068994,-0.048895366070988114,0.6136094306721227,0.66658641161779,1.5633465154547015,-0.006465704000996881,-0.11340014653373168,0.7223218843002908,0.2378790530535346,1.5069121964747147,0.24372370533883536,-0.3040650953224777,1.7364387531585863,1.1044623664406665,-0.0,0.0
0.13823378186589355,0.4732856327048751,0.8543269869799013,1.3051250885297152,-0.025600228007603903,0.6049586495054012,0.6595299831340761,1.5607006039300038,-0.006465704000996881,-0.11340014653373168,0.7223218843002908,0.2378790530535346,1.5142265567286382,0.24564444888596576,-0.305251634186175,1.7365076021797197,-1.0918195986522936,0.0,0.0
0.11698313078254893,0.4562184454483296,0.8389225540300957,1.2990347618133127,-0.05776710561469578,0.6142560142916127,0.6683393983167174,1.5646757881762139,-0.006465704000996881,-0.11340014653373168,0.7223218843002908,0.2378790530535346,1.5046096933662745,0.24312877591588378,-0.3037173410488279,1.7366412325534544,1.1050818369494937,-0.0,-0.0
0.13413180403274635,0.46885429113757077,0.8523149968365376,1.3052092256353576,-0.03202060358118036,0.6059410427684013,0.6623989588245338,1.5628921375377078,-0.006465704000996881,-0.11340014653373168,0.7223218843002908,0.2378790530535346,1.5123159967767443,0.24515504391709264,-0.3049739660185693,1.7367702311254611,-1.0935840099396519,-0.0,0.0
0.10692458882525316,0.447360271306919,0.8322870880932955,1.2970271235020654,-0.07313974623232915,0.6181059612976916,0.6733105588656788,1.567520376045463,-0.006465704000996881,-0.11340014653373168,0.7223218843002908,0.2378790530535346,1.5000322589248858,0.24193813492286984,-0.3030054431758646,1.736866334003019,1.0997387279093438,-0.0,0.0
0.12881414977197858,0.4568726319174332,0.8409121242690447,1.3005357368618289,-0.05299501540167182,0.6069168198789943,0.6644950963140392,1.5644134348478271,-0.006465704000996881,-0.11340014653373168,0.7223218843002908,0.2378790530535346,1.5065151039277458,0.2436469143266654,-0.3040733499922139,1.7370693692222092,-1.105774543381479,-0.0,-0.0
0.08749668044256398,0.43490193478534117,0.822348641358233,1.2935913860641153,-0.09483190767604727,0.6267285595495549,0.6819566625462244,1.5716501760681767,-0.006465704000996881,-0.11340014653373168,0.7223218843002908,0.2378790530535346,1.493720455287452,0.24028553056475827,-0.30199572825396337,1.7369332663234411,1.1015995458940588,0.0,0.0
0.1116128491877762,0.44584616615537553,0.8348621940300734,1.2997589011065747,-0.07078450920548053,0.6139408195103525,0.6735959560411999,1.5696659257453358,-0.006465704000996881,-0.11340014653373168,0.7223218843002908,0.2378790530535346,1.501099843729768,0.2422369708594949,-0.3032280937958582,1.7373129599707722,-1.0910945223351978,-0.0,0.0
0.08211127425622951,0.43112394146409944,0.8207366340799389,1.293725911502761,-0.1004600867377203,0.6287309397693513,0.6851184023841668,1.5736495142608198,-0.006465704000996881,-0.11340014653373168,0.7223218843002908,0.2378790530535346,1.4920255947638252,0.2398460451889041,-0.30173675223376084,1.7370599809269036,1.104202277061436,-0.0,0.0
0.11019752685111836,0.4435794696575597,0.8355595652741449,1.3012229979747458,-0.07251524528058288,0.6136581381485975,0.6756641726573809,1.5716832970016887,-0.006465704000996881,-0.11340014653373168,0.7223218843002908,0.2378790530535346,1.5005991502995277,0.24211533369900612,-0.30317374755380894,1.7375474019556643,-1.0811214069343698,0.0,-0.0
0.08057287588614047,0.42888384308257055,0.8212995372856795,1.2950799415842258,-0.10229180020526359,0.6285676299953963,0.6871468917919845,1.5755640972740887,-0.006465704000996881,-0.11340014653373168,0.7223218843002908,0.2378790530535346,1.4915036802954897,0.2397179797600185,-0.3016772453380171,1.7372794824057276,1.1062412138571804,0.0,-0.0
0.10490191140367587,0.4401115974264569,0.8350707385031408,1.3021632296116687,-0.07491226561354504,0.6158620924596948,0.6800595061426027,1.5746948336675743,-0.006465704000996881,-0.11340014653373168,0.7223218843002908,0.2378790530535346,1.4995143388149053,0.24183901313774267,-0.3030213804630416,1.7377480705608197,-1.094852474226812,0.0,-0.0
0.08013474300576065,0.42855371244066603,0.8237335100208806,1.2972338200229976,-0.10176771774639386,0.6270727429302305,0.687754665366459,1.576757656708025,-0.006465704000996881,-0.11340014653373168,0.7223218843002908,0.2378790530535346,1.4916913579251625,0.23977574476661023,-0.3017311710752549,1.737490709844718,1.1017739675582607,0.0,0.0
0.1100333594127254,0.44118733248064423,0.8385921066518484,1.3046720474036346,-0.06965127804589166,0.6126588871130932,0.6798459194320652,1.5758924996291392,-0.006465704000996881,-0.11340014653373168,0.7223218843002908,0.2378790530535346,1.5010780486272124,0.24226108196476964,-0.3033055562963108,1.7380339630038748,-1.0948483047657065,-0.0,0.0
0.08040686536912083,0.4271602106313555,0.8253616978631286,1.29913616296741,-0.09934398984208989,0.6279726528837635,0.691858089298049,1.5800358693537222,-0.006465704000996881,-0.11340014653373168,0.7223218843002908,0.2378790530535346,1.4899039204194628,0.23931601757127993,-0.3014688923152707,1.7377222960767271,1.1031210092391335,-0.0,-0.0
