muneebpandith/TeleoperationWork/DATASET/TRANSORMER_DATA/training_data_for_transformer1686208272.2137961.csv
J0,J1,J2,J3,J4,J5,J6,J7,J8,J9,J10,J11,J12,J13,J14,J15,ThetaXHG,ThetaYHG,ThetaZHG
-0.025129144998083455,0.6383367008999223,0.6965630003258215,1.102202402632558,-0.009600100479239128,0.7802944284963562,0.5238014171309332,1.3479210725091815,-0.006348816108319713,-0.05813068253246969,0.7592610091355694,0.2378790530535346,1.4378772083907392,0.2141355983043009,-0.2927053536019232,1.6807309324023323,0.0010596486075997056,0.0,-0.0
-0.02509767323573901,0.6383463233212342,0.6965784446091267,1.1022122813007385,-0.009572687914298727,0.7802788316656688,0.5237872788212934,1.3479136123251954,-0.006348816108319713,-0.05813068253246969,0.7592610091355694,0.2378790530535346,1.4378904513135864,0.21413905074757142,-0.2927079631538209,1.6807342895587403,-0.0011713997708916908,0.0,-0.0
-0.02503725167903694,0.6383648007290189,0.6966080916750617,1.1022312423182392,-0.009520059526968635,0.780248890929877,0.5237601316550694,1.3478992848383275,-0.006348816108319713,-0.05813068253246969,0.7592610091355694,0.2378790530535346,1.4379158759863968,0.21414567895245706,-0.2927129729801624,1.6807407336967561,-0.002347573918435265,0.0,0.0
-0.024373989091545246,0.6385517541462806,0.6969118301670526,1.1024262832004619,-0.008957327531984624,0.779917164139177,0.52345875587468,1.3477399489664876,-0.006348816108319713,-0.05813068253246969,0.7592610091355694,0.2378790530535346,1.438187732096722,0.2142165510883884,-0.29276653759697197,1.6808096145093887,-0.001932685503475933,0.0,-0.0
-0.02359661019073251,0.6387821637892466,0.6972808180334349,1.1026620759340247,-0.008299426373743259,0.7795437501742362,0.5231183847441276,1.3475594307945358,-0.006348816108319713,-0.05813068253246969,0.7592610091355694,0.2378790530535346,1.4385055815433974,0.21429940513232754,-0.2928291206432437,1.6808898507296557,-0.006090119072199645,0.0,-0.0
-0.02278519167361784,0.639023844167391,0.6976647002047053,1.1029066706842627,-0.007612735100834987,0.7791549525364347,0.5227620108475876,1.3473694614909824,-0.006348816108319713,-0.05813068253246969,0.7592610091355694,0.2378790530535346,1.4388373612757364,0.21438588009254586,-0.2928943931097795,1.6809732398086776,-0.007418017521184419,-0.0,-0.0
-0.021979432859363383,0.6392650625224019,0.698044596306568,1.103147982334034,-0.006930851800641164,0.7787698700134118,0.5224069840989799,1.3471792131793625,-0.006348816108319713,-0.05813068253246969,0.7592610091355694,0.2378790530535346,1.4391668400207462,0.21447174462699423,-0.2929591575950318,1.681055673738297,-0.007243964016809297,0.0,0.0
-0.021131754379283503,0.6395201075608968,0.6984428900792171,1.1034002021780154,-0.006213512268390755,0.778365802298219,0.5220322978276107,1.3469773904349143,-0.006348816108319713,-0.05813068253246969,0.7592610091355694,0.2378790530535346,1.4395134740945557,0.21456206876713024,-0.2930272365142769,1.6811420062694904,-0.008717289896923094,0.0,-0.0
-0.020228383907877397,0.6397933396572509,0.6988658200676942,1.103667148874572,-0.0054490647137784756,0.7779363641810085,0.5216316618545944,1.3467604270143458,-0.006348816108319713,-0.05813068253246969,0.7592610091355694,0.2378790530535346,1.4398828981432266,0.21465831882561995,-0.293099726706271,1.6812335737031692,-0.010888570768268458,0.0,-0.0
-0.019478259520073822,0.6400214860808241,0.6992156502765002,1.1038871810864643,-0.004814314718048906,0.7775808171177696,0.5212978096467679,1.3465786032042621,-0.006348816108319713,-0.05813068253246969,0.7592610091355694,0.2378790530535346,1.4401896686192972,0.21473823391624688,-0.2931598655155536,1.6813092211845526,-0.008298815762146054,0.0,-0.0
-0.018658566021832173,0.6402719383067517,0.6995966961364856,1.104126142025728,-0.004120712001297893,0.777193241523039,0.5209319249062546,1.3463784040675333,-0.006348816108319713,-0.05813068253246969,0.7592610091355694,0.2378790530535346,1.4405249038787118,0.21482555407118645,-0.29322553265904877,1.6813915338149574,-0.007707046653869543,0.0,0.0
-0.01802410444633247,0.6404667631846508,0.6998905953616072,1.104309854339505,-0.0035838610678653646,0.7768940498944763,0.5206478169217409,1.3462221654018507,-0.006348816108319713,-0.05813068253246969,0.7592610091355694,0.2378790530535346,1.4407843956354038,0.2148931364016118,-0.29327631904636164,1.6814549492024111,-0.010981137418502644,0.0,-0.0
-0.017140420033310868,0.6407391611662124,0.7002988213511521,1.1045643853090883,-0.002836144064675871,0.7764781966425657,0.5202511332009431,1.3460031739502818,-0.006348816108319713,-0.05813068253246969,0.7592610091355694,0.2378790530535346,1.4411458315613035,0.21498725990868683,-0.2933470101938728,1.6815429552866723,-0.010002177361112604,0.0,0.0
-0.01637240057083789,0.6409771678647653,0.7006522597275315,1.1047839734854772,-0.002186312427932711,0.7761178205422873,0.5199051907914705,1.345811173887136,-0.006348816108319713,-0.05813068253246969,0.7592610091355694,0.2378790530535346,1.441459975652744,0.2150690566389817,-0.2934083946716857,1.6816190556761494,-0.005641491672690379,-0.0,0.0
-0.015611182245269736,0.6412141537065409,0.7010014012942861,1.1050002164824586,-0.001542249829169007,0.7757615377234864,0.5195612952078399,1.3456194325691986,-0.006348816108319713,-0.05813068253246969,0.7592610091355694,0.2378790530535346,1.4417713522649396,0.21515012306236156,-0.29346918919405357,1.681694149253798,-0.005453201121745011,0.0,-0.0
-0.014818705469333626,0.6414619915837791,0.7013636761254138,1.1052238951078688,-0.0008717543724552168,0.7753915559581303,0.5192022291381,1.3454183293192399,-0.006348816108319713,-0.05813068253246969,0.7592610091355694,0.2378790530535346,1.4420955303335667,0.21523451228633644,-0.2935324324092803,1.6817719830641893,-0.0066094353303569435,0.0,-0.0
-0.013933693152990268,0.6417400705820749,0.7017668537234603,1.1054720144727905,-0.0001229837098260712,0.7749794558969402,0.518800016570908,1.3451920122904122,-0.006348816108319713,-0.05813068253246969,0.7592610091355694,0.2378790530535346,1.4424575798824921,0.2153287484266811,-0.2936030049598917,1.6818585062448,-0.010143053540927876,0.0,-0.0
-0.013020964589178964,0.6420283562446487,0.7021810467657407,1.1057259736425016,0.0006492173532205315,0.7745556988541553,0.518383803732579,1.344956612066654,-0.006348816108319713,-0.05813068253246969,0.7592610091355694,0.2378790530535346,1.4428309890606434,0.2154259278176833,-0.2936757239564465,1.6819472796247872,-0.014755895273483198,0.0,-0.0
-0.012329856668368349,0.6422478116461577,0.7024934114752027,1.105916762398555,0.0012339047557692294,0.7742358107905721,0.51806755576057,1.3447768101488382,-0.006348816108319713,-0.05813068253246969,0.7592610091355694,0.2378790530535346,1.44311374727508,0.2154995048211705,-0.2937307363371706,1.6820141391777743,-0.01399974503372968,0.0,-0.0
-0.011193438181966994,0.6426101255293718,0.7030054807804533,1.1062286106393386,0.002195313470523537,0.7737110212466455,0.5175461708935777,1.3444792110753108,-0.006348816108319713,-0.05813068253246969,0.7592610091355694,0.2378790530535346,1.4435787203406594,0.2156204830931267,-0.2938211338943186,1.682123632824916,-0.015362472526117558,0.0,-0.0
-0.01031291282146316,0.6428927061521488,0.7034002508728263,1.1064678528521534,0.0029402144636410093,0.7733059519793216,0.5171404504249704,1.3442461465205355,-0.006348816108319713,-0.05813068253246969,0.7592610091355694,0.2378790530535346,1.4439390210464875,0.21571421054014486,-0.2938910977514123,1.682207902686551,-0.013395957493491742,0.0,-0.0
-0.009150222335447107,0.6432677316345883,0.7039194860323709,1.1067813221937641,0.003923797193795874,0.7727726659951969,0.5166029380751707,1.3439358592973882,-0.006348816108319713,-0.05813068253246969,0.7592610091355694,0.2378790530535346,1.4444148098495773,0.21583796343622141,-0.2939834015653825,1.6823185954818907,-0.020322922402953924,0.0,-0.0
-0.007946891625676626,0.6436584482175641,0.7044540841387195,1.1071024193840435,0.004941729685762965,0.7722229120605868,0.5160442077471404,1.343611256482958,-0.006348816108319713,-0.05813068253246969,0.7592610091355694,0.2378790530535346,1.4449072702687376,0.21596602900546608,-0.2940788226158124,1.6824323631341536,-0.02641603440856966,0.0,-0.0
-0.006904499793267253,0.6439992213381112,0.7049146856344876,1.107377590301221,0.005823493111632928,0.7717486344061181,0.5155580263354035,1.3433269533754901,-0.006348816108319713,-0.05813068253246969,0.7592610091355694,0.2378790530535346,1.445333904651517,0.2160769551122041,-0.2941613840748339,1.6825302032538085,-0.03193714494589392,0.0,0.0
-0.0051906191134400296,0.6445628043455975,0.7056684424875609,1.1078257794098025,0.007273235335609416,0.770971616073061,0.5147555542524548,1.3428550677132998,-0.006348816108319713,-0.05813068253246969,0.7592610091355694,0.2378790530535346,1.4460354240903996,0.21625932175655452,-0.29429699149787664,1.6826900568737064,-0.034679559764470735,0.0,0.0
-0.00411250741825783,0.6449207234384065,0.7061389150925104,1.1081033295627025,0.008185155108156738,0.7704857137823891,0.514247553890119,1.3425536319994604,-0.006348816108319713,-0.05813068253246969,0.7592610091355694,0.2378790530535346,1.446476771544266,0.216374022763689,-0.29438215205499574,1.6827895648632356,-0.02679026130658914,0.0,0.0
-0.0029949217171298336,0.6452939606569886,0.7066242175807108,1.1083881884860207,0.009130441056499003,0.7699839004797766,0.5137188622583939,1.3422381575512516,-0.006348816108319713,-0.05813068253246969,0.7592610091355694,0.2378790530535346,1.4469343181367162,0.21649291314883304,-0.29447033785657184,1.682892033623585,-0.035873134171446906,0.0,0.0
-0.0014177217603101278,0.6458239286062187,0.7073055995642511,1.1087860271134924,0.010464449352593781,0.7692784662432854,0.5129696836876765,1.3417885461039527,-0.006348816108319713,-0.05813068253246969,0.7592610091355694,0.2378790530535346,1.4475800929851366,0.2166606831776482,-0.2945946551816978,1.6830356450976232,-0.03576430641404048,0.0,0.0
0.0004104091055967148,0.6464434985259152,0.7080896581220263,1.109240347260095,0.012010645600102135,0.7684653073086228,0.5120963081719814,1.341260202140447,-0.006348816108319713,-0.05813068253246969,0.7592610091355694,0.2378790530535346,1.4483287092771149,0.21685512151628464,-0.29473853031778136,1.6832004728479937,-0.044927479905264786,0.0,0.0
0.0019181613208191634,0.6469595334009252,0.7087308346543514,1.1096085433012155,0.0132858251253837,0.7677989717823771,0.5113712087006745,1.3408175563369442,-0.006348816108319713,-0.05813068253246969,0.7592610091355694,0.2378790530535346,1.4489462290947595,0.21701546259212465,-0.2948569810140121,1.6833348552399425,-0.03318164976580602,0.0,0.0
0.004058134773185661,0.6476978443646412,0.709634457232725,1.1101235257242807,0.015095652694403994,0.7668582956351732,0.5103364674126346,1.3401812198998657,-0.006348816108319713,-0.05813068253246969,0.7592610091355694,0.2378790530535346,1.4498228021933606,0.2172430118431202,-0.29502485441462517,1.6835237616865448,-0.06574745072662559,-0.0,-0.0
0.005164400889867619,0.6480838354611043,0.7100968874679388,1.1103841767884575,0.016031212506641364,0.7663757317259927,0.5097974479820282,1.3398463227834982,-0.006348816108319713,-0.05813068253246969,0.7592610091355694,0.2378790530535346,1.4502760391536034,0.21736062628576658,-0.2951114577878142,1.683620079627268,-0.03583423320951048,0.0,-0.0
0.008168302802134394,0.6491379905858082,0.7113459527842673,1.1110841279556074,0.018571538479331996,0.7650706340827498,0.5083280561113328,1.3389286049297116,-0.006348816108319713,-0.05813068253246969,0.7592610091355694,0.2378790530535346,1.451506867620669,0.21767996676181633,-0.29534636586140833,1.6838797399209715,-0.08910155669626497,0.0,-0.0
0.009583182164639782,0.649642241670857,0.7119258458613844,1.1114038417892957,0.01976800931980562,0.7644626217964615,0.5076285806483689,1.3384856426695073,-0.006348816108319713,-0.05813068253246969,0.7592610091355694,0.2378790530535346,1.452086775720837,0.2178303503913925,-0.29545669135341035,1.6839996441075413,-0.029794931568184902,0.0,0.0
0.013383196982810432,0.6510062936347633,0.7134726299881875,1.1122499222822246,0.0229813660123937,0.7628381568711473,0.5057406374082747,1.3372823799675266,-0.006348816108319713,-0.05813068253246969,0.7592610091355694,0.2378790530535346,1.4536444916719262,0.2182342074953891,-0.29575259663258546,1.6843186440025362,-0.11898112287767273,0.0,0.0
0.01379572162099489,0.6511572128799071,0.7136374378439755,1.1123381064701836,0.023330186080959214,0.762664293462502,0.5055329659165378,1.3371477874773907,-0.006348816108319713,-0.05813068253246969,0.7592610091355694,0.2378790530535346,1.4538136631997824,0.21827803953431166,-0.2957846030861339,1.684352390305766,0.0061622563263793746,0.0,-0.0
0.017399268796207148,0.6524782329529079,0.7150741451351983,1.113104957428861,0.026377236441257737,0.7611478996296239,0.5037163038391516,1.3359683015456782,-0.006348816108319713,-0.05813068253246969,0.7592610091355694,0.2378790530535346,1.4552915036946656,0.21866091883755334,-0.2960640808668239,1.6846463385440644,-0.16784708518793515,-0.0,0.0
0.016264278099403832,0.6520547739850729,0.7146297415221721,1.112872960549884,0.02541756075115333,0.7616189934456898,0.5042955834946256,1.3363501980437675,-0.006348816108319713,-0.05813068253246969,0.7592610091355694,0.2378790530535346,1.4548258467494641,0.2185403494723196,-0.2959763567179292,1.684556059129807,0.06528077734172916,0.0,-0.0
0.02353262870152658,0.65475168128093,0.717492000855176,1.1143778444484749,0.03156328446965601,0.7585889943465778,0.5006002579799306,1.3339255984858154,-0.006348816108319713,-0.05813068253246969,0.7592610091355694,0.2378790530535346,1.457807461364117,0.21931250691223259,-0.29653873644217144,1.6851388422613882,-0.24633017425459866,0.0,-0.0
0.019577498419217368,0.6532324009077711,0.7159914720017726,1.113625795919917,0.028219252140312595,0.7601917764968834,0.5026609722360409,1.3353183759816718,-0.006348816108319713,-0.05813068253246969,0.7592610091355694,0.2378790530535346,1.456183605430149,0.21889249050485313,-0.2962348188379763,1.6848379006086065,0.18643290013088226,-0.0,-0.0
0.029637731615253016,0.6570253489487476,0.719887034777771,1.1156309927928618,0.03672534744927034,0.7560510787265577,0.49748844207710824,1.331877716420356,-0.006348816108319713,-0.05813068253246969,0.7592610091355694,0.2378790530535346,1.460311943771542,0.2199610252956932,-0.2970107398471657,1.685625748411404,-0.3518628926336721,-0.0,-0.0
0.01940869322299637,0.6529841950652818,0.7161301169410812,1.1138307665232272,0.028077056685425587,0.760095680312978,0.5029263439025413,1.3356402185649083,-0.006348816108319713,-0.05813068253246969,0.7592610091355694,0.2378790530535346,1.4561091097782504,0.21887508154606972,-0.29622927753812905,1.6848825768677622,0.40338421907181093,0.0,-0.0
0.032959314703691366,0.6580892392795978,0.7213814733650494,1.1165361837893049,0.03953426158160156,0.7545143123507724,0.49596343820171707,1.3310128522141376,-0.006348816108319713,-0.05813068253246969,0.7592610091355694,0.2378790530535346,1.4616689009560337,0.22031419100044622,-0.29727441313996644,1.685944942179496,-0.4793670103736581,-0.0,-0.0
0.01806661379060106,0.652117124263187,0.716010017556142,1.1140303083647274,0.026943227558388627,0.7603233818398508,0.5039660475043021,1.336616922503898,-0.006348816108319713,-0.05813068253246969,0.7592610091355694,0.2378790530535346,1.4555481833856359,0.21873356741100564,-0.29614041300921085,1.6848908590268628,0.6330472330249338,-0.0,-0.0
0.029257213185455433,0.6563064529977037,0.7203760214688731,1.116298122885603,0.03640498370123707,0.7556894397751793,0.49824227793679654,1.3328356910794013,-0.006348816108319713,-0.05813068253246969,0.7592610091355694,0.2378790530535346,1.4601376923228127,0.219921848709402,-0.29700436379076545,1.685776462607805,-0.5660105828546135,-0.0,-0.0
0.010361007232778979,0.648853262259474,0.7134225024648773,1.112958894905921,0.020429266209885756,0.763174735036393,0.5082738612131421,1.339761974990275,-0.006348816108319713,-0.05813068253246969,0.7592610091355694,0.2378790530535346,1.4523774217827816,0.21791645055860537,-0.2955608995955761,1.6843999333755557,0.7245765732137085,0.0,0.0
0.026209831292060806,0.6545668594077234,0.71984670524592,1.1164527662128167,0.03383055524001089,0.7564168049325485,0.5003796967674514,1.334719537251409,-0.006348816108319713,-0.05813068253246969,0.7592610091355694,0.2378790530535346,1.4588696566023318,0.21959963417518502,-0.2967930272882279,1.685722552758072,-0.6309327478181859,0.0,-0.0
0.012324674870599272,0.6491651927363626,0.7146541177269121,1.1139035069704455,0.0220915595513191,0.7619867622258292,0.5076766408919694,1.3396961261252565,-0.006348816108319713,-0.05813068253246969,0.7592610091355694,0.2378790530535346,1.4531719673958023,0.21812637052137254,-0.29572979117851517,1.6846875946533637,0.7539145221677835,0.0,-0.0
0.031115276725260467,0.6560069132426616,0.7221966682097606,1.1179572518099021,0.037979605505153315,0.7540318640825011,0.49825395540932715,1.3336277744523992,-0.006348816108319713,-0.05813068253246969,0.7592610091355694,0.2378790530535346,1.4608686254938772,0.22012125273066538,-0.29718740632517315,1.6862345490283734,-0.6723902081497679,0.0,-0.0
0.01278724999220078,0.6487158839279055,0.7155210943000546,1.1148019273061838,0.022485077081930857,0.7612405416888557,0.5080403803296355,1.3404237142136306,-0.006348816108319713,-0.05813068253246969,0.7592610091355694,0.2378790530535346,1.45334549504309,0.21817752394496628,-0.2957909146161158,1.684919181615505,0.7658096156212477,-0.0,0.0
0.02635003716393094,0.653666451005077,0.7209516154418949,1.1177103696030677,0.03395245535561395,0.7555075988236143,0.5012290741095917,1.3360314650726277,-0.006348816108319713,-0.05813068253246969,0.7592610091355694,0.2378790530535346,1.4588985842807793,0.21961681062482455,-0.29684199837607467,1.6860317878608913,-0.6923908677937654,0.0,-0.0
0.0061895463786361925,0.6458169925167072,0.7134196316583261,1.114020963849834,0.01690882889241056,0.7635937133522616,0.5118263455630667,1.3432546923236772,-0.006348816108319713,-0.05813068253246969,0.7592610091355694,0.2378790530535346,1.4506315304960344,0.21747898889537204,-0.2952996229650042,1.6845314209499238,0.770667513465676,-0.0,-0.0
0.02380614256464004,0.6520384063491705,0.720701429728141,1.1180661752506276,0.031804765219889904,0.7559627934520599,0.5031807567185037,1.3378459417483348,-0.006348816108319713,-0.05813068253246969,0.7592610091355694,0.2378790530535346,1.4578365970988312,0.2193486042263275,-0.29667286275189314,1.6860413673368069,-0.7002573318465966,0.0,0.0
0.0075379850381613565,0.6457774783641945,0.7145429544377089,1.114996679064848,0.018051951563009185,0.7625559306720973,0.5116591862965997,1.343563419282423,-0.006348816108319713,-0.05813068253246969,0.7592610091355694,0.2378790530535346,1.4511710337854038,0.21762403445955064,-0.29542595578391884,1.6848079200639707,0.7725491252026347,-0.0,-0.0
0.025334759138654125,0.6521071425495824,0.7218504243877719,1.119023946936674,0.033099517796001045,0.7548835680175453,0.5028843991153412,1.3380429725160046,-0.006348816108319713,-0.05813068253246969,0.7592610091355694,0.2378790530535346,1.458448001071283,0.2195119990466197,-0.2968108518752937,1.6863192907667828,-0.7040369696087426,0.0,0.0
0.005001415799288738,0.6442254240012522,0.7142152958550508,1.115262033307659,0.01591067667250676,0.7630762382410269,0.5135338826732152,1.3452632994732596,-0.006348816108319713,-0.05813068253246969,0.7592610091355694,0.2378790530535346,1.450118363844985,0.2173573188782584,-0.29525523832614475,1.6847954500260511,0.7734932190417844,0.0,-0.0
0.02265311128838547,0.6504240567191245,0.7215496370030878,1.1193565588338752,0.0308357075202174,0.7553948540298225,0.5049086517916584,1.339904539309947,-0.006348816108319713,-0.05813068253246969,0.7592610091355694,0.2378790530535346,1.457330703006065,0.21922943605014877,-0.2966314102086263,1.6863189532105922,-0.7065604764882218,-0.0,-0.0
0.0023379514689054054,0.6426454671797166,0.7138153409670117,1.1154764585755743,0.013662519920856538,0.7636695027282779,0.5154530239947526,1.3469729464261395,-0.006348816108319713,-0.05813068253246969,0.7592610091355694,0.2378790530535346,1.449015397187216,0.21707730939392175,-0.2950741156164077,1.6847665747480136,0.7742065329257188,-0.0,-0.0
0.02204669343497855,0.6494732023976544,0.7221056780601888,1.1201657330801904,0.030327069985886374,0.7550095704095598,0.5059139096281793,1.3411255274015712,-0.006348816108319713,-0.05813068253246969,0.7592610091355694,0.2378790530535346,1.4570623286496445,0.2191671244527338,-0.29661372456461504,1.6864962850115675,-0.7063817272003078,-0.0,0.0
0.0017189604983402218,0.641710582043953,0.7143438081155348,1.1162591490931062,0.013143841889615333,0.7633113284818563,0.5164418761538176,1.3481598733082216,-0.006348816108319713,-0.05813068253246969,0.7592610091355694,0.2378790530535346,1.4487469421791563,0.21701457286183723,-0.29505549708694045,1.6849367020142836,0.7739952512053745,-0.0,-0.0
0.021583780373234388,0.6485721497758398,0.7227215604577204,1.121008765292268,0.029939907083682448,0.7545621894453545,0.5068492211975801,1.3423021846525196,-0.006348816108319713,-0.05813068253246969,0.7592610091355694,0.2378790530535346,1.4568528223806707,0.21912007924044957,-0.2966072609959037,1.6866860972976379,-0.7098221911290521,0.0,0.0
0.0031914773748481715,0.6415626890057239,0.7156833240863167,1.1174584813626613,0.014393274672268867,0.7620891712170071,0.5163586392878581,1.3486387570220848,-0.006348816108319713,-0.05813068253246969,0.7592610091355694,0.2378790530535346,1.4493336306050852,0.21717331513175897,-0.2951976202064353,1.6852708474069762,0.7744494684151397,0.0,0.0
0.023048007446629357,0.6484760822246546,0.7239979161189692,1.1221330873343085,0.031181270088239323,0.753387844953685,0.5067204805436794,1.3427159724952709,-0.006348816108319713,-0.05813068253246969,0.7592610091355694,0.2378790530535346,1.4574332908028331,0.21927685857688148,-0.2967456847555822,1.6870023123149365,-0.7083348452327214,-0.0,-0.0
0.0025971728189274138,0.6406277518694108,0.7162319898357374,1.118258046272007,0.013895399783289158,0.7617117884466231,0.5173441880992721,1.3498311552796498,-0.006348816108319713,-0.05813068253246969,0.7592610091355694,0.2378790530535346,1.4490750511574972,0.21711323258010887,-0.29518124387062045,1.6854459356486617,0.77498371081001,0.0,-0.0
0.020528587897800078,0.6468534496784428,0.7237592185186602,1.122499282473079,0.029055355897539215,0.7538361340524814,0.5086595292723485,1.3445140540000995,-0.006348816108319713,-0.05813068253246969,0.7592610091355694,0.2378790530535346,1.4563850903508286,0.21901204458228973,-0.296579142218893,1.6870146755691087,-0.7095089902006317,0.0,-0.0
0.006156128914206973,0.6414013792760064,0.7182314776313039,1.1196957754627803,0.01690737465427492,0.7597449945412705,0.5160624232136383,1.3494183155234865,-0.006348816108319713,-0.05813068253246969,0.7592610091355694,0.2378790530535346,1.450515817106736,0.21749194806561947,-0.29547770193481887,1.6859011543830085,0.7746978867758573,-0.0,-0.0
0.0259410066919675,0.6483986550854807,0.7263972217504193,1.1242086772073463,0.03363285190006478,0.7511638448818063,0.5063598530652248,1.3433806366050176,-0.006348816108319713,-0.05813068253246969,0.7592610091355694,0.2378790530535346,1.458581373157697,0.21958590685905088,-0.2970142674874377,1.6875921535032836,-0.7083070240607933,-0.0,-0.0
0.0075669296684024445,0.6412514265076881,0.7195260027069975,1.1208548988818525,0.018103599774837893,0.7585615067385906,0.5159934205106156,1.3498972613271454,-0.006348816108319713,-0.05813068253246969,0.7592610091355694,0.2378790530535346,1.4510757583750147,0.21764367853029798,-0.295613815237549,1.6862242966092378,0.775094697623564,-0.0,-0.0
0.021582918935587187,0.6462450970159344,0.7252706691184099,1.1240029220674024,0.029951588921068896,0.7525122344636389,0.5090866400970387,1.345574604841036,-0.006348816108319713,-0.05813068253246969,0.7592610091355694,0.2378790530535346,1.4567875983027168,0.21912633929484235,-0.2967002960677701,1.6874106748873061,-0.7106181299702564,-0.0,-0.0
0.0012053356749409522,0.6384751372317942,0.7174774635844877,1.120083359170939,0.012728963626974014,0.7608590829740008,0.5196172793942836,1.3525724288705092,-0.006348816108319713,-0.05813068253246969,0.7592610091355694,0.2378790530535346,1.4484711806854942,0.2169725805485756,-0.29514147129372914,1.6858447674443366,0.7747049608334395,-0.0,-0.0
0.02108279789399118,0.6453312724929385,0.725870183248153,1.1248364192291116,0.02953315116656279,0.7520824811787048,0.5100393226626618,1.3467592435412135,-0.006348816108319713,-0.05813068253246969,0.7592610091355694,0.2378790530535346,1.4565634853901137,0.21907545816576962,-0.2966909075581128,1.6875970929641528,-0.7089030871980866,0.0,-0.0
0.0025357195092043996,0.6382746461226796,0.7187602457450867,1.121251681956788,0.013858189586045688,0.759696254161479,0.5196066544445895,1.3530987036827355,-0.006348816108319713,-0.05813068253246969,0.7592610091355694,0.2378790530535346,1.448998675697712,0.2171160168687394,-0.29527229731247184,1.6861673088313966,0.7742761926111814,0.0,-0.0
0.022413175300675152,0.6451801823731217,0.7270990820995706,1.1259385441262715,0.03066133282440552,0.7509592807428707,0.5099841645469815,1.3472252869653067,-0.006348816108319713,-0.05813068253246969,0.7592610091355694,0.2378790530535346,1.457087989679829,0.219217821689504,-0.29681889687588403,1.6879040594076884,-0.7076623858870198,0.0,0.0
0.001893743534219998,0.6373237263525923,0.7192876227197883,1.1220388101913288,0.013320252711337504,0.7593416580704618,0.5206141405571793,1.3543011731763561,-0.006348816108319713,-0.05813068253246969,0.7592610091355694,0.2378790530535346,1.4487214362465843,0.2170510329665094,-0.29525220513633404,1.686337962641723,0.7741976987117524,-0.0,0.0
0.01982500906018486,0.6435342445538179,0.726830324960962,1.1262884730402687,0.028477792031741535,0.7514410281502539,0.5119541652166831,1.3490361256659478,-0.006348816108319713,-0.05813068253246969,0.7592610091355694,0.2378790530535346,1.4560143450978844,0.21894626366982617,-0.2966473518278503,1.6879102452793475,-0.70634971236386,-0.0,-0.0
0.00546374803486056,0.638100626010897,0.7212917050747922,1.1234771606054073,0.016341205383507747,0.7573677885580254,0.5193294150163067,1.3538905852044991,-0.006348816108319713,-0.05813068253246969,0.7592610091355694,0.2378790530535346,1.4501634804458092,0.21743021421278405,-0.2955488204014055,1.6867940089251117,0.7736384001686494,0.0,0.0
0.025284233663347304,0.64509357432472,0.7294896596031438,1.1280079373412704,0.03309421705557351,0.7487432462913105,0.509636751998735,1.3479000714745484,-0.006348816108319713,-0.05813068253246969,0.7592610091355694,0.2378790530535346,1.4582246549964666,0.21952399734845715,-0.29708514624525284,1.6884920548180578,-0.7062649676195636,0.0,0.0
0.004440971020676237,0.6370056811859421,0.7216737138673834,1.1241897848059788,0.015480933981544445,0.757167206843898,0.5205339031966404,1.355226265749895,-0.006348816108319713,-0.05813068253246969,0.7592610091355694,0.2378790530535346,1.4497305074594367,0.2173249273607462,-0.29549947795377296,1.6869354013191944,0.7742485934878012,-0.0,-0.0
0.022428871829138577,0.6433208554932568,0.7291474560967508,1.128339151181068,0.03068466165051752,0.7493102244312398,0.5117695666027295,1.3498401171117103,-0.006348816108319713,-0.05813068253246969,0.7592610091355694,0.2378790530535346,1.4570416161953954,0.21922436460292777,-0.29689422034334245,1.6884858530956361,-0.7084876065169627,-0.0,-0.0
0.0019590175909213574,0.6354798703401796,0.7213591076891908,1.124460576436046,0.013387219461169612,0.7576777165219357,0.5223702703777012,1.3568814708193448,-0.006348816108319713,-0.05813068253246969,0.7592610091355694,0.2378790530535346,1.4487069009846625,0.2170653537278673,-0.295333732035509,1.6869253935824307,0.7744107511903988,0.0,0.0
0.02192153856590589,0.642401355188963,0.7297475484391632,1.1291745668531754,0.030260095585965062,0.7488804964435817,0.5127289737476106,1.3510307971200095,-0.006348816108319713,-0.05813068253246969,0.7592610091355694,0.2378790530535346,1.4568147022539308,0.21917277401774324,-0.29688432477481996,1.6886726914458254,-0.7093390340511782,0.0,0.0
0.0035021748434296666,0.6353612669474674,0.7227224707296214,1.1256671422356477,0.014695926057785821,0.7564265362384086,0.5222504419255964,1.3573370472070976,-0.006348816108319713,-0.05813068253246969,0.7592610091355694,0.2378790530535346,1.4493194408545245,0.217230882408873,-0.29548033836510806,1.6872639840458303,0.7748907195209616,0.0,0.0
0.017416469497997085,0.6402253004256904,0.7285262039760824,1.1289001335804032,0.026455911185721843,0.750326865792931,0.5154941882047831,1.3532098051488923,-0.006348816108319713,-0.05813068253246969,0.7592610091355694,0.2378790530535346,1.4549687872491865,0.21869903219783007,-0.29655895321128006,1.688469417336781,-0.7087331284285177,-0.0,-0.0
-0.0029567520064364833,0.6325995387089116,0.7205788571850317,1.1248151090680638,0.009240519652016919,0.7588186200026227,0.5258685347062907,1.3599515370099813,-0.006348816108319713,-0.05813068253246969,0.7592610091355694,0.2378790530535346,1.446685924261965,0.21655134714612778,-0.29500019874036915,1.6868611325000646,0.7750015194454796,-0.0,-0.0
0.01690869695846177,0.6393156447734278,0.7291121959823239,1.129722011496944,0.026031891117487355,0.7499122394857187,0.5164414110979955,1.3543765828681127,-0.006348816108319713,-0.05813068253246969,0.7592610091355694,0.2378790530535346,1.4547436224615766,0.21864767035694282,-0.2965488251536578,1.6886524671379286,-0.7082950423319027,0.0,0.0
-0.0014874956873827394,0.6324452359105069,0.7219193797439607,1.126016208321351,0.01048767935089739,0.7575963292527566,0.5257918870811216,1.3604349105587545,-0.006348816108319713,-0.05813068253246969,0.7592610091355694,0.2378790530535346,1.4472690137688,0.21670923480888032,-0.2951415218253637,1.687195764970176,0.7745343728832131,0.0,0.0
0.01243199928136352,0.637189100610095,0.7278573285512119,1.1294037882623948,0.022252375229009247,0.7513862542775053,0.5191520257414652,1.3564820360104948,-0.006348816108319713,-0.05813068253246969,0.7592610091355694,0.2378790530535346,1.4529128959911601,0.21817733325708583,-0.29622450091311203,1.6884389872338563,-0.7076996830364353,0.0,0.0
-0.007909673445936896,0.6297521419851511,0.719728652392328,1.125102128965077,0.005063881393565912,0.7600258532494851,0.5293359037825857,1.3629514236463545,-0.006348816108319713,-0.05813068253246969,0.7592610091355694,0.2378790530535346,1.4446549186964077,0.21603403951584013,-0.2946625439172274,1.6867785895914085,0.7741022596984832,-0.0,-0.0
0.012002852735519478,0.6363105254394424,0.7284692383769794,1.130238744655039,0.02189575270384351,0.7509463152908924,0.5200549151231377,1.3576107373751658,-0.006348816108319713,-0.05813068253246969,0.7592610091355694,0.2378790530535346,1.4527213487862176,0.21813454931232573,-0.2962205202056322,1.6886270985745495,-0.7080684009456083,0.0,0.0
-0.006426492548659518,0.6295854142110762,0.7210910457611243,1.126327768657863,0.0063237895715483276,0.7587875575641922,0.5292668712467541,1.363446749666878,-0.006348816108319713,-0.05813068253246969,0.7592610091355694,0.2378790530535346,1.4452441053968679,0.21619359314598569,-0.294805707404766,1.6871191768215599,0.7742725373006945,0.0,0.0
0.007614005849958283,0.634248634106496,0.7272120188137496,1.1298978505948993,0.018191165755466643,0.752416499981267,0.522687696462928,1.3596336928164559,-0.006348816108319713,-0.05813068253246969,0.7592610091355694,0.2378790530535346,1.4509296634815487,0.21767388220203857,-0.29590206448237444,1.6884103690925245,-0.70785575906545,0.0,-0.0
-0.012867963808352133,0.6269326239040744,0.7188396119417864,1.1253499832984233,0.0008842600181111389,0.7612709960555714,0.5327725835775077,1.3658947872648772,-0.006348816108319713,-0.05813068253246969,0.7592610091355694,0.2378790530535346,1.4426264112321658,0.21551684825655487,-0.29432390496134436,1.686685607338339,0.7732317514320246,-0.0,0.0
0.0049861932455349724,0.6326570559668204,0.7268440457467498,1.1301513408169854,0.01597697057011227,0.7529947210822332,0.5246018223764941,1.3613265068726497,-0.006348816108319713,-0.05813068253246969,0.7592610091355694,0.2378790530535346,1.44984995532578,0.21739956619066184,-0.2957259493758894,1.688390410369668,-0.7057398535365738,-0.0,0.0
-0.009469486455305515,0.6275599201447237,0.7208629579664451,1.1268582630565163,0.00376219662093971,0.7593033733197382,0.5316544995173877,1.3656487297723485,-0.006348816108319713,-0.05813068253246969,0.7592610091355694,0.2378790530535346,1.4439941355233563,0.21587757215044642,-0.2946100287269257,1.6871528008994263,0.774124405049232,0.0,-0.0
0.01040917687191565,0.634056613252324,0.7296423694811351,1.132044030278771,0.020564230792682922,0.750190162562986,0.5224428833715451,1.360402909426717,-0.006348816108319713,-0.05813068253246969,0.7592610091355694,0.2378790530535346,1.4520358156299116,0.21797252813994625,-0.2961653421791296,1.6890128008213483,-0.7071598093051131,-0.0,-0.0
-0.008051241366356005,0.6273691297861483,0.7221986979307002,1.1280696159277768,0.004967422721859771,0.7580936569132269,0.5316180240424576,1.3661634038342967,-0.006348816108319713,-0.05813068253246969,0.7592610091355694,0.2378790530535346,1.4445566542894281,0.21603020083472502,-0.29474807723414925,1.6874879222746304,0.7742611633865075,0.0,-0.0
0.005948343430289238,0.6319815056240659,0.728341487171997,1.131672214107897,0.016799354472740908,0.7517051193312833,0.5250973410616615,1.3624242086942167,-0.006348816108319713,-0.05813068253246969,0.7592610091355694,0.2378790530535346,1.4502178262586707,0.21750478424723152,-0.29584129657730746,1.6887861716379051,-0.7076337327794413,-0.0,0.0
-0.014559560472618574,0.6247129888942421,0.719897240756422,1.1270525413110644,-0.0005279770775012856,0.7606268604327187,0.535134798257552,1.3685959813702568,-0.006348816108319713,-0.05813068253246969,0.7592610091355694,0.2378790530535346,1.4419158853444878,0.21534710595524248,-0.2942609713708744,1.6870425435768974,0.7744792158962455,0.0,0.0
0.005385016748195829,0.6310524914234675,0.7288972343913724,1.1324797072395267,0.016330725987898306,0.751329122262225,0.5260651073881799,1.3635839207589442,-0.006348816108319713,-0.05813068253246969,0.7592610091355694,0.2378790530535346,1.4499741663218406,0.217448311340306,-0.29582734092690166,1.6889629239716992,-0.7074999942297693,0.0,0.0
-0.013053967309259664,0.624534156391606,0.7212867195577525,1.1283070803444715,0.0007520955515008306,0.7593680417391739,0.5350714866278794,1.369102438711376,-0.006348816108319713,-0.05813068253246969,0.7592610091355694,0.2378790530535346,1.4425142629451078,0.2155091459077424,-0.294406598570981,1.6873903396143688,0.7744213302619308,-0.0,-0.0
0.0009665970052972154,0.629030210933448,0.7275708464212334,1.1320695793693054,0.012602316682937379,0.7528632281633119,0.528660135034208,1.3655313871769565,-0.006348816108319713,-0.05813068253246969,0.7592610091355694,0.2378790530535346,1.4481767957600191,0.21698541944095018,-0.295505484603088,1.688727915082951,-0.7084492937769354,0.0,0.0
-0.019575875886666004,0.6219279329671282,0.718918961201331,1.1272180097631779,-0.004754318826192257,0.7619586200535615,0.5385401893048704,1.3714553890490027,-0.006348816108319713,-0.05813068253246969,0.7592610091355694,0.2378790530535346,1.4398722892003146,0.21482506253078723,-0.29391680966239975,1.6869267919538957,0.7744464350941525,0.0,-0.0
0.00045915245316751827,0.6281190654443791,0.7281487458340299,1.1328916776762925,0.012181919965340095,0.7524672450074171,0.5295997429851916,1.3666673533732203,-0.006348816108319713,-0.05813068253246969,0.7592610091355694,0.2378790530535346,1.4479573690722798,0.2169351388689293,-0.29549613245443557,1.6889093951477314,-0.7075831312470107,-0.0,-0.0
-0.01809526436053101,0.621719186393288,0.7203181218004004,1.128493098861876,-0.0034942752901124807,0.7606978753454943,0.5385069635331947,1.3719901739577012,-0.006348816108319713,-0.05813068253246969,0.7592610091355694,0.2378790530535346,1.4404610443835497,0.21498471055407015,-0.29406145137517287,1.6872783407882288,0.7740112696281234,0.0,0.0
0.001785596765389183,0.6279181732623159,0.7294171793950379,1.1340491009968203,0.013310038938283811,0.7513230360383605,0.5295856104331154,1.3671727490154226,-0.006348816108319713,-0.05813068253246969,0.7592610091355694,0.2378790530535346,1.448480560155456,0.21707735242774165,-0.2956254429161671,1.6892282819564801,-0.7066195285309596,-0.0,-0.0
-0.018667987614307293,0.6208135744590704,0.7208391200293043,1.129266744677002,-0.00396942559474843,0.7603560479304259,0.5394494627190112,1.3731009030995536,-0.006348816108319713,-0.05813068253246969,0.7592610091355694,0.2378790530535346,1.4402200605203825,0.214928395726091,-0.2940467752971446,1.6874460414971963,0.7738209117751998,0.0,0.0
0.0014095827204226134,0.6270557461446422,0.7300472108401606,1.1348978247394719,0.013000551726094215,0.7508707924313858,0.5304593522646283,1.3682672708056318,-0.006348816108319713,-0.05813068253246969,0.7592610091355694,0.2378790530535346,1.4483142425589226,0.21704086614580193,-0.2956260613988047,1.6894203687575513,-0.7080296909135311,0.0,0.0
-0.019211961767638,0.6199047523901852,0.7213860493656078,1.130063950954858,-0.0044199889484515635,0.7599910448608124,0.5403902838602546,1.3742197187390384,-0.006348816108319713,-0.05813068253246969,0.7592610091355694,0.2378790530535346,1.439990789199972,0.21487522907325796,-0.2940348943959419,1.6876202601189467,0.7744389353186789,0.0,0.0
-0.0011847839502513446,0.62549414841789,0.7296697578985575,1.1351366816319592,0.01081638000357892,0.7514594201122654,0.5323348837282441,1.3699067134348166,-0.006348816108319713,-0.05813068253246969,0.7592610091355694,0.2378790530535346,1.4472541059488075,0.2167711581968631,-0.29545267860270186,1.689397215671758,-0.7069393933223463,0.0,0.0
-0.01571831958450099,0.6205198225941951,0.7234948427823937,1.1316478778003345,-0.0014611990059867318,0.7579450234834371,0.5392700517328113,1.3740074929113826,-0.006348816108319713,-0.05813068253246969,0.7592610091355694,0.2378790530535346,1.441392243911618,0.21524525232019934,-0.2943292190850169,1.6881086043614564,0.7747232423276996,0.0,0.0
0.004280971546645269,0.6268478379756834,0.7325484670873237,1.1371105717251084,0.01543959077717276,0.7485838065087652,0.5302157270483902,1.3690597466307648,-0.006348816108319713,-0.05813068253246969,0.7592610091355694,0.2378790530535346,1.449448879370837,0.2173472514744101,-0.29589618686399866,1.6900407077575021,-0.7072643564900309,0.0,-0.0
-0.014270724096713368,0.6203181463180947,0.7248617439602232,1.132890169629484,-0.00023015454578832056,0.756709761350144,0.5392379769765191,1.3745346976538944,-0.006348816108319713,-0.05813068253246969,0.7592610091355694,0.2378790530535346,1.4419657376939226,0.21540088217862874,-0.29447003583337883,1.6884518183094943,0.7732132536025719,0.0,-0.0
0.005742834955451793,0.626704738176363,0.7338635554891094,1.1382846620790006,0.016681186084674927,0.747384523185054,0.5301285769609002,1.3695185899167512,-0.006348816108319713,-0.05813068253246969,0.7592610091355694,0.2378790530535346,1.4500248282093893,0.21750320539936407,-0.296035027998528,1.6903683071131776,-0.7061317935057806,0.0,0.0
-0.014796611017337407,0.6194211854923471,0.7254123882638153,1.1336843383557593,-0.0006662594122037423,0.7563368081135037,0.5401670309087412,1.375647370381467,-0.006348816108319713,-0.05813068253246969,0.7592610091355694,0.2378790530535346,1.441742868429718,0.2153494092087656,-0.2944590978525387,1.688626377594807,0.7737063243134339,0.0,0.0
0.005285004751430709,0.6258130204356556,0.7344620859767558,1.1391151291911497,0.016301968425351636,0.7469635049769843,0.5310445626152743,1.37064358928049,-0.006348816108319713,-0.05813068253246969,0.7592610091355694,0.2378790530535346,1.4498246435984474,0.21745798289475082,-0.2960291536722118,1.6905539740798559,-0.7049674706360681,-0.0,-0.0
-0.0132737291583815,0.6192453398927276,0.7268114863058038,1.1349438877087241,0.0006281111837906257,0.7550666393980059,0.5400998805511773,1.3761555901663534,-0.006348816108319713,-0.05813068253246969,0.7592610091355694,0.2378790530535346,1.4423458239814297,0.2155127504090025,-0.294605504930599,1.6889762573887246,0.773696871476985,-0.0,-0.0
0.0008093225011032695,0.6237676574894394,0.7331150715840552,1.13869950339251,0.012526699195869935,0.7485247653410477,0.5336664731010601,1.3725984723794424,-0.006348816108319713,-0.05813068253246969,0.7592610091355694,0.2378790530535346,1.4480112108545782,0.2169906377856012,-0.29570432555591497,1.6903155646495263,-0.7068657280418054,-0.0,-0.0
-0.019762137054700042,0.6166483452932131,0.7244606718614574,1.1338720070612403,-0.00484785400035114,0.7576467729246021,0.5435492112163097,1.3784833368085831,-0.006348816108319713,-0.05813068253246969,0.7592610091355694,0.2378790530535346,1.4397277562085906,0.21483447410646705,-0.2941204362458989,1.6885173494805272,0.7735580278626586,-0.0,-0.0
0.0004102574890494856,0.6228940025805453,0.7337378439137562,1.1395461872598351,0.012198131784170634,0.7480815847425648,0.5345538614947544,1.3737004496472283,-0.006348816108319713,-0.05813068253246969,0.7592610091355694,0.2378790530535346,1.4478362690616662,0.21695188532723186,-0.29570328343738894,1.6905064626521,-0.7075992589704987,0.0,0.0
-0.01840621258666122,0.6163936594256152,0.725809477659688,1.1351185109090753,-0.003693406915321931,0.7564377896421385,0.5435801986246321,1.3790601993730374,-0.006348816108319713,-0.05813068253246969,0.7592610091355694,0.2378790530535346,1.4402639881519688,0.21498055604326427,-0.2942549261220707,1.6888585177133129,0.7731065460092532,0.0,0.0
0.0019029618177476178,0.6227333202654017,0.7350939933799145,1.1407620569428194,0.013466560852439849,0.7468480958787007,0.5344776620470918,1.3741838666344943,-0.006348816108319713,-0.05813068253246969,0.7592610091355694,0.2378790530535346,1.4484239210408727,0.21711111095927405,-0.29584546526428496,1.690844851281967,-0.7072621969822475,0.0,0.0
-0.019048395082875966,0.6154389343204901,0.7263275905659334,1.1359073553364964,-0.004226584610456748,0.7561064227326282,0.5445796073124775,1.3802212988343232,-0.006348816108319713,-0.05813068253246969,0.7592610091355694,0.2378790530535346,1.439995720550413,0.21491731025075156,-0.29423595623513527,1.6890278608153182,0.7749784920863345,0.0,0.0
-0.0005982185044541635,0.6211795071230957,0.7347819208928221,1.141055324937216,0.011362083074057547,0.747376597805691,0.5363301399211003,1.3758230543815302,-0.006348816108319713,-0.05813068253246969,0.7592610091355694,0.2378790530535346,1.4474042348840381,0.21685201033580734,-0.29568078365059985,1.6908376521621102,-0.7111499629325134,0.0,0.0
-0.02161387881686895,0.6139533044697143,0.72589085539195,1.1360727117164302,-0.006385328466640781,0.7567434964554788,0.5463746341194063,1.3817481979740658,-0.006348816108319713,-0.05813068253246969,0.7592610091355694,0.2378790530535346,1.4389564666525396,0.2146520840400967,-0.29406360356471295,1.688987577480279,0.7745096337618914,-0.0,0.0
-0.001333200062040036,0.6201728542614343,0.7352801696570106,1.141844207181388,0.010750443700441745,0.7470704870423827,0.537393829536837,1.377039452527548,-0.006348816108319713,-0.05813068253246969,0.7592610091355694,0.2378790530535346,1.447094619787533,0.21677829646465507,-0.2956546330760204,1.691004118563322,-0.7062365100462373,-0.0,0.0
-0.02001232346937725,0.6137725101315815,0.7273536508258833,1.1373897522322818,-0.005023117304999339,0.7554175803528052,0.5462980064754651,1.3822680838347527,-0.006348816108319713,-0.05813068253246969,0.7592610091355694,0.2378790530535346,1.4395908646318334,0.21482382012695905,-0.2942172434206067,1.6893532834383294,0.7747742196789307,-0.0,0.0
0.00012443293504151715,0.6200079032192249,0.7366119684413002,1.1430405857222585,0.011989288059484956,0.7458603908338147,0.5373269149330726,1.3775208843560742,-0.006348816108319713,-0.05813068253246969,0.7592610091355694,0.2378790530535346,1.4476678109551926,0.21693368455858658,-0.29579359979636616,1.691336705297618,-0.7073980321731319,0.0,-0.0
-0.02055445662926597,0.612867933278362,0.7278959719598772,1.1381817537914647,-0.005471550269046888,0.7550569754333258,0.547233907205314,1.3833760341195036,-0.006348816108319713,-0.05813068253246969,0.7592610091355694,0.2378790530535346,1.4393638841926484,0.21477112794059372,-0.29420539360599246,1.6895263931547668,0.774311091028768,-0.0,-0.0
-0.00045375580384186473,0.6190752839246092,0.7371552763981518,1.1438407975045095,0.01150973511466619,0.745500517196971,0.5382970392157265,1.3786668371530388,-0.006348816108319713,-0.05813068253246969,0.7592610091355694,0.2378790530535346,1.4474216257228327,0.21687630829677923,-0.29577866319422363,1.691510900199648,-0.706575065794548,-0.0,0.0
-0.01905697382577838,0.6126692648938108,0.7292957693642532,1.139450408251038,-0.0041977458692107235,0.7537910899807253,0.5471910591412472,1.3839037843908977,-0.006348816108319713,-0.05813068253246969,0.7592610091355694,0.2378790530535346,1.4399557728349595,0.21493167619188033,-0.2943500496002111,1.68987743200144,0.7741331608890871,0.0,0.0
-0.0050015799026818415,0.6170488109307409,0.7357283820917266,1.1433554956637382,0.007675233428929985,0.7471394640002533,0.5409067973107203,1.3805642220792362,-0.006348816108319713,-0.05813068253246969,0.7592610091355694,0.2378790530535346,1.445587753945805,0.21640287047024673,-0.295447927876287,1.6912528237073599,-0.7061618341008566,0.0,-0.0
-0.02567515824124243,0.6100933705110013,0.726817903655453,1.1382693668612824,-0.00978143088354998,0.7564935941109274,0.5506339240394719,1.3861578713306917,-0.006348816108319713,-0.05813068253246969,0.7592610091355694,0.2378790530535346,1.4372971748793342,0.2142417802783159,-0.2938543600692505,1.6893875063653838,0.774469167263197,0.0,-0.0
-0.005512899674542739,0.6161397609328048,0.7362963574713803,1.144170376696438,0.007253175695922258,0.7467561768574396,0.5418419122691617,1.3816812363700492,-0.006348816108319713,-0.05813068253246969,0.7592610091355694,0.2378790530535346,1.4453701328306157,0.21635280364585271,-0.2954383453788175,1.6914321192832595,-0.7083812727057139,-0.0,-0.0
-0.02417709133372468,0.6098753871348264,0.7282360741405735,1.1395622801215977,-0.008506016487595351,0.7552161319599896,0.5506072282332135,1.3867040103140673,-0.006348816108319713,-0.05813068253246969,0.7592610091355694,0.2378790530535346,1.4378898749711588,0.2144026303770619,-0.29399994226969856,1.6897439729969463,0.7737488003879089,-0.0,-0.0
-0.010102086694951967,0.6141356584296235,0.7348107084739905,1.1436292838349904,0.0033843560272492617,0.748449280966022,0.5444343293218452,1.3835323025203126,-0.006348816108319713,-0.05813068253246969,0.7592610091355694,0.2378790530535346,1.443523013416567,0.21587543353676633,-0.2951034369298828,1.6911589318567277,-0.7070293669710097,0.0,-0.0
-0.030823990100169806,0.6073463340800258,0.7256838520320772,1.1383034118301953,-0.014113579024368111,0.7579833539822188,0.5540077623467171,1.3888818312963132,-0.006348816108319713,-0.05813068253246969,0.7592610091355694,0.2378790530535346,1.435223943169094,0.2137101518192089,-0.29350036834192705,1.6892340987120331,0.7737678113437967,0.0,-0.0
-0.010764811112700043,0.6131814587780829,0.7353042738414823,1.1443991819264752,0.0028354247459827803,0.748145207237794,0.545432725458678,1.3846733152622392,-0.006348816108319713,-0.05813068253246969,0.7592610091355694,0.2378790530535346,1.4432465191771127,0.21580984201308234,-0.29508220266506896,1.6913222068884382,-0.7072077472055245,0.0,0.0
-0.029396516270574505,0.6070968235641283,0.7270770837309519,1.139588087042298,-0.012896793776558902,0.7567364456516269,0.5540196200317824,1.3894499185229352,-0.006348816108319713,-0.05813068253246969,0.7592610091355694,0.2378790530535346,1.4357891116154615,0.2138638080890201,-0.2936409166002763,1.6895859584433908,0.7750920517965464,0.0,-0.0
-0.015252236347289025,0.6112493264779434,0.733820134463185,1.1438357064910327,-0.0009469027375199005,0.7498286533821169,0.5479392161736649,1.3864379026999438,-0.006348816108319713,-0.05813068253246969,0.7592610091355694,0.2378790530535346,1.4414434780429861,0.21534347659131053,-0.2947540874731616,1.6910464102028808,-0.7082181026304297,0.0,0.0
-0.036012971382416374,0.6046320356964436,0.7244788897150236,1.1382691990676244,-0.01847829043365324,0.7595391028342388,0.5573524998783728,1.391539480433057,-0.006348816108319713,-0.05813068253246969,0.7592610091355694,0.2378790530535346,1.433139421146088,0.21317492429334148,-0.2931421129639278,1.6890622927338341,0.7746375904516005,0.0,-0.0
-0.015907434712864772,0.6102980634775879,0.7343135544132988,1.1446066412541378,-0.001488426569821847,0.7495273924688333,0.5489312003844493,1.3875671207240141,-0.006348816108319713,-0.05813068253246969,0.7592610091355694,0.2378790530535346,1.4411717615784858,0.21527900087108665,-0.29473367771456266,1.691209655229814,-0.7081174274546654,0.0,0.0
-0.03467824962250209,0.604334694793333,0.7258470619403976,1.1395516105931618,-0.017338677214508748,0.7583255787523561,0.5574215696554011,1.3921469075004522,-0.006348816108319713,-0.05813068253246969,0.7592610091355694,0.2378790530535346,1.4336682052803262,0.21331915087566658,-0.29327631797771736,1.6894102605862644,0.7744118916368974,0.0,0.0
-0.01458256629828212,0.6100489467130055,0.7356225647197281,1.1458176938684128,-0.00035908167588556694,0.7483577341222406,0.5489591890460265,1.3881177137887655,-0.006348816108319713,-0.05813068253246969,0.7592610091355694,0.2378790530535346,1.4416927839189386,0.21542093291703165,-0.29486403420126706,1.6915405309534186,-0.7075535019571801,0.0,-0.0
-0.035245759156081316,0.6034341693070012,0.7263566190472407,1.1403201977720112,-0.017805552500883313,0.7580032276018457,0.5583506463059758,1.3932188020960887,-0.006348816108319713,-0.05813068253246969,0.7592610091355694,0.2378790530535346,1.4334363265535326,0.21326471285359308,-0.2932627173087603,1.6895756690815709,0.7737773167165695,-0.0,0.0
-0.015187332397683974,0.6091203836484065,0.7361318336309746,1.1465935231955449,-0.000858152393454284,0.7480376769636885,0.5499224569777755,1.3892263632538984,-0.006348816108319713,-0.05813068253246969,0.7592610091355694,0.2378790530535346,1.4414413954430756,0.21536170938372737,-0.29484723574510474,1.6917066595124592,-0.7052365897577714,-0.0,-0.0
-0.03586468816076521,0.602520887392793,0.7268387854934134,1.1410702643099977,-0.01831573989610503,0.7577085849566639,0.5592993858412273,1.3942973272589156,-0.006348816108319713,-0.05813068253246969,0.7592610091355694,0.2378790530535346,1.433184236863565,0.21320494595077666,-0.29324500736240033,1.6897350008732808,0.7733274752179393,0.0,-0.0
-0.01766401525418756,0.6076629672271521,0.7357265739998429,1.1467818041406361,-0.0029385783855644006,0.7486500298255248,0.5516701050491024,1.3907032949727403,-0.006348816108319713,-0.05813068253246969,0.7592610091355694,0.2378790530535346,1.4404436955763895,0.2151069308436472,-0.2946826121195077,1.6916733600989844,-0.706657779529467,-0.0,-0.0
-0.03224290127753055,0.6030719647894154,0.7291083554661285,1.142810440506021,-0.015247483212220931,0.7555216705175702,0.558221585614281,1.3941920400726833,-0.006348816108319713,-0.05813068253246969,0.7592610091355694,0.2378790530535346,1.4346257102839797,0.2135866089072139,-0.2935510375392134,1.6902646220116144,0.7740693221810775,0.0,0.0
-0.012066131916136865,0.6089050480939736,0.7388206444001942,1.1489704714618254,0.0017960099446589911,0.7455850159864469,0.5496421189863844,1.3900424430959464,-0.006348816108319713,-0.05813068253246969,0.7592610091355694,0.2378790530535346,1.442671232311735,0.2156935506400727,-0.29513847544840766,1.69237274706228,-0.7068455355714125,0.0,-0.0
-0.031184534070579324,0.6026952615022207,0.7303443249411464,1.1440064096350409,-0.01434219060182234,0.7544402699692492,0.5584102272946053,1.3948626393871335,-0.006348816108319713,-0.05813068253246969,0.7592610091355694,0.2378790530535346,1.4350422357046835,0.21370154649639983,-0.29366297128697155,1.6905837360965141,0.7739430446997058,-0.0,0.0
-0.010632315031469348,0.6086783756523323,0.7401929637486067,1.1502249090526182,0.0030167076367808576,0.7443502081891367,0.5496346003994277,1.3905891005505495,-0.006348816108319713,-0.05813068253246969,0.7592610091355694,0.2378790530535346,1.4432334740936172,0.21584646826006462,-0.2952772670801737,1.69271789685789,-0.706598331455527,0.0,-0.0
-0.03157836964996544,0.6018205601689199,0.7309650274822689,1.144858884938628,-0.01466249379416086,0.7540085965117168,0.5592901186064113,1.3959353455512655,-0.006348816108319713,-0.05813068253246969,0.7592610091355694,0.2378790530535346,1.4348788220288824,0.21366530281467064,-0.2936638672356344,1.6907751309501824,0.7738790125334523,0.0,0.0
-0.011337594826196784,0.607701741635866,0.740675766527129,1.150994000996372,0.0024324922886721674,0.7440601039856579,0.550660256644216,1.3917482590208907,-0.006348816108319713,-0.05813068253246969,0.7592610091355694,0.2378790530535346,1.4429411302555446,0.21577674468071378,-0.29525314382198536,1.6928797291493067,-0.706684045525835,-0.0,-0.0
-0.03008348307566485,0.6015854977295578,0.7323947556593737,1.146167554953483,-0.013388962557843803,0.7527238721563126,0.5592794797158551,1.3964978969321546,-0.006348816108319713,-0.05813068253246969,0.7592610091355694,0.2378790530535346,1.4354687032452877,0.2138255426381291,-0.29380927035922927,1.691135084313783,0.773980213932488,0.0,-0.0
-0.009785162294645985,0.6075398988270715,0.7420728622675582,1.1522449293060588,0.0037526502234946045,0.7427908807872537,0.5505744436075369,1.3922325696490916,-0.006348816108319713,-0.05813068253246969,0.7592610091355694,0.2378790530535346,1.4435501899720178,0.21594169440453195,-0.2953997889942473,1.6932279224946245,-0.7072781573078146,0.0,0.0
-0.030682931367718942,0.6006632411719288,0.7329041487151173,1.1469418957358775,-0.013883229390725022,0.7524023284871438,0.5602361535421827,1.3975982658760342,-0.006348816108319713,-0.05813068253246969,0.7592610091355694,0.2378790530535346,1.4352234016308787,0.21376775848556145,-0.2937934449392343,1.6913014617433428,0.7741688138287164,-0.0,0.0
-0.01037255950791897,0.6066023970213904,0.7426073119149271,1.1530433577114527,0.0032678538728866738,0.7424460593331514,0.5515456665176461,1.3933616600346312,-0.006348816108319713,-0.05813068253246969,0.7592610091355694,0.2378790530535346,1.4433048792853251,0.21588425018736718,-0.29538467770690224,1.6934006105816704,-0.7068678672554695,-0.0,0.0
-0.029218245183987687,0.6004184616432677,0.734320587580699,1.148241822917812,-0.012635466251229962,0.7511304356652453,0.5602401302389556,1.3981704221127862,-0.006348816108319713,-0.05813068253246969,0.7592610091355694,0.2378790530535346,1.4358003742365995,0.2139246661873117,-0.293936284580123,1.691658534490872,0.7745170929085772,-0.0,-0.0
-0.01492967586822901,0.6046355786859408,0.7411054217672608,1.1524825205300067,-0.0005708601106134536,0.7441562310130805,0.5540914318243938,1.3951443470728566,-0.006348816108319713,-0.05813068253246969,0.7592610091355694,0.2378790530535346,1.4414831318767192,0.21541273446915582,-0.2950534675381012,1.6931230888295095,-0.7076761183713691,-0.0,0.0
-0.03587578221699471,0.5979272479938951,0.7317190094404729,1.1469378415542564,-0.018248149601508425,0.7539478025420784,0.563597966115844,1.4002655745665546,-0.006348816108319713,-0.05813068253246969,0.7592610091355694,0.2378790530535346,1.4331478591360576,0.21323461796909354,-0.29343764536924505,1.6911367803254345,0.7747057433603415,0.0,0.0
-0.017217209476905134,0.6029683383875303,0.7404736646679859,1.152554654014133,-0.002451209340410064,0.7446397408838791,0.5557542598999227,1.3965900082870741,-0.006348816108319713,-0.05813068253246969,0.7592610091355694,0.2378790530535346,1.4405822808573094,0.21518333651643687,-0.29490859138801484,1.6931200227932013,-0.7066265903763069,0.0,0.0
-0.03797948034835723,0.5964096333117542,0.731075381823527,1.1469470932978996,-0.019973592771208092,0.754413308198139,0.5651008622432825,1.4015551195021896,-0.006348816108319713,-0.05813068253246969,0.7592610091355694,0.2378790530535346,1.4323256044804078,0.21302488391017096,-0.29330466404356526,1.6911275276662263,0.7756630749505098,-0.0,0.0
-0.015146511248644155,0.6024864388202582,0.7418825828868799,1.1539331890330347,-0.0006417969994577492,0.7429558635777838,0.555579479256352,1.397167206121074,-0.006348816108319713,-0.05813068253246969,0.7592610091355694,0.2378790530535346,1.4414181349672877,0.21540908353924915,-0.29510705532428927,1.6935782499053245,-0.7059337938206062,-0.0,0.0
-0.03403690286845959,0.5967191343695957,0.7337293921980592,1.1490995738735184,-0.01662200738397703,0.7521401921827702,0.56448930541405,1.40195553624211,-0.006348816108319713,-0.05813068253246969,0.7592610091355694,0.2378790530535346,1.4338910179266147,0.21344180388668113,-0.29364808531085757,1.6917837100246746,0.7744638400440006,0.0,0.0
-0.015394617245994387,0.6018103512568537,0.7424152564512906,1.154634733992819,-0.0008415211517567439,0.742881752938642,0.5566020289618612,1.398222576370596,-0.006348816108319713,-0.05813068253246969,0.7592610091355694,0.2378790530535346,1.441311201595704,0.2153865495591405,-0.2951130797705635,1.6937433691742807,-0.7049479798691974,0.0,0.0
-0.030031772964129014,0.5973465104011236,0.736092736467013,1.150884986408449,-0.01322344323682794,0.7500117791933909,0.5634922904485109,1.4019099115379716,-0.006348816108319713,-0.05813068253246969,0.7592610091355694,0.2378790530535346,1.4354816325387016,0.21386278505117953,-0.29398297859573014,1.6923516862131538,0.776030332943693,0.0,0.0
-0.009884099876033479,0.6029893281049052,0.745330626912992,1.156685698134624,0.0038282306567919283,0.7397552252097875,0.5545102422242709,1.3975356948747835,-0.006348816108319713,-0.05813068253246969,0.7592610091355694,0.2378790530535346,1.44349908651573,0.21596296765886658,-0.295559560484293,1.694425091386421,-0.7009831300867732,-0.0,0.0
-0.028774523922388492,0.5970515259933432,0.7373611433483348,1.152074201140633,-0.012148874749718836,0.7488003333899852,0.5635795266874578,1.4025403135712762,-0.006348816108319713,-0.05813068253246969,0.7592610091355694,0.2378790530535346,1.4359759184530347,0.21399803445894666,-0.29410910472720286,1.6926853779738016,0.7758276888821185,0.0,0.0
-0.014162170653795084,0.6011772047074952,0.7440254939793993,1.1562368455304546,0.00021721856155042414,0.7416482905801149,0.5572742218118849,1.3994505410917084,-0.006348816108319713,-0.05813068253246969,0.7592610091355694,0.2378790530535346,1.4417880399673733,0.21552035483655968,-0.2952504789704667,1.6941783240585164,-0.7030386201202394,0.0,0.0
-0.0356550862665867,0.5945748662494328,0.7347934084694622,1.1507963013842188,-0.017962781459481617,0.7517149146585053,0.5670661745208132,1.404713655886707,-0.006348816108319713,-0.05813068253246969,0.7592610091355694,0.2378790530535346,1.4332340541625461,0.21328463552732238,-0.29359449745186705,1.6921507866840906,0.775607387092235,0.0,0.0
-0.017124577209830027,0.5995900077078165,0.7434742740814092,1.1563493198274097,-0.002277193915424292,0.7421301646961491,0.5589782160991827,1.400935850576615,-0.006348816108319713,-0.05813068253246969,0.7592610091355694,0.2378790530535346,1.4405997449934547,0.21521588279178294,-0.2950505366215362,1.6941115985348447,-0.7042497943252286,0.0,0.0
-0.0321211117710921,0.5950568556042641,0.7369540713854519,1.152461512164882,-0.014962813125246246,0.7494726078564825,0.5659968928051851,1.4046486750501541,-0.006348816108319713,-0.05813068253246969,0.7592610091355694,0.2378790530535346,1.4346354872469929,0.21365622857841501,-0.29389269192395284,1.6926740895430814,0.7757454847023381,0.0,0.0
-0.011090800180503093,0.6008780753285201,0.7466684263835761,1.1585961483145555,0.002835940187972303,0.7390802772200376,0.557035401592749,1.4003640641210644,-0.006348816108319713,-0.05813068253246969,0.7592610091355694,0.2378790530535346,1.442992561309605,0.2158464194482656,-0.29553886854945854,1.694858359935066,-0.7037329990613348,0.0,0.0
-0.030711876935139333,0.594746185794553,0.7383533147357867,1.1537680187691177,-0.01375818032894659,0.7481820063459081,0.5660754241509638,1.4053029434044677,-0.006348816108319713,-0.05813068253246969,0.7592610091355694,0.2378790530535346,1.4351895542233335,0.21380764380786707,-0.2940330854162398,1.6930415153207448,0.7764028632323845,0.0,0.0
-0.009902175470374423,0.6005591731356943,0.747909209230782,1.159767672192738,0.0038521200899831465,0.7379406330464842,0.557158851152692,1.4009999186197042,-0.006348816108319713,-0.05813068253246969,0.7592610091355694,0.2378790530535346,1.4434548615829694,0.21597350633883025,-0.29565873297943224,1.695185653674995,-0.6968482830931712,0.0,0.0
-0.02916833320575016,0.5944981549364924,0.7397879109735739,1.1550807690387188,-0.012440601748747102,0.7471772031686248,0.5663998850767069,1.406075522394026,-0.006348816108319713,-0.05813068253246969,0.7592610091355694,0.2378790530535346,1.4357964920380022,0.21397272905459738,-0.29418272708487675,1.6934149075661837,0.7757815063408654,0.0,0.0
-0.00889918716106166,0.6002159841510273,0.7490358247314695,1.160850311473339,0.004710676484406588,0.7368757160961733,0.557339195891687,1.4016615249567157,-0.006348816108319713,-0.05813068253246969,0.7592610091355694,0.2378790530535346,1.443843297841188,0.2160810181496551,-0.2957628210820556,1.6954852157819071,-0.7036202441332013,0.0,0.0
-0.029921447456608304,0.5935655503835193,0.7402143872178794,1.155786251695624,-0.013066259861138501,0.7469233153974034,0.5674583314699926,1.4072455408659843,-0.006348816108319713,-0.05813068253246969,0.7592610091355694,0.2378790530535346,1.4354905698157525,0.21389900985660498,-0.29415472021087447,1.6935653463672211,0.7768077592694648,0.0,0.0
-0.009773295966604367,0.5992259458605826,0.749431343138004,1.161547835822665,0.003982720603223244,0.736660616449716,0.5584765685086825,1.4028969078818039,-0.006348816108319713,-0.05813068253246969,0.7592610091355694,0.2378790530535346,1.4434846523747296,0.21599386955952152,-0.29572539420195015,1.6956299810062396,-0.7016220978000881,0.0,0.0
-0.03069791028961686,0.5926351855285019,0.7406202958148608,1.1564737322821976,-0.013711626593857704,0.7466900671008548,0.5685180613449528,1.4084066220908422,-0.006348816108319713,-0.05813068253246969,0.7592610091355694,0.2378790530535346,1.4351758635328966,0.21382288503200514,-0.29412456554512084,1.6937105384674782,0.7762025956738839,0.0,0.0
-0.012455424624919241,0.5977383794627062,0.7489881982822715,1.1617152941190252,0.0017249081549843195,0.7373769231930544,0.5604089982703527,1.4045054838355446,-0.006348816108319713,-0.05813068253246969,0.7592610091355694,0.2378790530535346,1.442409643939002,0.21571885815954972,-0.295546731568744,1.6955861719516578,-0.7051803386488693,-0.0,0.0
-0.03345894823435183,0.5912152829833595,0.7400448804012738,1.1565069781029536,-0.016037071148486487,0.7475296271818659,0.5703936479178962,1.409897944452013,-0.006348816108319713,-0.05813068253246969,0.7592610091355694,0.2378790530535346,1.4340752551143385,0.21354015671655832,-0.2939369492604834,1.6936307984434706,0.7747638633173489,0.0,0.0
-0.013181273368495224,0.5967947723923043,0.7494444554980322,1.1624488859227764,0.0011230789578918904,0.7370947655410847,0.5614740276969468,1.4056954640484445,-0.006348816108319713,-0.05813068253246969,0.7592610091355694,0.2378790530535346,1.4421112651497892,0.2156473645691559,-0.2955208596739766,1.6957442616227363,-0.7052185061864839,0.0,0.0
-0.03424921552037426,0.5902753406870456,0.7404487215935417,1.157197642656747,-0.016693275745169652,0.7473023515136538,0.571463858238351,1.4110635866295418,-0.006348816108319713,-0.05813068253246969,0.7592610091355694,0.2378790530535346,1.4337563942935871,0.2134629035938152,-0.29390616968046396,1.693776066988464,0.7756472449953938,-0.0,0.0
-0.015939245467203805,0.5952911596563426,0.748959244323685,1.1625883247971185,-0.00119822331305818,0.7378587270192735,0.5634333588064719,1.4073055241378454,-0.006348816108319713,-0.05813068253246969,0.7592610091355694,0.2378790530535346,1.4410083653588166,0.21536487477587848,-0.2953364316804076,1.695690809035519,-0.7067824351188058,0.0,0.0
-0.030721388596437797,0.5907838221171979,0.7425759718440627,1.1588205737455624,-0.013699622116729877,0.7450821893554503,0.570374235484431,1.4109728213297283,-0.006348816108319713,-0.05813068253246969,0.7592610091355694,0.2378790530535346,1.4351502433974739,0.21383247866226315,-0.2942013695563492,1.6942891203082993,0.7753120678257719,0.0,-0.0
-0.01036588883209524,0.5964838686626235,0.7519056989898871,1.1646535511411908,0.0035237881990297544,0.734689192187537,0.561324222964255,1.406629552623062,-0.006348816108319713,-0.05813068253246969,0.7592610091355694,0.2378790530535346,1.4432103328664017,0.21594543937772434,-0.2957854624193254,1.6963785002198197,-0.7065163192751293,0.0,0.0
-0.031400042757803594,0.589873017923314,0.7430344422766322,1.1595458661455311,-0.014261833574482859,0.7447931844424295,0.5713981165861451,1.4121213473440202,-0.006348816108319713,-0.05813068253246969,0.7592610091355694,0.2378790530535346,1.4348750513970259,0.2137667352243923,-0.2941792317449746,1.6944467639514555,0.776092085008872,0.0,0.0
-0.013188909367432246,0.5949539206519512,0.7514006483425507,1.1647851981214534,0.0011471903669077917,0.7354767335821439,0.5633214686730739,1.4082674019955073,-0.006348816108319713,-0.05813068253246969,0.7592610091355694,0.2378790530535346,1.4420818277422482,0.21565632335055515,-0.29559634817320457,1.6963212965181542,-0.7034752827074838,-0.0,0.0
-0.03423024974619647,0.5884381105899755,0.7424222852054525,1.1595547130816453,-0.016645496580644608,0.74567372965404,0.5732993485268973,1.4136165655832942,-0.006348816108319713,-0.05813068253246969,0.7592610091355694,0.2378790530535346,1.4337495006637517,0.21347732232111552,-0.29398647117193966,1.6943587360319357,0.7746025698382596,-0.0,0.0
-0.01401683737807832,0.5939828488019736,0.7518082323813695,1.1654878434425615,0.0004592451644394417,0.735248887259684,0.5644305008265371,1.4094748617044324,-0.006348816108319713,-0.05813068253246969,0.7592610091355694,0.2378790530535346,1.4417438896310981,0.21557440050585727,-0.295562548804118,1.6964684695797738,-0.703418814903504,-0.0,0.0
-0.03503474831402904,0.587501417272262,0.7428112122122833,1.1602318532466716,-0.01731358005084457,0.7454612341341434,0.5743684400712092,1.414772531236117,-0.006348816108319713,-0.05813068253246969,0.7592610091355694,0.2378790530535346,1.4334259396582831,0.21339872519290115,-0.29395435106683776,1.6945001997385858,0.7736364938699769,0.0,0.0
-0.016764704033538042,0.5924904788105497,0.7513181702870919,1.165620355042199,-0.001853232293051895,0.7360171378915707,0.5663761101757452,1.4110659061793391,-0.006348816108319713,-0.05813068253246969,0.7592610091355694,0.2378790530535346,1.440647530907651,0.21529343825108377,-0.29537897068616575,1.6964135560437323,-0.7058920030438757,-0.0,0.0
-0.031521801242197764,0.58800612368861,0.7449303865747019,1.1618475519556453,-0.014332603679784554,0.7432481562988706,0.5732859827264126,1.4146874146811539,-0.006348816108319713,-0.05813068253246969,0.7592610091355694,0.2378790530535346,1.4348112777634892,0.2137661604895158,-0.2942477209331759,1.6950110802711573,0.7742054263992795,-0.0,0.0
-0.01114825939486953,0.593692623858758,0.7542862413291941,1.1676977141063836,0.0029050244234977186,0.7328215485441955,0.5642518785657297,1.4103900197505843,-0.006348816108319713,-0.05813068253246969,0.7592610091355694,0.2378790530535346,1.4428622344918118,0.21587752686318828,-0.29583045697544363,1.6971057401143146,-0.706840945959272,-0.0,0.0
-0.032162062353773904,0.5871091979615451,0.7454024191067866,1.1625795532163508,-0.014862104168958966,0.7429434196974012,0.5742894752804388,1.4158208641490198,-0.006348816108319713,-0.05813068253246969,0.7592610091355694,0.2378790530535346,1.4345520741179887,0.21370453694498917,-0.29422848656789796,1.6951715907704765,0.7744442861958534,-0.0,0.0
-0.013824651227722543,0.5922098343482195,0.7538413675955749,1.1678644238911313,0.0006527986091095488,0.7335415770651126,0.5661770563551434,1.4119830962664845,-0.006348816108319713,-0.05813068253246969,0.7592610091355694,0.2378790530535346,1.441794195991605,0.21560409991901722,-0.2956528892642439,1.697061798815129,-0.7076002624813158,0.0,0.0
-0.028689298143459198,0.5876177608389935,0.7474878590626319,1.1641634351843475,-0.011915887150276479,0.7407612185663071,0.5732110868123544,1.4157283429276135,-0.006348816108319713,-0.05813068253246969,0.7592610091355694,0.2378790530535346,1.4359198212460398,0.21406731650355731,-0.2945176758654142,1.695673567545448,0.7732993751902718,0.0,-0.0
-0.008275323705465115,0.5934172434192866,0.7567536123716989,1.169890361359707,0.005353360320899125,0.7303984848120282,0.5640599454428472,1.4112937255781206,-0.006348816108319713,-0.05813068253246969,0.7592610091355694,0.2378790530535346,1.443980067459369,0.21618053004800322,-0.29609758305446826,1.6977393640348728,-0.706649897208043,-0.0,-0.0
-0.027261986071096284,0.5873760243201335,0.7488271659572604,1.1653889554264287,-0.010697930580094647,0.7394639502388246,0.573220860956124,1.416321907992016,-0.006348816108319713,-0.05813068253246969,0.7592610091355694,0.2378790530535346,1.4364770486720084,0.21421918415604305,-0.2946554454627179,1.696022159177172,0.7743701022589312,0.0,0.0
-0.012835633826407997,0.591510629268811,0.7553364729247579,1.169388009439724,0.001505171906713499,0.7321707807291002,0.5667185857082377,1.4131424247107474,-0.006348816108319713,-0.05813068253246969,0.7592610091355694,0.2378790530535346,1.442170555918465,0.21571169052771066,-0.29576978431712814,1.6974702554547492,-0.7073269457144213,0.0,0.0
-0.033944712416753536,0.584952209890303,0.7463544854791416,1.1641842980397092,-0.016342333803610234,0.7423933507494648,0.5767430849740465,1.4185035881091652,-0.006348816108319713,-0.05813068253246969,0.7592610091355694,0.2378790530535346,1.433834520828119,0.21353099843409246,-0.2941606407635232,1.6955115639979332,0.774222690380686,-0.0,0.0
-0.01349381488342161,0.5905851369110464,0.7558236311472435,1.1701412914358988,0.0009609951847813665,0.7318545868127113,0.5677543730124965,1.4143151198485893,-0.006348816108319713,-0.05813068253246969,0.7592610091355694,0.2378790530535346,1.4419003774058772,0.21564751822562442,-0.295749245736905,1.697635439592356,-0.7066055814701827,0.0,0.0
-0.032453999076567736,0.5847133831142247,0.7477360086314362,1.165446053546222,-0.015069514777640295,0.7410556724099304,0.5767379377703046,1.4190971891631992,-0.006348816108319713,-0.05813068253246969,0.7592610091355694,0.2378790530535346,1.4344175181982293,0.21368967333474212,-0.2943040509731202,1.695870764695155,0.774236643207449,0.0,0.0
-0.012001772436557291,0.5904004435896842,0.7571484088150444,1.1713320332557635,0.0022334920146586668,0.7305606730894746,0.5676963249947852,1.4148409396024508,-0.006348816108319713,-0.05813068253246969,0.7592610091355694,0.2378790530535346,1.442480131457024,0.21580504105829673,-0.2958895547398699,1.6979772985466424,-0.7070988802635928,0.0,0.0
-0.033106080493636045,0.5838109516925715,0.7482041598890224,1.1661771290103453,-0.015608656102394324,0.7407563030725408,0.5777486988747191,1.420233277294761,-0.006348816108319713,-0.05813068253246969,0.7592610091355694,0.2378790530535346,1.434154532520167,0.21362702576949458,-0.2942840512239283,1.6960306550290378,0.7746662054135065,0.0,0.0
-0.012566419494197522,0.5895023362328072,0.7576773954561583,1.1721103256710503,0.0017683267505523674,0.730196915629273,0.5686897574805051,1.4159929055916982,-0.006348816108319713,-0.05813068253246969,0.7592610091355694,0.2378790530535346,1.4422468616745225,0.21575054325089543,-0.2958761622387203,1.6981517412598544,-0.7070955502057986,0.0,-0.0
-0.0316160863321299,0.5835705235588546,0.7495870003379363,1.167439701901466,-0.014336602968052767,0.7394165421577564,0.5777459433110674,1.4208309614064831,-0.006348816108319713,-0.05813068253246969,0.7592610091355694,0.2378790530535346,1.4347363787793896,0.2137854492271607,-0.29442722955939965,1.6963901511512047,0.7738619743764792,0.0,0.0
-0.01719153394252552,0.5876052266237168,0.7561995415052343,1.1715562975977278,-0.0021341388284304916,0.7320321911776204,0.5713472485378202,1.4178055842915231,-0.006348816108319713,-0.05813068253246969,0.7592610091355694,0.2378790530535346,1.4404167751423966,0.2152758375413339,-0.2955430817208465,1.6978674567699443,-0.7054400056388571,0.0,0.0
-0.03829607617153526,0.5811937527690287,0.7470653226844639,1.1661803118427336,-0.01997843351845211,0.7423907733534341,0.581218113005375,1.4229352731275497,-0.006348816108319713,-0.05813068253246969,0.7592610091355694,0.2378790530535346,1.432101599667494,0.2130986122388847,-0.2939319537641809,1.695865800600899,0.77515653654468,0.0,0.0
-0.017910788398104095,0.5866683025350689,0.7566501586880898,1.1722845699804203,-0.0027291075109753572,0.7317573544969633,0.5724028773748819,1.4189748901401036,-0.006348816108319713,-0.05813068253246969,0.7592610091355694,0.2378790530535346,1.4401244673456877,0.21520568559682354,-0.29551782755615336,1.6980241721492613,-0.7040448275322694,0.0,0.0
-0.0369891031494145,0.5808933600602261,0.7483709328414357,1.1674010616867245,-0.018860077098566404,0.7411420935923481,0.5813037196101976,1.4235763391566265,-0.006348816108319713,-0.05813068253246969,0.7592610091355694,0.2378790530535346,1.4326121978697917,0.2132383354608389,-0.29406144895579694,1.6962087518987332,0.7759884353398754,0.0,0.0
-0.01641517190157113,0.5864663943679457,0.7579935160579688,1.1734979405610413,-0.0014525556507428462,0.7304493548297128,0.5723605833846352,1.4195203355258807,-0.006348816108319713,-0.05813068253246969,0.7592610091355694,0.2378790530535346,1.4407053805650498,0.2153636321068701,-0.29565902138464184,1.6983714703791546,-0.7043949703192146,0.0,0.0
-0.0377664283187818,0.5799488541596511,0.7487866556099307,1.1681050681982692,-0.019504011019628953,0.7409057562474781,0.5823755087139996,1.4247400789617126,-0.006348816108319713,-0.05813068253246969,0.7592610091355694,0.2378790530535346,1.432301773379825,0.21316317963170944,-0.29403233147100744,1.6963576385318018,0.775962022997713,0.0,0.0
-0.017373413882925674,0.5854488834484572,0.7583493258368326,1.1741753771270227,-0.0022494897081863016,0.7302843032471956,0.5735362702933409,1.4207589860304497,-0.006348816108319713,-0.05813068253246969,0.7592610091355694,0.2378790530535346,1.4403190072055836,0.21526891623512623,-0.29561583989920365,1.6985080789842353,-0.7029178818866322,-0.0,-0.0
-0.036523932367744996,0.5796316933569191,0.7500613553283786,1.1693050974704196,-0.01844033205804059,0.739690379391175,0.5824889715707626,1.425394243625917,-0.006348816108319713,-0.05813068253246969,0.7592610091355694,0.2378790530535346,1.4327863320288312,0.2132960869274911,-0.2941565881471643,1.6966934978399448,0.7729287811492616,-0.0,-0.0
-0.021966338745802255,0.5835900460005832,0.7568534198444548,1.1735953719012597,-0.006124128684722922,0.732134477400504,0.5761479227790821,1.4225128604344874,-0.006348816108319713,-0.05813068253246969,0.7592610091355694,0.2378790530535346,1.4385066602155647,0.21479837991957465,-0.29528494706406877,1.6982180624446683,-0.7096174644001241,-0.0,-0.0
-0.04307729727082851,0.5773363880492768,0.7475477920525229,1.1680267019682695,-0.023974741046034552,0.7426456250549893,0.5858564452704523,1.427395892564912,-0.006348816108319713,-0.05813068253246969,0.7592610091355694,0.2378790530535346,1.430208028551965,0.21262339240055697,-0.2936704432338571,1.6961682013087558,0.7734506668706973,-0.0,-0.0
-0.024369306956604875,0.5822184975396041,0.756491351656516,1.173797850593668,-0.008142976045387516,0.7327591033310965,0.5779120917396331,1.4239746199197048,-0.006348816108319713,-0.05813068253246969,0.7592610091355694,0.2378790530535346,1.4375551766232886,0.2145547725451305,-0.2951285464852592,1.698190795783668,-0.7133095232677673,-0.0,-0.0
-0.045463666210500395,0.5760518532626787,0.747106209878518,1.1681324007654572,-0.025980501134759863,0.7433361662759711,0.5875294056911241,1.4287334716660827,-0.006348816108319713,-0.05813068253246969,0.7592610091355694,0.2378790530535346,1.42926835822895,0.21238198413022086,-0.29351286747255073,1.69611747796209,0.773176432186618,0.0,-0.0
-0.025001132132496287,0.5813118661652101,0.7569718596230223,1.1745431604380623,-0.008662537234906002,0.7324527621288278,0.5789205820276307,1.425104706779125,-0.006348816108319713,-0.05813068253246969,0.7592610091355694,0.2378790530535346,1.4373001436405937,0.2144941629080974,-0.2951102112454854,1.698353945237795,-0.7069771153787271,0.0,-0.0
-0.04631744207635441,0.5751005102715805,0.7474670779632815,1.1687959239495285,-0.026687542065509016,0.7431609569335457,0.5886175136692829,1.429878769247592,-0.006348816108319713,-0.05813068253246969,0.7592610091355694,0.2378790530535346,1.4289311570760075,0.2122994687771025,-0.2934777535244681,1.6962532844971168,0.7733967937649162,-0.0,-0.0
-0.027665481430849754,0.5798708446599533,0.7564846034415675,1.1746670270820998,-0.01090180375753497,0.7332181978942905,0.5807957301029657,1.4266094943203818,-0.006348816108319713,-0.05813068253246969,0.7592610091355694,0.2378790530535346,1.4362479957097398,0.21422399430603778,-0.2949338473712903,1.6982986712164294,-0.709295098912417,-0.0,-0.0
-0.042507054379295785,0.5756103318642325,0.7497991312988929,1.170586254976289,-0.023452609359755554,0.7407313154338907,0.5874821237154465,1.4298403687254995,-0.006348816108319713,-0.05813068253246969,0.7592610091355694,0.2378790530535346,1.4304247852038445,0.21269622572988728,-0.29379525553130187,1.6968164774480943,0.7698535963416222,-0.0,-0.0
-0.02173380052003916,0.5810587608261851,0.7596995860518962,1.1769506501089064,-0.005875071815966783,0.7297713864337074,0.5786371493492334,1.4260214683820038,-0.006348816108319713,-0.05813068253246969,0.7592610091355694,0.2378790530535346,1.4385710138143857,0.21483789799855693,-0.2954104172286701,1.6990517168624029,-0.7144754141364736,-0.0,-0.0
-0.04065311495858676,0.575440523021619,0.7513763728173214,1.1719885467910067,-0.02187046898279683,0.7391860431265008,0.5873473668126139,1.4303945770777702,-0.006348816108319713,-0.05813068253246969,0.7592610091355694,0.2378790530535346,1.4311491562365386,0.212892242121637,-0.2939674696867761,1.6972215457621318,0.764224688441227,-0.0,-0.0
-0.025956652395033288,0.5793427542501024,0.7583301979244553,1.1764284501389801,-0.009436277298885392,0.7314714991602352,0.5810433170273585,1.4276327574556096,-0.006348816108319713,-0.05813068253246969,0.7592610091355694,0.2378790530535346,1.436909524641404,0.2144063804715471,-0.2951074306533182,1.698787538382716,-0.7141165251656061,-0.0,-0.0
-0.04692410992441563,0.5732612063799496,0.7489523337420716,1.1707474876877217,-0.02716552702481248,0.7420339952709054,0.5905503129691074,1.4322739266585183,-0.006348816108319713,-0.05813068253246969,0.7592610091355694,0.2378790530535346,1.428688884606121,0.2122499195784046,-0.2935029651527499,1.6967142866071194,0.7610147428896195,-0.0,-0.0
-0.028296181674001487,0.5780125244202512,0.7579702931331763,1.1766199336519152,-0.011400866895695621,0.7320890321123078,0.5827541751187556,1.4290395315196713,-0.006348816108319713,-0.05813068253246969,0.7592610091355694,0.2378790530535346,1.4359865477168594,0.2141698784497664,-0.2949555262203935,1.698759318759711,-0.7098046444278834,-0.0,-0.0
-0.04315695604965099,0.5737583628767571,0.751264513396322,1.1725244628564562,-0.02396723611949793,0.7396256050374638,0.5894352367716154,1.4322472093485599,-0.006348816108319713,-0.05813068253246969,0.7592610091355694,0.2378790530535346,1.4301637104265488,0.21264180849300038,-0.29381669246127684,1.6972728149638572,0.7663351406829632,-0.0,-0.0
-0.02223126878889537,0.5792304942223004,0.7612531669144693,1.178947956488848,-0.006261541008630411,0.7285667640496523,0.5805446109554929,1.4284373439153426,-0.006348816108319713,-0.05813068253246969,0.7592610091355694,0.2378790530535346,1.4383587286323976,0.2147968594649111,-0.2954419294393175,1.6995275993572825,-0.7145575469254997,0.0,-0.0
-0.04115568620777315,0.5736220861942497,0.7529167220727201,1.173977205479348,-0.02226027331581293,0.7379982960673188,0.5892431595299945,1.4327816573801349,-0.006348816108319713,-0.05813068253246969,0.7592610091355694,0.2378790530535346,1.430944977857837,0.21285285078391514,-0.2940003137656157,1.6976950475749897,0.7657983215306167,-0.0,-0.0
-0.026423607871820062,0.5775258620457939,0.7598946495908979,1.1784321016793724,-0.00979662882474406,0.7302550459239074,0.582933832355517,1.4300345130164271,-0.006348816108319713,-0.05813068253246969,0.7592610091355694,0.2378790530535346,1.4367115481960704,0.21436897897403961,-0.2951416311213741,1.699265937917893,-0.7138072303526123,-0.0,-0.0
-0.047454874741684146,0.5714370296078297,0.7504776137130984,1.1727275843451537,-0.027578746481754096,0.7408642624946709,0.5924556020364836,1.434658676696074,-0.006348816108319713,-0.05813068253246969,0.7592610091355694,0.2378790530535346,1.428477082351034,0.21220837403824033,-0.29353426377303843,1.6971847469854224,0.7652039246429224,-0.0,-0.0
-0.028527412407355523,0.5762541346078813,0.7596502169443023,1.1787003257058501,-0.011561416357698244,0.7307463059117522,0.5845473934262893,1.4314000336703143,-0.006348816108319713,-0.05813068253246969,0.7592610091355694,0.2378790530535346,1.4358821543200166,0.21415705531638646,-0.29500837929557017,1.6992641795689118,-0.7176751393641889,-0.0,-0.0
-0.043312441556658476,0.5720236406902691,0.7529774424327994,1.1746288913037528,-0.024062859001955518,0.7382495175779331,0.5911903755597165,1.434577655176909,-0.006348816108319713,-0.05813068253246969,0.7592610091355694,0.2378790530535346,1.4300968511884977,0.21263852231988298,-0.2938770042583737,1.6977859810867606,0.7679813375060885,-0.0,-0.0
-0.022439549617893642,0.5774831191140218,0.7629381236510261,1.1810263858105368,-0.006403082314863088,0.7272149950970044,0.5823240241721532,1.4307909324706045,-0.006348816108319713,-0.05813068253246969,0.7592610091355694,0.2378790530535346,1.4382601922720886,0.21478565053839568,-0.2954955986928439,1.7000327492923757,-0.7128433499882507,-0.0,-0.0
-0.04144427769203857,0.5718532500709217,0.7545649152116111,1.1760387386939017,-0.022468554228183942,0.7366928856665804,0.591054591767146,1.4351362534900036,-0.006348816108319713,-0.05813068253246969,0.7592610091355694,0.2378790530535346,1.4308250685437105,0.21283563818534335,-0.294049978754484,1.6981933978197472,0.7660986473032301,-0.0,-0.0
-0.026891920700239054,0.5757068225578075,0.7614593597307627,1.180436779744723,-0.010157758530299654,0.7290387372111488,0.5848268377640345,1.4324366102240653,-0.006348816108319713,-0.05813068253246969,0.7592610091355694,0.2378790530535346,1.4365136050501457,0.21433156171750417,-0.2951757483908072,1.6997445556422361,-0.7061611915470738,-0.0,-0.0
-0.04814779314808533,0.5695643334179472,0.7519310055553576,1.1746650222785775,-0.028128674566717186,0.7397758990854444,0.5944360679635154,1.4370787988101663,-0.006348816108319713,-0.05813068253246969,0.7592610091355694,0.2378790530535346,1.4282025341399867,0.21215033476635584,-0.29355322610044654,1.697639514527832,0.7709085131049178,0.0,-0.0
-0.029481569295983043,0.5742994403452326,0.7609917548138286,1.1805674406789781,-0.012333115943145009,0.7297805242219565,0.5866550347182546,1.4338991684073383,-0.006348816108319713,-0.05813068253246969,0.7592610091355694,0.2378790530535346,1.4354955440868582,0.21407002541786713,-0.29500541896795135,1.6996932751311107,-0.7056507786820112,-0.0,-0.0
-0.044460017882051325,0.5700335070138242,0.754211571786992,1.1764232511001038,-0.024997563364916348,0.7374024905112794,0.5933630218902889,1.437080049870234,-0.006348816108319713,-0.05813068253246969,0.7592610091355694,0.2378790530535346,1.4296426295979994,0.21253327576574588,-0.2938601692477453,1.6981908881962147,0.7716826152842258,-0.0,0.0
-0.023747518642273355,0.5754177418466236,0.7641290429664584,1.1828055089532006,-0.0074739278322855165,0.7264200911666545,0.584600736126615,1.4333819502501401,-0.006348816108319713,-0.05813068253246969,0.7592610091355694,0.2378790530535346,1.4377322476906296,0.21466170041259383,-0.2954652738788763,1.7004287763261412,-0.7052632190732877,0.0,0.0
-0.04349709685161144,0.5696052830950318,0.7553884001595852,1.1775815807872316,-0.024168476755183604,0.7363072303807018,0.5936327318056956,1.4378302519868646,-0.006348816108319713,-0.05813068253246969,0.7592610091355694,0.2378790530535346,1.43001656540508,0.2126373782825036,-0.2939637263428725,1.6985071985824576,0.7841831195805854,0.0,0.0
-0.024418128705391316,0.5745980083237436,0.7644884141781967,1.1834154297371395,-0.008028099629171323,0.7262174835552919,0.5855295962215217,1.4343847607276528,-0.006348816108319713,-0.05813068253246969,0.7592610091355694,0.2378790530535346,1.4374642174483376,0.2145967763672942,-0.2954399090592881,1.7005575449817059,-0.6411099840437535,0.0,0.0
-0.0461858274254142,0.5682137289599383,0.7548316031217605,1.1776327083330989,-0.02642849675898844,0.7371361127655387,0.59546132631611,1.4392510827537672,-0.006348816108319713,-0.05813068253246969,0.7592610091355694,0.2378790530535346,1.428964604156043,0.2123664232240113,-0.2937849554260492,1.6984334110503667,0.7889300430229118,0.0,0.0
-0.029540949487532303,0.5724968320323152,0.7628461959153862,1.1828115905911765,-0.01234596627113677,0.7282706191294734,0.588465065845641,1.4363474314340903,-0.006348816108319713,-0.05813068253246969,0.7592610091355694,0.2378790530535346,1.4354583338131468,0.21407558919862513,-0.2950750933841502,1.7002441193611013,-0.6268640813337392,0.0,0.0
-0.04461764862286653,0.5682004584700783,0.7560251619538967,1.1786494949193331,-0.025092449372746836,0.7359438576454695,0.5952174966542564,1.4395409607766274,-0.006348816108319713,-0.05813068253246969,0.7592610091355694,0.2378790530535346,1.4295754614223515,0.21253067848050747,-0.29392431184028883,1.6987341354886785,0.7778116821365462,0.0,0.0
-0.0247365084354108,0.5733699802185657,0.7655414858662228,1.1847653430251115,-0.008273444858123712,0.7253990723518485,0.5868083016885514,1.4360043260616397,-0.006348816108319713,-0.05813068253246969,0.7592610091355694,0.2378790530535346,1.4373292675009048,0.21457115546316027,-0.2954624061493022,1.7008797292759061,-0.6768892119061035,-0.0,-0.0
-0.04387105697409366,0.5677650940987025,0.7570460572172862,1.1796780371625655,-0.024447328713793546,0.7350059002847479,0.5955299135903703,1.4402627536165276,-0.006348816108319713,-0.05813068253246969,0.7592610091355694,0.2378790530535346,1.4298647261898016,0.21261209427109104,-0.2940088612374406,1.6990115113845299,0.7707078394356816,-0.0,-0.0
-0.0291241868403386,0.5716196694328587,0.764083362644797,1.1841868399315,-0.011972600969550717,0.7272001918528805,0.589273124480207,1.437616372838766,-0.006348816108319713,-0.05813068253246969,0.7592610091355694,0.2378790530535346,1.4356132694285624,0.21412481314306542,-0.2951482304725466,1.7005962292422614,-0.7154253971633655,-0.0,-0.0
-0.043911506649333104,0.5673935131032106,0.7574067600505446,1.1801235213932748,-0.02447364127084515,0.7347173284307967,0.5959071457366877,1.4407591173098764,-0.006348816108319713,-0.05813068253246969,0.7592610091355694,0.2378790530535346,1.429847840318429,0.21261067792445687,-0.2940210736525131,1.6991198833669239,0.7633878263348691,-0.0,-0.0
-0.024863530076494993,0.5723722902109085,0.766496304702735,1.1859457781722318,-0.008360751650739903,0.724634136994506,0.5878260364919105,1.437343788452873,-0.006348816108319713,-0.05813068253246969,0.7592610091355694,0.2378790530535346,1.4372708686041729,0.2145641151028633,-0.2954922671284314,1.7011664138025042,-0.7210488308299003,-0.0,-0.0
-0.039650214496936675,0.5680421797829915,0.7599304976829565,1.1820161420439192,-0.020858999381087318,0.7320608689907909,0.5945636663517414,1.4406268180093964,-0.006348816108319713,-0.05813068253246969,0.7592610091355694,0.2378790530535346,1.4315069511822875,0.21305120376408523,-0.29436994393604604,1.6997231162597588,0.7637539439249356,-0.0,-0.0
-0.020401376675481846,0.5732113287572896,0.768970897025981,1.1877230108415513,-0.004579708745889803,0.7219876983629946,0.58626076579289,1.4369936100439977,-0.006348816108319713,-0.05813068253246969,0.7592610091355694,0.2378790530535346,1.4390058108262156,0.21502355738294385,-0.29585015436973994,1.7017477775121552,-0.7256815106023031,-0.0,-0.0
-0.03481062495420958,0.5688860753942487,0.7626851079799921,1.1840290845921981,-0.01675679653636206,0.7291327553110762,0.5929321067404537,1.440336372337329,-0.006348816108319713,-0.05813068253246969,0.7592610091355694,0.2378790530535346,1.4333900444835563,0.21355038669663773,-0.29476127667858143,1.700374817770009,0.7428759313863496,0.0,-0.0
-0.01394933934447562,0.5746566667733662,0.772305277354441,1.1899984273772055,0.000882172173003945,0.7183591615973067,0.5837663153438057,1.4361745430477852,-0.006348816108319713,-0.05813068253246969,0.7592610091355694,0.2378790530535346,1.4415148184910056,0.2156860625145636,-0.2963577134433558,1.7025160175815204,-0.70158437982489,0.0,-0.0
-0.03291746217776872,0.5687634871001501,0.7642435951199736,1.1853906670599477,-0.015143977766851512,0.727588946471075,0.5927486704095472,1.4408495085776107,-0.006348816108319713,-0.05813068253246969,0.7592610091355694,0.2378790530535346,1.434122782208588,0.21374860659772266,-0.2949330697072723,1.7007718341635811,0.7617639898821073,-0.0,-0.0
-0.018309461006093403,0.572851316577772,0.7709301622403611,1.189508951548121,-0.0027936528187048025,0.7200842036341925,0.5862840110906699,1.4378751283395728,-0.006348816108319713,-0.05813068253246969,0.7592610091355694,0.2378790530535346,1.4398094272261568,0.21524310785171738,-0.2960483408247393,1.7022560090111492,-0.7041544085963747,0.0,0.0
-0.03996445929203879,0.5662749711006722,0.7615652216871149,1.1840587391790274,-0.02109206961836787,0.7307575665804321,0.5963853170308419,1.4429956186883137,-0.006348816108319713,-0.05813068253246969,0.7592610091355694,0.2378790530535346,1.4313755970224793,0.21303110675614498,-0.2944164848629582,1.7002176687554067,0.7792922137113508,0.0,0.0
-0.022754302291352873,0.570892738305198,0.7696510026832726,1.1891592837332838,-0.006537729556315127,0.72174439299466,0.5889676257370285,1.4397645183740009,-0.006348816108319713,-0.05813068253246969,0.7592610091355694,0.2378790530535346,1.4380711281488914,0.21479254398388065,-0.2957380407731314,1.7020274929851833,-0.6466276849719733,0.0,0.0
-0.044643144589736755,0.5644015918713317,0.7600193851328302,1.1834555374887628,-0.025035991322146622,0.7326726428743459,0.5990200319465644,1.4447171869255386,-0.006348816108319713,-0.05813068253246969,0.7592610091355694,0.2378790530535346,1.4295524274698055,0.21255672983097146,-0.2940831736515093,1.699918905357631,0.7884816239944626,0.0,0.0
-0.028288362890104245,0.5686649970103581,0.7678336515937025,1.1884581032853867,-0.011202451416858444,0.723999930074388,0.5920960305323484,1.4418189442035783,-0.006348816108319713,-0.05813068253246969,0.7592610091355694,0.2378790530535346,1.4359115407446186,0.21423082170683294,-0.2953435866012021,1.7016770202371896,-0.5513850598936871,0.0,0.0
-0.04994202943246724,0.562436978025384,0.7581011903266248,1.1825739199742515,-0.029505117623752526,0.734981688472366,0.6018455074487261,1.446445922082787,-0.006348816108319713,-0.05813068253246969,0.7592610091355694,0.2378790530535346,1.4274904635192367,0.21201877924763418,-0.29369951033234604,1.6995313188574275,0.7797788300453876,0.0,0.0
-0.0327273402944747,0.5667748360261587,0.7664821952025298,1.1880264423839832,-0.014940901651354033,0.7257254017249405,0.5947069242201534,1.443599466008875,-0.006348816108319713,-0.05813068253246969,0.7592610091355694,0.2378790530535346,1.4341805151783087,0.2137813364461416,-0.29503183368922414,1.7014277406499474,-0.6443183032541936,-0.0,-0.0
-0.04756678478321226,0.5626130529829919,0.7597005908210481,1.1838615877028444,-0.027485656144861495,0.7333447116856396,0.6012812301990982,1.4466208502200342,-0.006348816108319713,-0.05813068253246969,0.7592610091355694,0.2378790530535346,1.4284132536514105,0.21226537095847878,-0.2939014014647115,1.6999246092485307,0.760695285502231,-0.0,-0.0
-0.026881295269296043,0.5679089160548705,0.7696838925967271,1.190305763415679,-0.009987464282303845,0.7222914543103183,0.5926211766057767,1.4430929270791808,-0.006348816108319713,-0.05813068253246969,0.7592610091355694,0.2378790530535346,1.4364494160214616,0.21438199827525664,-0.29549814677637476,1.7021769563588112,-0.6877428505312271,-0.0,-0.0
-0.04622288332364448,0.5622985662066403,0.761041529513659,1.1851149159078447,-0.02633403443289359,0.7320619501462847,0.6013756433523922,1.4472815002086252,-0.006348816108319713,-0.05813068253246969,0.7592610091355694,0.2378790530535346,1.428934168721333,0.21240804999954346,-0.29403313599999953,1.700276465287745,0.7569083325633048,-0.0,-0.0
-0.026780203088781686,0.5673219685210059,0.7703766564474979,1.191110985622813,-0.009888750927704491,0.7217099775425522,0.5931913197258425,1.4439096467490753,-0.006348816108319713,-0.05813068253246969,0.7592610091355694,0.2378790530535346,1.4364835422223885,0.21439623818359083,-0.29553108210390816,1.702378514902024,-0.7187889044071979,-0.0,-0.0
-0.04791631687979699,0.5611858985567636,0.760938429948478,1.185448084363523,-0.027751364111663557,0.7323839647070263,0.6027624263997874,1.4484885211077863,-0.006348816108319713,-0.05813068253246969,0.7592610091355694,0.2378790530535346,1.4282750926158587,0.212240107907322,-0.29393127225047944,1.700304070660873,0.7489809191613509,-0.0,-0.0
-0.026409830036072092,0.5666848532694756,0.7713239944509709,1.1921500504777673,-0.00955953377413548,0.7208828188438604,0.593767643033959,1.444841651037375,-0.006348816108319713,-0.05813068253246969,0.7592610091355694,0.2378790530535346,1.4366211942854865,0.2144387602752936,-0.2955896327071773,1.702646274461573,-0.7189953286486064,-0.0,-0.0
-0.04722648013574171,0.5606269953894352,0.7620443824531103,1.1865946851800713,-0.02715127311838327,0.7313845490599514,0.603207719692026,1.4493648482917911,-0.006348816108319713,-0.05813068253246969,0.7592610091355694,0.2378790530535346,1.4285415761981313,0.21231641755950953,-0.2940156848832201,1.7006086311464554,0.7375715402134596,-0.0,-0.0
-0.02837370722178358,0.5654715376714712,0.771122626119684,1.1924358412869456,-0.011205261922887472,0.7213213743390918,0.595299752270001,1.446141362621149,-0.006348816108319713,-0.05813068253246969,0.7592610091355694,0.2378790530535346,1.4358535151378096,0.2142425994973559,-0.29546739728404736,1.7026534970058704,-0.6963549417614175,-0.0,0.0
-0.04821067288176271,0.5597603171166234,0.762215175671404,1.1870670690224356,-0.027969791531330713,0.7313840312610284,0.6042330578711507,1.4503617396215358,-0.006348816108319713,-0.05813068253246969,0.7592610091355694,0.2378790530535346,1.4281587499016606,0.21222066560784963,-0.29396590678663825,1.700693269622273,0.7780008076597075,0.0,0.0
-0.03566981786045558,0.5629639001876706,0.768273477155839,1.1909747614084556,-0.017362319515773366,0.7246731437119062,0.598992067271842,1.4482459136809578,-0.006348816108319713,-0.05813068253246969,0.7592610091355694,0.2378790530535346,1.4330202176037885,0.2135015641593572,-0.29493183970929093,1.7020589372285915,-0.5857451619710116,0.0,0.0
-0.055598004366366284,0.5574619136136123,0.7590772702891503,1.185285707954874,-0.03420848514620941,0.7349870400019418,0.6077301388663906,1.4521604353827935,-0.006348816108319713,-0.05813068253246969,0.7592610091355694,0.2378790530535346,1.4252945878631171,0.2114693984012794,-0.2934143733900175,1.7000167827337416,0.7826136345140525,0.0,0.0
-0.03634751536943025,0.5621449878464266,0.7686204985774517,1.1915784049930624,-0.017919989355948858,0.7244882692557766,0.5999183826893575,1.4492269733579703,-0.006348816108319713,-0.05813068253246969,0.7592610091355694,0.2378790530535346,1.4327545173187048,0.21343692050282975,-0.29490651047956307,1.7021852117808054,-0.6400020186715771,-0.0,-0.0
-0.05422794098000881,0.5572264785936512,0.7603507240461769,1.1864537186035249,-0.03303499694557058,0.7337591304893344,0.6077397408149071,1.4527100621665647,-0.006348816108319713,-0.05813068253246969,0.7592610091355694,0.2378790530535346,1.4258264104075995,0.2116142548400886,-0.29354502689229806,1.7003479644652064,0.6382692111032725,-0.0,-0.0
-0.03654838138730299,0.5615697236101876,0.7690706750015718,1.1921769030049267,-0.018077275114406603,0.7241513711535673,0.6005241924055289,1.4499640785706023,-0.006348816108319713,-0.05813068253246969,0.7592610091355694,0.2378790530535346,1.4326743375626674,0.21342014253928687,-0.29491284536749635,1.702325685368932,-0.6480701377953377,0.0,0.0
-0.058864712809511784,0.5554365775837705,0.7587439161122764,1.1857765342224442,-0.0369417428764828,0.7357282449870808,0.6102796300445581,1.4542989911869173,-0.006348816108319713,-0.05813068253246969,0.7592610091355694,0.2378790530535346,1.4240311421494634,0.21114608728803025,-0.29321418980406805,1.7000316252771919,0.7902719742698537,0.0,0.0
-0.04272857051266971,0.5592781787209458,0.7668291236902931,1.1911522295125316,-0.023286893538618115,0.7268563004896438,0.6038160353953956,1.4519582138136167,-0.006348816108319713,-0.05813068253246969,0.7592610091355694,0.2378790530535346,1.4302782240659442,0.21279461330681662,-0.29446710111306723,1.7018738832971028,-0.5910832454147389,-0.0,-0.0
-0.06160693460765025,0.5542789292643371,0.7578956283412025,1.1855018352657323,-0.039248998458287956,0.7368125901933508,0.6118791642604344,1.4553654023615048,-0.006348816108319713,-0.05813068253246969,0.7592610091355694,0.2378790530535346,1.4229710302919387,0.2108703520773465,-0.29302308601555094,1.6998751895753765,0.6164660630627117,0.0,0.0
-0.046211001437863324,0.5578753844424054,0.765680849962329,1.1907160816968974,-0.026218913700940944,0.7282898949554953,0.6057807841318044,1.4532253102639356,-0.006348816108319713,-0.05813068253246969,0.7592610091355694,0.2378790530535346,1.4289293856524512,0.21244331204649158,-0.29422094218893186,1.7016537062243333,-0.5640114858300479,0.0,0.0
-0.06525131595600492,0.5529406133176086,0.756558975082624,1.1848838339940044,-0.042320126064257696,0.7384236240411887,0.6138055318040893,1.4565141341116565,-0.006348816108319713,-0.05813068253246969,0.7592610091355694,0.2378790530535346,1.4215626554349652,0.21050238536988913,-0.29276069149246603,1.6996051447283174,0.7454660950050792,-0.0,-0.0
-0.0426761733148652,0.5580786374671703,0.7681138063561561,1.1926979262493405,-0.023210572766312044,0.725814295077633,0.604998058073249,1.4535570248455243,-0.006348816108319713,-0.05813068253246969,0.7592610091355694,0.2378790530535346,1.4302966789980587,0.21280926933504807,-0.29452220814321334,1.7022540404247035,-0.751354387154248,0.0,0.0
-0.06377213487924986,0.552486221678601,0.7581383230838812,1.1863974107799922,-0.04104632438584532,0.7369376410078237,0.6140125767242567,1.4573621628712687,-0.006348816108319713,-0.05813068253246969,0.7592610091355694,0.2378790530535346,1.4221391524155274,0.21066084592741055,-0.2929106573754487,1.7000240889658846,0.8203383676255677,-0.0,-0.0
-0.04040437448718197,0.5580998458935403,0.7703684747199914,1.1946000005094046,-0.021368529712372002,0.7235793584341301,0.6045312842886988,1.4540919577672933,-0.006348816108319713,-0.05813068253246969,0.7592610091355694,0.2378790530535346,1.4314379713830632,0.21311663000800427,-0.29478316590656584,1.7028251989497456,-0.8019255747449606,0.0,0.0
-0.06374191948062627,0.5515702427792523,0.7591103974002753,1.1875751006556068,-0.04099655125173777,0.7361447445208347,0.6149143116074569,1.4585784158020918,-0.006348816108319713,-0.05813068253246969,0.7592610091355694,0.2378790530535346,1.4221550276170085,0.2106725708337856,-0.2929545343690732,1.7003243154749654,0.842756947473722,-0.0,-0.0
-0.042021656812755825,0.5565767042698296,0.7701604127169099,1.195004250557367,-0.022614123826251966,0.7240612246474748,0.6063805645795812,1.4556653482828523,-0.006348816108319713,-0.05813068253246969,0.7592610091355694,0.2378790530535346,1.4305463817704263,0.21288888594163224,-0.2946438476492545,1.702850892704401,-0.8003786204565557,0.0,0.0
-0.06562882082291002,0.5502871153354041,0.7590322832428809,1.1880029799692258,-0.04257039346446087,0.7364856258828766,0.616497274874054,1.4599502382165324,-0.006348816108319713,-0.05813068253246969,0.7592610091355694,0.2378790530535346,1.4214301310970472,0.21048777622135303,-0.292844633907381,1.700367898938967,0.8287292715713198,-0.0,-0.0
