muneebpandith/TeleoperationWork/DATASET/TRANSORMER_DATA/training_data_for_transformer1686207867.736556.csv
J0,J1,J2,J3,J4,J5,J6,J7,J8,J9,J10,J11,J12,J13,J14,J15,ThetaXHG,ThetaYHG,ThetaZHG
0.03623058767327945,0.6532476248698382,0.6549206886844742,1.0875669293180346,-0.007329766900190482,0.7838899334569963,0.5053290385943608,1.311108992768628,0.0013529607519813776,0.037527352148602956,0.7341088359752052,0.2378790530535346,1.4875009606546061,0.2357071822863228,-0.2930572473538652,1.6628579304408966,-0.0014298042832464673,-0.0,-0.0
0.03707417045054442,0.6535845403709999,0.6553236835098633,1.0878026134248622,-0.006525989004039326,0.7835076316695508,0.5049562978714115,1.3108959458561034,0.0013529607519813776,0.037527352148602956,0.7341088359752052,0.2378790530535346,1.4878706305092153,0.23580222158523062,-0.2931204013348657,1.6628876399057888,-0.01258335277817761,-0.0,0.0
0.03821406444284676,0.6540418569878034,0.6558661008560177,1.0881184494678278,-0.005439802244838683,0.782992706990164,0.5044506400932932,1.3106052996817692,0.0013529607519813776,0.037527352148602956,0.7341088359752052,0.2378790530535346,1.4883702049156056,0.23593063315144241,-0.2932056522086802,1.6629271612740395,-0.022235565731495852,0.0,-0.0
0.0400190274699509,0.6547703948869207,0.6567204317432064,1.0886129303051013,-0.0037197119406964705,0.782180910916374,0.5036456975317993,1.3101391522847117,0.0013529607519813776,0.037527352148602956,0.7341088359752052,0.2378790530535346,1.4891613779103234,0.23613394375228983,-0.2933404583679195,1.6629884067632708,-0.049046655303731174,0.0,-0.0
0.042049261644445814,0.6555976878827691,0.6576732691590003,1.089159110362224,-0.0017846396985262095,0.781274151103865,0.5027327050567295,1.3096042585591985,0.0013529607519813776,0.037527352148602956,0.7341088359752052,0.2378790530535346,1.4900515163567214,0.2363625893715436,-0.29349176152811124,1.6630549186692865,-0.05827680008385849,-0.0,-0.0
0.04421919482960851,0.6564913036028344,0.6586819096650722,1.0897308498773919,0.0002839498723552806,0.7803126562165716,0.5017477657611855,1.3090198262715254,0.0013529607519813776,0.037527352148602956,0.7341088359752052,0.2378790530535346,1.4910031772306684,0.23660692150231835,-0.2936530824840752,1.6631231482277122,-0.06412218610048889,0.0,-0.0
0.046259515029054815,0.6573409706696849,0.6596204932686192,1.0902563749614562,0.0022293497155737915,0.7794163116141543,0.5008124855006784,1.3084574751740308,0.0013529607519813776,0.037527352148602956,0.7341088359752052,0.2378790530535346,1.4918982746971674,0.23683661383162502,-0.2938043730438548,1.663184428127356,-0.06772810423517624,-0.0,-0.0
0.04788772180317283,0.6580260807735863,0.660362136635131,1.0906667141244681,0.003782087451947377,0.7787068241055143,0.5000592321930092,1.3079990603591851,0.0013529607519813776,0.037527352148602956,0.7341088359752052,0.2378790530535346,1.4926127919541208,0.23701987859514656,-0.29392480981171737,1.6632311729010283,-0.07002765491422397,0.0,0.0
0.050357917032407905,0.659074017973246,0.6614783912774652,1.0912783231127778,0.006138125696574024,0.7776374939791098,0.4989081125834099,1.307291876688105,0.0013529607519813776,0.037527352148602956,0.7341088359752052,0.2378790530535346,1.4936970719974825,0.23729787519329607,-0.29410717058702507,1.663299477524705,-0.0757854866058993,0.0,-0.0
0.05280703150983512,0.6601258365448958,0.6625717122635214,1.0918682972181994,0.00847456947764125,0.7765879273442798,0.4977542686914833,1.3065730711748462,0.0013529607519813776,0.037527352148602956,0.7341088359752052,0.2378790530535346,1.4947725080390457,0.2375734416453517,-0.2942874387622078,1.6633632669391258,-0.07494470239322526,-0.0,-0.0
0.05518533384284684,0.6611595687377514,0.6636205103574806,1.0924254342070545,0.01074395448665275,0.7755789862381033,0.4966216984670655,1.3058579952285778,0.0013529607519813776,0.037527352148602956,0.7341088359752052,0.2378790530535346,1.4958172542149726,0.2378409868031007,-0.2944619794348376,1.6634214237412115,-0.07200247115232605,0.0,0.0
0.05754759555075538,0.6621981965844396,0.66464977814524,1.0929636175505721,0.012998514102286501,0.7745868002059029,0.49548510084895764,1.3051312414911946,0.0013529607519813776,0.037527352148602956,0.7341088359752052,0.2378790530535346,1.4968553543766185,0.2381066773896161,-0.2946348467799394,1.6634755320914711,-0.07162128677944347,-0.0,0.0
0.05953462106123241,0.6630817414117746,0.6655051401748913,1.0934036348678908,0.014895349196027037,0.77376056206132,0.49451929451943333,1.304506100369469,0.0013529607519813776,0.037527352148602956,0.7341088359752052,0.2378790530535346,1.4977288990051707,0.2383301236012213,-0.29477984102952753,1.663517988809023,-0.06585808182151925,0.0,-0.0
0.06128176304750612,0.6638659309384916,0.666249536496766,1.0937811669034574,0.016563488951232785,0.7730402628054881,0.4936628671045547,1.3039461701423432,0.0013529607519813776,0.037527352148602956,0.7341088359752052,0.2378790530535346,1.4984972444500504,0.23852656540549608,-0.2949070253442244,1.6635530576574658,-0.07761814371936156,0.0,-0.0
0.06524738197044597,0.6656604368280725,0.6679237718739447,1.0946194108787783,0.02035039166059044,0.771417738228164,0.49170455592350715,1.302654726028037,0.0013529607519813776,0.037527352148602956,0.7341088359752052,0.2378790530535346,1.5002417434497548,0.23897238816893357,-0.29519509619747497,1.6636281383426859,-0.08508971236979368,-0.0,-0.0
0.0679716116585498,0.6669158759808503,0.6690499164074333,1.0951661810342528,0.022952792048329666,0.7703225283610036,0.4903367810055646,1.3017354313513956,0.0013529607519813776,0.037527352148602956,0.7341088359752052,0.2378790530535346,1.501440986153242,0.23927856658267363,-0.2953920411387384,1.6636726656168423,-0.08568727985609582,-0.0,-0.0
0.07062771108757256,0.6681550779960629,0.6701318163680983,1.095679840644621,0.025490744652748566,0.7692677760210134,0.4889881303995692,1.3008175038813656,0.0013529607519813776,0.037527352148602956,0.7341088359752052,0.2378790530535346,1.5026108191379999,0.2395770345290343,-0.2955834268245694,1.663711351170602,-0.08351149239447064,0.0,0.0
0.07326312871689863,0.6693992736315199,0.6711897245674877,1.0961707216882888,0.028009553767612112,0.768233933168687,0.48763537581264355,1.2998857224806315,0.0013529607519813776,0.037527352148602956,0.7341088359752052,0.2378790530535346,1.5037721204577814,0.23987312929968577,-0.29577270997560867,1.6637451567041326,-0.08313721233129599,0.0,0.0
0.07572474128059146,0.6705749651117424,0.6721634253765117,1.0966118456015066,0.03036282430065393,0.7672800900990383,0.486358285069252,1.2989958509776904,0.0013529607519813776,0.037527352148602956,0.7341088359752052,0.2378790530535346,1.504857382070665,0.24014965328767066,-0.29594894321705567,1.6637724846269966,-0.08615139187159342,0.0,0.0
0.07760739229536308,0.6714838049397287,0.672897792897083,1.096936813805654,0.032163028654602355,0.7665590657086847,0.4853718709475404,1.2983012595571948,0.0013529607519813776,0.037527352148602956,0.7341088359752052,0.2378790530535346,1.5056877948107077,0.2403611104227103,-0.29608332272574417,1.6637903470152318,-0.08515427419777044,0.0,0.0
0.0803797195949278,0.6728330052908514,0.6739675631674008,1.0974013922349173,0.03481441590508862,0.7655068946523935,0.48390838699010125,1.2972625894898855,0.0013529607519813776,0.037527352148602956,0.7341088359752052,0.2378790530535346,1.5069110924494569,0.24067246331072406,-0.29628075048492786,1.6638132254400126,-0.08808584870826472,-0.0,-0.0
0.08335811999323553,0.6742996773659897,0.6750984306317388,1.0978784378322568,0.03766363030447836,0.7643917345369284,0.48231882006615895,1.2961215690820256,0.0013529607519813776,0.037527352148602956,0.7341088359752052,0.2378790530535346,1.5082260606839906,0.24100691156246085,-0.29649213413515096,1.663832380230362,-0.09682761792249259,-0.0,0.0
0.09289515665083246,0.6793285167587504,0.6789968148268106,1.0995304896663447,0.04704551684848886,0.7607748689589249,0.47702491163938104,1.2922761499333284,0.0013529607519813776,0.037527352148602956,0.7341088359752052,0.2378790530535346,1.5125574428212678,0.24210771097462563,-0.2971854395779063,1.6638762252205832,-0.09328213892737394,-0.0,-0.0
0.09531113505949729,0.6806531337968321,0.6799300767136989,1.0998840174720772,0.04942430419439579,0.7599042273393835,0.4756326905975093,1.2912269069348816,0.0013529607519813776,0.037527352148602956,0.7341088359752052,0.2378790530535346,1.5136569362925028,0.24238643235490048,-0.2973589406670268,1.6638712685456356,-0.11027515170084784,0.0,0.0
0.09711133227439107,0.6816218432252149,0.6805821325399761,1.10011626185726,0.05125752275276663,0.7592656383559211,0.4745789372277749,1.2904233605560012,0.0013529607519813776,0.037527352148602956,0.7341088359752052,0.2378790530535346,1.5144788564245226,0.2425946524230727,-0.29748816672420303,1.663864512591427,-0.0968739164627958,0.0,0.0
0.09949102221852987,0.6829114819194056,0.6814342211913327,1.1004115692630017,0.05368125863942445,0.7584304708083455,0.47317599250744924,1.2893463648894639,0.0013529607519813776,0.037527352148602956,0.7341088359752052,0.2378790530535346,1.5155658133861725,0.24286987973944388,-0.29765859435217296,1.6638525627929677,-0.12113726194020573,0.0,0.0
0.10126008675521087,0.6838791330196194,0.6820579573547665,1.1006196098275396,0.055483454634131714,0.7578184724593415,0.47212322028178005,1.2885311438434706,0.0013529607519813776,0.037527352148602956,0.7341088359752052,0.2378790530535346,1.516374313154198,0.24307446542241734,-0.29778490024097526,1.6638407086580445,-0.09587918009892313,0.0,0.0
0.1035722032411702,0.6851524970158472,0.6828637194367334,1.1008803518776082,0.057839248938284515,0.7570272594585745,0.4707377219505656,1.2874514495062634,0.0013529607519813776,0.037527352148602956,0.7341088359752052,0.2378790530535346,1.5174314481701656,0.24334183605719162,-0.2979495992733551,1.6638223252228816,-0.12903827819229474,-0.0,0.0
0.1052271212650868,0.6860720249735134,0.683431606566546,1.1010565421572398,0.05952578110129935,0.7564690668255061,0.4697370896238297,1.2866652935533252,0.0013529607519813776,0.037527352148602956,0.7341088359752052,0.2378790530535346,1.518188527423328,0.24353319386784858,-0.2980671292419102,1.6638064596375786,-0.08521816295321022,-0.0,0.0
0.107316176150561,0.687240093377259,0.6841404675636116,1.101269523975381,0.061655060364264935,0.7557718146727516,0.4684658627758286,1.2856607898110672,0.0013529607519813776,0.037527352148602956,0.7341088359752052,0.2378790530535346,1.5191446027536184,0.24377473812225792,-0.298215170371527,1.6637839821864449,-0.11860244736967375,-0.0,0.0
0.1078065418680149,0.6875164425877042,0.6843044857295648,1.1013167240402961,0.06215496178300718,0.7556103405304706,0.4681650644168882,1.2854213996269275,0.0013529607519813776,0.037527352148602956,0.7341088359752052,0.2378790530535346,1.5193691402037894,0.2438314324469056,-0.2982498251411359,1.6637779792060743,-0.0433971794931094,0.0,0.0
0.1099072391151547,0.6887024847754925,0.6850047409753839,1.1015161178201294,0.06429660350830915,0.7549208064240183,0.4668740440801582,1.2843922335112077,0.0013529607519813776,0.037527352148602956,0.7341088359752052,0.2378790530535346,1.5203311644155646,0.24407430419305193,-0.29839818852726196,1.663751531089915,-0.11931595631981416,-0.0,0.0
0.10968760829900923,0.6885775069851418,0.6849325990440935,1.1014965287775311,0.06407264972190505,0.7549919054400009,0.46701010588186487,1.284501464818431,0.0013529607519813776,0.037527352148602956,0.7341088359752052,0.2378790530535346,1.5202305298109293,0.24404891308740023,-0.29838271976870817,1.663754624247466,-0.014099241895095444,0.0,0.0
0.11270626273139304,0.6903419984654037,0.6859798553651416,1.1017976461295753,0.06714238316867872,0.754064093894247,0.4652101091358807,1.2830512257143556,0.0013529607519813776,0.037527352148602956,0.7341088359752052,0.2378790530535346,1.521609877051034,0.2443969576183047,-0.2985948154912991,1.6637126960107391,-0.14802775651085498,0.0,0.0
0.11058862306649406,0.6890564055017254,0.6852228310716459,1.101583618692675,0.06492002510721305,0.754721903278053,0.46652788725038113,1.2841234020424797,0.0013529607519813776,0.037527352148602956,0.7341088359752052,0.2378790530535346,1.5206107839841347,0.24414507542846545,-0.2984419181122122,1.6637477126557574,0.043739477601107704,-0.0,0.0
0.11371292227565055,0.6908885714309585,0.6863002505449226,1.101887646948659,0.06809747749758399,0.7537669906081675,0.4646589568518628,1.282613533413112,0.0013529607519813776,0.037527352148602956,0.7341088359752052,0.2378790530535346,1.5220387172846737,0.2445052956422586,-0.2986611981057166,1.6637024762816628,-0.1664704354665265,-0.0,0.0
0.1091080193744867,0.6881567960361897,0.6847466071591168,1.1014799170524618,0.06341291776840202,0.7551444851210177,0.4674463364887677,1.2848882020729888,0.0013529607519813776,0.037527352148602956,0.7341088359752052,0.2378790530535346,1.5199323882457065,0.243974407535528,-0.2983393311543337,1.6637793457437973,0.22420293245121717,-0.0,0.0
0.11365115110799542,0.6908783260814589,0.686410564083034,1.1019860120898768,0.06817921745660463,0.7536974280887282,0.46465833963538233,1.2826468700269589,0.0013529607519813776,0.037527352148602956,0.7341088359752052,0.2378790530535346,1.5220737607520494,0.24451483284558534,-0.2986689385929149,1.6637164058348655,-0.23812640366801055,-0.0,0.0
0.10219445193584957,0.6838982712821529,0.6823420821503084,1.1008601703142133,0.0561550645712576,0.7572313300860511,0.47181483599130136,1.2884881700961457,0.0013529607519813776,0.037527352148602956,0.7341088359752052,0.2378790530535346,1.516667420813128,0.24315221796712605,-0.2978428951601983,1.663914348939188,0.4420351315092771,-0.0,0.0
0.10808614060122267,0.6873358239621271,0.6845995202514246,1.101634117479322,0.062332519109098046,0.755265068855995,0.4682977501617653,1.2857290492193467,0.0013529607519813776,0.037527352148602956,0.7341088359752052,0.2378790530535346,1.519439275559095,0.2438531713485685,-0.2982743240831768,1.663863395710806,-0.3222775692626132,0.0,0.0
0.09185843587185341,0.6776522682488004,0.6786151729152515,1.099778841884532,0.04530900542825553,0.7604720154149351,0.4782150358336263,1.2936716608979417,0.0013529607519813776,0.037527352148602956,0.7341088359752052,0.2378790530535346,1.5117935841617702,0.24192296804593308,-0.2970954597182791,1.6640754262515718,0.6446305291667795,0.0,0.0
0.10195842526595351,0.6833091015554553,0.682738760032331,1.1014072104962451,0.05588936712705386,0.7568752914732054,0.4724369265326411,1.2893141742175183,0.0013529607519813776,0.037527352148602956,0.7341088359752052,0.2378790530535346,1.51653255764685,0.24312492839889013,-0.297845195541383,1.6640662287899224,-0.45085466334141616,-0.0,0.0
0.08388911196666238,0.672776429956114,0.6758045807504331,1.0990223470316611,0.03694370793346187,0.7629186003872511,0.48321060960494755,1.2977535745406976,0.0013529607519813776,0.037527352148602956,0.7341088359752052,0.2378790530535346,1.5080346777669769,0.24097566996888903,-0.29652188226940207,1.664218631993336,0.7134029200075961,0.0,-0.0
0.09514199020869583,0.6788754321578226,0.6806155387413987,1.101095529021682,0.048723514331892225,0.7587198511958096,0.4769881334404583,1.2932150928488932,0.0013529607519813776,0.037527352148602956,0.7341088359752052,0.2378790530535346,1.5133034551182603,0.24231504137353482,-0.2973657986418805,1.6642752321463854,-0.5735336287923143,0.0,0.0
0.07635593163106584,0.6682144010096224,0.6730948271438877,1.0982473222928086,0.02903786625276928,0.76528303892101,0.4878792898030936,1.301526850482465,0.0013529607519813776,0.037527352148602956,0.7341088359752052,0.2378790530535346,1.5044860736392134,0.24008050153092547,-0.2959777475499902,1.6643373816119655,0.7448600490407803,0.0,0.0
0.09113003307274627,0.6759685215531548,0.6796787783471452,1.1012907151286446,0.044493306027410244,0.7595361747690361,0.47997580547977753,1.2959561259087204,0.0013529607519813776,0.037527352148602956,0.7341088359752052,0.2378790530535346,1.5113899869385086,0.24183925840394338,-0.29709633946137415,1.6644942454159142,-0.6416160859533532,0.0,0.0
0.07318023102022969,0.6662179694246274,0.6726488823618573,1.0985542902210828,0.026268339320421767,0.7657677669029958,0.48989227947133196,1.303399566858841,0.0013529607519813776,0.037527352148602956,0.7341088359752052,0.2378790530535346,1.5032352860330698,0.23977014537914182,-0.2958044018495823,1.66449916415295,0.7620969466379585,0.0,0.0
0.08782007166922373,0.6738050533958801,0.6792751346562067,1.1016912466996878,0.04157835793872254,0.7599916902316707,0.4821542984918987,1.2980167446591022,0.0013529607519813776,0.037527352148602956,0.7341088359752052,0.2378790530535346,1.5100694042205567,0.24151248920558302,-0.29691613886463286,1.6646832358947268,-0.6620667718769234,0.0,0.0
0.06811774828166639,0.6629387806091888,0.671050636232681,1.0983068135824143,0.020946823997966452,0.7671673127637139,0.4932500845330881,1.306246373928478,0.0013529607519813776,0.037527352148602956,0.7341088359752052,0.2378790530535346,1.500845201223872,0.23917002056912806,-0.2954483626643536,1.664647793255713,0.7788934081239363,0.0,0.0
0.08344691037686577,0.6707061432442056,0.678173974271321,1.101814464303084,0.036970365070514724,0.7609575008637149,0.48533326967225265,1.300879214691163,0.0013529607519813776,0.037527352148602956,0.7341088359752052,0.2378790530535346,1.50799064863593,0.24099435384254286,-0.2966196097198923,1.6648978723082366,-0.6880292457514131,-0.0,0.0
0.06592748319142905,0.66121742161365,0.6706763312058583,1.0985859480491966,0.018631717095086438,0.767503438251571,0.49501440571411376,1.3079225685210556,0.0013529607519813776,0.037527352148602956,0.7341088359752052,0.2378790530535346,1.4998003168941048,0.23891172772645364,-0.2953074426135442,1.6648090504782778,0.7719508376619788,-0.0,0.0
0.0817184155131296,0.6691400784480611,0.6780961329669505,1.1022971666874883,0.03513463888702268,0.7610335248065859,0.48694269716149247,1.3025161481581804,0.0013529607519813776,0.037527352148602956,0.7341088359752052,0.2378790530535346,1.5071548079492443,0.24079067132981954,-0.2965169375564957,1.6650923118184617,-0.700147981419602,-0.0,0.0
0.06411792613906603,0.6596764507148821,0.6704908486459544,1.09896807283191,0.016713945734985903,0.7676771660802172,0.4965935261460179,1.3094790688833609,0.0013529607519813776,0.037527352148602956,0.7341088359752052,0.2378790530535346,1.4989332476424322,0.2386989323114291,-0.29519616598235476,1.6649800665265166,0.7729194559433349,0.0,0.0
0.07530587260954084,0.6652437154859394,0.6757955127276621,1.1016543192622597,0.028404385060247714,0.7630502646731903,0.49092381742408,1.3057208227037163,0.0013529607519813776,0.037527352148602956,0.7341088359752052,0.2378790530535346,1.50413987808723,0.2400298791952705,-0.29605476641879386,1.6651957785099947,-0.7040667838174575,0.0,0.0
0.055719817128605555,0.6549974071626734,0.6670318614862853,1.0975886291845653,0.007917481658572388,0.7707060264964093,0.5013643462341817,1.313034308938332,0.0013529607519813776,0.037527352148602956,0.7341088359752052,0.2378790530535346,1.4950061274988586,0.23770188460983854,-0.2945731557228459,1.6649781844384264,0.7735547871925265,0.0,0.0
0.07001632629196078,0.6618363367430177,0.6740952600953892,1.1013690191663086,0.022844271086848313,0.764551441105272,0.4944026662227369,1.3086345506271124,0.0013529607519813776,0.037527352148602956,0.7341088359752052,0.2378790530535346,1.5016468201299662,0.23940322180693496,-0.2956816969167122,1.6653414781365456,-0.7060095044698057,0.0,0.0
0.05034981329866163,0.651784394173534,0.6650479178265323,1.096988570922715,0.002283268368732237,0.7724552214173179,0.5046379306025498,1.3156180335697414,0.0013529607519813776,0.037527352148602956,0.7341088359752052,0.2378790530535346,1.4924894333043657,0.23706570848928019,-0.29418442611551454,1.665046334551215,0.7736867875499537,-0.0,-0.0
0.06627565073984477,0.6592063861701829,0.6731180180740641,1.1014464824923864,0.01890258587538622,0.7654277924547658,0.49708503793342435,1.311003368268214,0.0013529607519813776,0.037527352148602956,0.7341088359752052,0.2378790530535346,1.4998768549076573,0.2389611011441147,-0.2954271858380348,1.6655133122049113,-0.706392368408819,-0.0,-0.0
0.04857327109216161,0.6503089340786862,0.6648173548731747,1.0973149531309239,0.00040162287812525385,0.7726800943497202,0.506139485377612,1.3170591073193796,0.0013529607519813776,0.037527352148602956,0.7341088359752052,0.2378790530535346,1.491644120192447,0.23685734112878262,-0.29407356829179854,1.6651988766291514,0.7744049257361252,0.0,0.0
0.06442844355901098,0.6576338813392529,0.6729170381297652,1.1018319065963194,0.016944206588649473,0.7656262057445483,0.4986877873212442,1.312562473732058,0.0013529607519813776,0.037527352148602956,0.7341088359752052,0.2378790530535346,1.4989933351255662,0.23874393184083553,-0.29531307843392623,1.6656843318707508,-0.7067159294389161,0.0,-0.0
0.044808876835855514,0.6478550568348624,0.6636321136149518,1.097151327453246,-0.003556698304164479,0.7737405486098649,0.5086349279777316,1.319145063076381,0.0013529607519813776,0.037527352148602956,0.7341088359752052,0.2378790530535346,1.4898762399801826,0.23641286089205202,-0.2938098993931319,1.66530905248373,0.7741940686199262,0.0,0.0
0.060672171134485336,0.6550467659795918,0.6718756180063314,1.1018414693460428,0.012988129399588138,0.7665640634481943,0.5013207802336672,1.3148460663641635,0.0013529607519813776,0.037527352148602956,0.7341088359752052,0.2378790530535346,1.4972211592254365,0.23830029584377274,-0.2950553363434133,1.6658380656375051,-0.706177891039057,0.0,0.0
0.042775436588456006,0.6462796134029368,0.6632475970270518,1.0973806260920118,-0.005705718544801019,0.7741038948591205,0.5102341994567623,1.320619753982161,0.0013529607519813776,0.037527352148602956,0.7341088359752052,0.2378790530535346,1.4889145608429388,0.2361741830518232,-0.2936782112614457,1.6654465407169288,0.7738810812491309,0.0,0.0
0.058652103065810715,0.6534037191923754,0.6715727658162768,1.102165490430905,0.01084954601624423,0.7668565527402302,0.5029908777533626,1.3164268394521894,0.0013529607519813776,0.037527352148602956,0.7341088359752052,0.2378790530535346,1.4962600404627682,0.23806287003657614,-0.2949273443327465,1.665999379140781,-0.7066368738794467,-0.0,-0.0
0.0389889879025972,0.6438614263682734,0.6620002290774413,1.09715294739382,-0.009685149713121247,0.7752229748855605,0.5126884145427747,1.322631504352183,0.0013529607519813776,0.037527352148602956,0.7341088359752052,0.2378790530535346,1.4871410422131826,0.23572740605411008,-0.2934110349510012,1.665540096905083,0.7737189376898692,-0.0,-0.0
0.055447493545836626,0.6508844458940621,0.6704468853405315,1.1020813253997233,0.006942917403975228,0.767822163376029,0.5055529134251472,1.318618530028009,0.0013529607519813776,0.037527352148602956,0.7341088359752052,0.2378790530535346,1.4945138036837633,0.23762504635397058,-0.29467148447448693,1.6661391584584968,-0.7085448046079096,0.0,-0.0
0.037599518576023616,0.642611850074531,0.6619619565333933,1.0975719334151148,-0.011117511406202176,0.7753132776420608,0.5139327224380369,1.3238596278746384,0.0013529607519813776,0.037527352148602956,0.7341088359752052,0.2378790530535346,1.4864998595895251,0.23557045888519695,-0.29333174978806326,1.6656883640971105,0.7542864945195876,-0.0,-0.0
0.0540391804726009,0.6497946958362949,0.670778506357308,1.1027663232424507,0.006015259127692924,0.7676421566659668,0.5066326781701576,1.319800325069885,0.0013529607519813776,0.037527352148602956,0.7341088359752052,0.2378790530535346,1.4940927048518262,0.237525544203375,-0.2946322857558174,1.6663216463014325,-0.7305374984685303,-0.0,-0.0
0.03623616165617365,0.6413406336837668,0.6619208323816572,1.0979985627479072,-0.01256775877854395,0.7753838911195818,0.5152177012215395,1.3251366258528772,0.0013529607519813776,0.037527352148602956,0.7341088359752052,0.2378790530535346,1.4858510195922048,0.23541192764158853,-0.2932527129698053,1.6658464716572468,0.7169049032463152,-0.0,-0.0
0.05053540819130309,0.6473553032997869,0.6693470459123209,1.1023859430705027,0.001874123603635966,0.7688787061748314,0.5091085745359324,1.3217792294469102,0.0013529607519813776,0.037527352148602956,0.7341088359752052,0.2378790530535346,1.4922480660602195,0.23705979087283227,-0.29435052044347243,1.6663939392277343,-0.6862406277146735,-0.0,-0.0
0.037512723810598156,0.6412820266200792,0.6627550110054247,1.098760052521545,-0.011714281434958377,0.7746441204523166,0.5152676960830769,1.3255116920550531,0.0013529607519813776,0.037527352148602956,0.7341088359752052,0.2378790530535346,1.4862255279597554,0.23551363572728204,-0.29333672917065995,1.666009216034185,0.7267505311927256,-0.0,-0.0
0.051900435848374754,0.6473692569888722,0.6701900981603518,1.1031279653419015,0.0028183444417239217,0.7681196556446664,0.5090944131666854,1.3220991428803128,0.0013529607519813776,0.037527352148602956,0.7341088359752052,0.2378790530535346,1.4926612057501538,0.2371712008052557,-0.2944399092107284,1.6665516997029959,-0.6888307754959427,-0.0,-0.0
0.03840620891672526,0.6410403958727862,0.6633969022328591,1.099417585005714,-0.011263730572179751,0.7740711952735692,0.5155046248252434,1.3260039245496766,0.0013529607519813776,0.037527352148602956,0.7341088359752052,0.2378790530535346,1.4864212355658561,0.2355695074624128,-0.2933908473971782,1.666161906030786,0.7550753871061585,0.0,0.0
0.05346679499293307,0.6476357985408495,0.671455595094554,1.1041505398316285,0.00443183644852381,0.7670365283385306,0.508822800562256,1.3223000311609387,0.0013529607519813776,0.037527352148602956,0.7341088359752052,0.2378790530535346,1.493370036443914,0.2373591336315749,-0.29458126455673045,1.6667429069747102,-0.6710998881245803,0.0,0.0
0.03322132284972925,0.6380673163762242,0.6613392123775882,1.0986789459548203,-0.016698524528769645,0.7759062088620244,0.5185118363079635,1.3282555034602845,0.0013529607519813776,0.037527352148602956,0.7341088359752052,0.2378790530535346,1.484008816934518,0.23495706563277768,-0.2930108711300049,1.666180748183547,0.7970474162936904,0.0,0.0
0.042748760034131916,0.6421257962634523,0.6665519055960798,1.1018152478883059,-0.0067747943972202,0.771360931320814,0.514400449926801,1.3260725285109323,0.0013529607519813776,0.037527352148602956,0.7341088359752052,0.2378790530535346,1.4883992621597548,0.23608931877670494,-0.29376840292713313,1.6665836747438294,-0.48264186084930566,0.0,0.0
0.02291379053025805,0.633238609987623,0.6561431848846077,1.0958404672758202,-0.02745449153811081,0.7804643876263502,0.5233975756695004,1.3312168488214624,0.0013529607519813776,0.037527352148602956,0.7341088359752052,0.2378790530535346,1.479247137055561,0.23373447999448688,-0.2922098460358899,1.665880157766743,0.776099492456781,0.0,-0.0
0.03671500492659474,0.6387862644337664,0.6640263519781794,1.1008006840464837,-0.013094643723786704,0.7736120786762856,0.5177726134020115,1.3285054145480588,0.0013529607519813776,0.037527352148602956,0.7341088359752052,0.2378790530535346,1.4855962480028502,0.23537596244695685,-0.29332076815419883,1.6665654960586151,-0.6174750950669553,-0.0,-0.0
0.018216391600865738,0.6307545011207893,0.654059241669394,1.0949069347938645,-0.0323688827403249,0.7823175643184148,0.5259027810008996,1.332941428194792,0.0013529607519813776,0.037527352148602956,0.7341088359752052,0.2378790530535346,1.4770722537745213,0.23317933780221142,-0.2918570088815238,1.6658294350359233,0.7203703797647755,-0.0,-0.0
0.03270018790417268,0.6364179628604012,0.6624898824775871,1.1003105258725037,-0.017306576411095106,0.7749989062933508,0.520158294097555,1.3303117266428348,0.0013529607519813776,0.037527352148602956,0.7341088359752052,0.2378790530535346,1.4837289130844529,0.23490233830844406,-0.2930291079625493,1.6665970932661693,-0.7149706277355994,-0.0,-0.0
0.01519155675264688,0.6292064191228861,0.6532465435311472,1.094758532574258,-0.034980935860170884,0.7831161066712852,0.5274573652650827,1.3341605307743052,0.0013529607519813776,0.037527352148602956,0.7341088359752052,0.2378790530535346,1.4759168701582581,0.23288708343757464,-0.29168019767294145,1.6658731846076515,0.6813826188570747,-0.0,-0.0
0.028421370391499216,0.6342953618270339,0.6610316783505412,1.0997989843512501,-0.021227014168483306,0.7763696129238347,0.5222874015608657,1.331863723380896,0.0013529607519813776,0.037527352148602956,0.7341088359752052,0.2378790530535346,1.4819929445954507,0.23446081355757334,-0.2927536157789193,1.666597651558981,-0.6540360241680898,0.0,0.0
0.014503744419592879,0.6285095878698428,0.6532735924806308,1.0950437809512323,-0.03571537607477125,0.7831254022547013,0.5281515903190261,1.3348527294418688,0.0013529607519813776,0.037527352148602956,0.7341088359752052,0.2378790530535346,1.4755920506854143,0.23280801291930533,-0.29164272787983925,1.6659668997045294,0.7777390714726339,0.0,0.0
0.02721825449001225,0.6333806665010108,0.6607746321454852,1.0999112060449103,-0.02249842732540555,0.7766249487515783,0.5232038405523453,1.3326745806802949,0.0013529607519813776,0.037527352148602956,0.7341088359752052,0.2378790530535346,1.481429279503468,0.2343201950340629,-0.2926748855608491,1.6666692336014983,-0.5740439141630057,0.0,0.0
0.009159090650070423,0.6259228010007847,0.6506585703060722,1.0936802671062311,-0.04129544956499523,0.7854329559905453,0.5307617260947589,1.336481496283305,0.0013529607519813776,0.037527352148602956,0.7341088359752052,0.2378790530535346,1.4731273112198031,0.2321757944767608,-0.29123170944598287,1.6658353881981485,0.7862716651033728,0.0,0.0
0.018763165940526426,0.6294817335326289,0.6564435257869211,1.09750774401579,-0.03131770082112963,0.7804281655770009,0.5271436868974223,1.3349966601107843,0.0013529607519813776,0.037527352148602956,0.7341088359752052,0.2378790530535346,1.477532420097961,0.23331843701196073,-0.2920161615786266,1.6664023296286978,-0.6125534579741274,0.0,-0.0
-0.0015218050992252923,0.621759218788712,0.6450990859250634,1.0902820263309674,-0.051764370826010125,0.7903278046510287,0.5349868186147825,1.3386191064326882,0.0013529607519813776,0.037527352148602956,0.7341088359752052,0.2378790530535346,1.4685059478499178,0.23098215737037087,-0.29042912222576955,1.6653762345905407,0.7626294516786734,-0.0,-0.0
0.012974995088267917,0.6267748101906069,0.6541829771417955,1.0965083953980712,-0.036720099805539495,0.7825084861865492,0.5298638803690305,1.3368274330798822,0.0013529607519813776,0.037527352148602956,0.7341088359752052,0.2378790530535346,1.4751466488314304,0.23270867062012915,-0.2916273818307686,1.6663356063551042,-0.6914388264028101,-0.0,-0.0
-0.000752960140151927,0.6215509247003679,0.6460487098991293,1.0912130599894565,-0.05098758876507353,0.7895519370070705,0.5351748831344906,1.3391333167434878,0.0013529607519813776,0.037527352148602956,0.7341088359752052,0.2378790530535346,1.4688510072914267,0.23107713387255283,-0.2905128591095973,1.6655689686803197,0.7661517596068849,0.0,0.0
0.014871257713449099,0.6269870987356198,0.6558085009719286,1.0978828349964904,-0.03477257438423986,0.7811456404333585,0.5296263409513813,1.3371679701053147,0.0013529607519813776,0.037527352148602956,0.7341088359752052,0.2378790530535346,1.4760062312815856,0.2329371990274057,-0.29180262634839993,1.6665940466171807,-0.6952309807497171,0.0,0.0
-0.004983395265150388,0.6193413823034639,0.6441343906476233,1.0903413915728732,-0.055410800683594344,0.7912647318473691,0.5373931965004947,1.3406150642934789,0.0013529607519813776,0.037527352148602956,0.7341088359752052,0.2378790530535346,1.46690236332266,0.2305787846861794,-0.2901950294716331,1.6655123321040832,0.7782266690432361,0.0,0.0
0.0076729741247800465,0.6236186212543647,0.6521631702483024,1.0959011866489425,-0.04228236821248808,0.7843584481687275,0.5330232396789034,1.3391889213206596,0.0013529607519813776,0.037527352148602956,0.7341088359752052,0.2378790530535346,1.4726935115464774,0.23208577003952388,-0.29124463389863786,1.6663803865897058,-0.6286737302431357,0.0,0.0
-0.012383821464670416,0.6164777133478446,0.6404550048524583,1.0881404522888252,-0.062474125838760386,0.7945232351227539,0.5403036818013337,1.3421288418141497,0.0013529607519813776,0.037527352148602956,0.7341088359752052,0.2378790530535346,1.4637900434246869,0.22977532846325496,-0.2896574312519728,1.6652221836368097,0.7798978537000713,0.0,0.0
0.003994739613497278,0.6215487046307636,0.6507640219652951,1.095438955074961,-0.04601934807949608,0.7856679555763374,0.5350723714018522,1.340669090754983,0.0013529607519813776,0.037527352148602956,0.7341088359752052,0.2378790530535346,1.4710474728660787,0.23166677956573659,-0.29098432974326344,1.6663872009036051,-0.6788945375912601,0.0,-0.0
-0.013921492580361655,0.615535528273769,0.6405372533546533,1.088577648214647,-0.06409669294890295,0.7952336242855442,0.541762973186373,1.3432718094428222,0.0013529607519813776,0.037527352148602956,0.7341088359752052,0.2378790530535346,1.4630796951234122,0.2295973252029157,-0.2895573172226552,1.6653062327846329,0.770240842298171,0.0,0.0
-0.002159831360757227,0.6190101212063044,0.6477178307785963,1.0936808535793296,-0.052250967076945876,0.7885858711328766,0.5378440640087443,1.3421868112632787,0.0013529607519813776,0.037527352148602956,0.7341088359752052,0.2378790530535346,1.4683024734173822,0.23095904398740044,-0.2905140519422144,1.6661571700327484,-0.6980612413266392,-0.0,-0.0
-0.01601564153798235,0.6145487050698605,0.63962189027391,1.0881368972922787,-0.06622230829779689,0.7961340693278328,0.5428265646879541,1.3439443867862213,0.0013529607519813776,0.037527352148602956,0.7341088359752052,0.2378790530535346,1.462145713333958,0.22935775377264667,-0.2894027860919339,1.6652642928765589,0.7715942328644112,0.0,-0.0
-0.000876079621618283,0.6189505346813221,0.648933532942471,1.0947938277019462,-0.05097811054935113,0.7875221358126254,0.5378537742923638,1.3426422358709682,0.0013529607519813776,0.037527352148602956,0.7341088359752052,0.2378790530535346,1.4688659447489254,0.2311107281249141,-0.2906370149102473,1.6663806143141329,-0.7024648559121283,-0.0,-0.0
-0.020621448782210144,0.6125340589482633,0.6374551455365148,1.0869703608945787,-0.07089014224956054,0.798235244110375,0.545010114537325,1.3452186898647314,0.0013529607519813776,0.037527352148602956,0.7341088359752052,0.2378790530535346,1.4600942407062865,0.22882983416185265,-0.2890563757738328,1.66512562699697,0.7727657100462579,-0.0,-0.0
-0.0035352981551693037,0.6173254722797892,0.648135646104129,1.0947038252826362,-0.05369465249120943,0.7883803543887138,0.5395755577983841,1.3439821638705969,0.0013529607519813776,0.037527352148602956,0.7341088359752052,0.2378790530535346,1.4676731457144507,0.23080881058955316,-0.2904562177337511,1.666437706105282,-0.7110827991629813,-0.0,-0.0
-0.02307757923993728,0.6110880760136457,0.6366646020877688,1.0868216199267102,-0.07339567567410253,0.7986915485203625,0.5462023831039244,1.3462020291448573,0.0013529607519813776,0.037527352148602956,0.7341088359752052,0.2378790530535346,1.4589980533107556,0.22855157110669386,-0.2888878115697967,1.6651614976194418,0.7471275753437573,-0.0,-0.0
-0.004912126401450414,0.6160838886049397,0.6481144220952282,1.0951643677368519,-0.055119588148346776,0.7885138392369839,0.5408176636981026,1.3451489017993954,0.0013529607519813776,0.037527352148602956,0.7341088359752052,0.2378790530535346,1.4670505772997633,0.2306554349706595,-0.2903795492139793,1.666585568522823,-0.7340319022860053,-0.0,-0.0
-0.02128858945375315,0.6109045951132378,0.6384556463146438,1.0885023314419848,-0.07162565305289614,0.7971934377124548,0.5463206665082533,1.3469407220949097,0.0013529607519813776,0.037527352148602956,0.7341088359752052,0.2378790530535346,1.4597856400109184,0.22876439925557845,-0.28906388677868083,1.665501642700359,0.6698136569252731,-0.0,-0.0
-0.0048819743309291355,0.6154870222234009,0.6487271284442365,1.0959446359329608,-0.05511708723324292,0.7880496359434619,0.5413936154494235,1.3459090734170398,0.0013529607519813776,0.037527352148602956,0.7341088359752052,0.2378790530535346,1.4670556080220967,0.23066324781870629,-0.29040757464798406,1.666767337868438,-0.6651348135560887,-0.0,0.0
-0.02358192963023852,0.609128722105478,0.636906639622339,1.0878011621887174,-0.0745094486503841,0.798247199841627,0.5478594183277657,1.3480124183288666,0.0013529607519813776,0.037527352148602956,0.7341088359752052,0.2378790530535346,1.4585234953078727,0.22844224070675367,-0.288862553048056,1.665494769718205,0.7489682460976249,0.0,0.0
-0.012069570483726175,0.6122698994679818,0.644182794939217,1.0931140132585047,-0.06292993170524891,0.7915446695672635,0.544281927508177,1.3472917406577578,0.0013529607519813776,0.037527352148602956,0.7341088359752052,0.2378790530535346,1.463621446338004,0.22977464374087575,-0.2898080273112484,1.6664042291943688,-0.5259747672610541,0.0,0.0
-0.032841744441721096,0.606057595255214,0.6315867924135706,1.0842198034776378,-0.08384781240451966,0.802816211796658,0.5509193400451667,1.349113452294715,0.0013529607519813776,0.037527352148602956,0.7341088359752052,0.2378790530535346,1.4544187354126554,0.22737504564552988,-0.2881254782354986,1.6649236908141023,0.784635552872215,0.0,0.0
-0.02127892429920943,0.6089680267311088,0.6391315889432747,1.0898645075432398,-0.07222926513391813,0.7961458025147617,0.5477493402689563,1.3487771242539883,0.0013529607519813776,0.037527352148602956,0.7341088359752052,0.2378790530535346,1.4595351929239564,0.22871485081249635,-0.28908518428879226,1.6659086083020445,-0.4764234535611069,0.0,-0.0
-0.040493975967883164,0.6036197590542033,0.627091327558902,1.0811353091850306,-0.0915596493102396,0.8072528859385527,0.5538247333682588,1.350112708827051,0.0013529607519813776,0.037527352148602956,0.7341088359752052,0.2378790530535346,1.451030192447629,0.226492834966899,-0.28751244119301916,1.6644213283841571,0.7386207263522596,-0.0,-0.0
-0.023663767691111705,0.6073995289653447,0.6380156601026136,1.0894781424823068,-0.07566436773726176,0.7973315912110867,0.5493042141369987,1.3498043984253574,0.0013529607519813776,0.037527352148602956,0.7341088359752052,0.2378790530535346,1.4582508360323483,0.2283865906758365,-0.28887946363649936,1.6658955581890826,-0.7019566019035477,-0.0,-0.0
-0.040220880233549715,0.6030537003890666,0.6278798619916189,1.082071101386839,-0.09132587240041952,0.8069895644494568,0.554586249886593,1.3509613063398265,0.0013529607519813776,0.037527352148602956,0.7341088359752052,0.2378790530535346,1.4511461010555557,0.2265291864804356,-0.2875610753391101,1.6646220701326784,0.6809752355407787,-0.0,-0.0
-0.022614700210856077,0.6068422757704556,0.6389060129823271,1.0904974116871888,-0.07465494295709979,0.7962299918473908,0.5495678436847016,1.3505173790922158,0.0013529607519813776,0.037527352148602956,0.7341088359752052,0.2378790530535346,1.4587161783375433,0.22851460121417116,-0.2889936617235602,1.6661643135795348,-0.663863767836697,-0.0,0.0
-0.039596167081246025,0.6025372214560321,0.6289086272094946,1.0832013387532409,-0.09076071779117698,0.806131855790356,0.5550378860062298,1.3517549748305124,0.0013529607519813776,0.037527352148602956,0.7341088359752052,0.2378790530535346,1.4514132078982702,0.2266056600005172,-0.28764035412208544,1.664867250473701,0.7556414725718316,0.0,0.0
-0.023462520809210546,0.6060345200152976,0.638986545477598,1.090887128939733,-0.07548404283319764,0.7962884552105896,0.550417934270203,1.3513225876743291,0.0013529607519813776,0.037527352148602956,0.7341088359752052,0.2378790530535346,1.4583470520253592,0.2284241084068864,-0.28895144083466795,1.666273180859307,-0.6056864071345239,0.0,0.0
-0.04340992591276853,0.6010107017147366,0.6272115369104668,1.0822778769041572,-0.09440034011509049,0.8079470308814153,0.5568073170128512,1.3527275346221455,0.0013529607519813776,0.037527352148602956,0.7341088359752052,0.2378790530535346,1.4497724096587803,0.2261822551530423,-0.2873609744170969,1.6647396750723258,0.8023496214062179,0.0,0.0
-0.028679404794267123,0.6040838531807998,0.6365286513642567,1.0894453312625196,-0.08045801465628173,0.7988714675962232,0.5527078713025604,1.3524858036385665,0.0013529607519813776,0.037527352148602956,0.7341088359752052,0.2378790530535346,1.4560998734394237,0.22784298113452764,-0.28856268604336766,1.6660582667761326,-0.548832243186833,0.0,-0.0
-0.046142222959624904,0.5998786358758392,0.6260322049557684,1.081666273362749,-0.09700895737699153,0.8092233230344271,0.5581096759196309,1.353466062305292,0.0013529607519813776,0.037527352148602956,0.7341088359752052,0.2378790530535346,1.4485980813631283,0.2258795028512959,-0.287162645717403,1.6646589207295504,0.7523934625885363,-0.0,-0.0
-0.025911341288815046,0.6039812948016763,0.638941695989237,1.0916573516641768,-0.07786634487432192,0.7966725828107316,0.5525963484908945,1.3532843766815996,0.0013529607519813776,0.037527352148602956,0.7341088359752052,0.2378790530535346,1.4572846988440167,0.22816070533702665,-0.2888175886955518,1.6665041299750267,-0.7461062954572204,-0.0,-0.0
-0.04066743666584583,0.6003367880022279,0.6301625548411828,1.0852032067687185,-0.09185464771992605,0.8053549427688407,0.557246125595154,1.3542207202424141,0.0013529607519813776,0.037527352148602956,0.7341088359752052,0.2378790530535346,1.4509485749125186,0.22650308580793455,-0.2876390926093999,1.6653483539847922,0.6430401388716567,-0.0,-0.0
-0.023822177446400965,0.6039595969076749,0.6407094709596038,1.093254903206408,-0.0759084488326737,0.7950499963519677,0.5524606607207696,1.353823113261834,0.0013529607519813776,0.037527352148602956,0.7341088359752052,0.2378790530535346,1.4581782462131028,0.22839985810921196,-0.2890074524358424,1.6668249632316192,-0.6344452984719702,-0.0,0.0
-0.04075105816633187,0.5997001778926477,0.6307152734352743,1.0859525203776164,-0.09195897174669249,0.8049545632807614,0.5578688056415173,1.3549909533089612,0.0013529607519813776,0.037527352148602956,0.7341088359752052,0.2378790530535346,1.4509113749126024,0.22649941279365904,-0.28765928118787215,1.6655219703526052,0.7536659872171757,0.0,0.0
-0.032010751649411,0.60158007070835,0.6361868941491484,1.0901283987806512,-0.08368564558139979,0.7996067933766617,0.5553873706459841,1.3547874398064081,0.0013529607519813776,0.037527352148602956,0.7341088359752052,0.2378790530535346,1.4546609293897381,0.22748321764503887,-0.28836896416199276,1.6662881225709611,-0.4624284498316183,0.0,0.0
-0.051206427828067974,0.5970861856716219,0.6245262322204291,1.081423071541771,-0.10187051940715783,0.8110871480665922,0.5611899384813481,1.3556855202777034,0.0013529607519813776,0.037527352148602956,0.7341088359752052,0.2378790530535346,1.4464253425671771,0.2253259341310666,-0.28682622742015945,1.6647119358241576,0.7705811377896069,0.0,-0.0
-0.035905213371523984,0.6000273335131348,0.6344438046653621,1.0891781389385178,-0.08740134485089204,0.8014749768228219,0.5571835561509522,1.355759150192879,0.0013529607519813776,0.037527352148602956,0.7341088359752052,0.2378790530535346,1.4529872212784543,0.2270510584809955,-0.2880834683794537,1.6661544304868612,-0.5769099947738946,-0.0,-0.0
-0.04968165499301261,0.5969156409355905,0.6259652588755926,1.0827885472631438,-0.1004467717491493,0.8097988089226749,0.5612350620613745,1.356257542760458,0.0013529607519813776,0.037527352148602956,0.7341088359752052,0.2378790530535346,1.4470798639622904,0.22550239822909665,-0.2869718611334089,1.6649899885478052,0.6163467519018404,-0.0,-0.0
-0.028029788299060686,0.6009717430256899,0.6395165313225114,1.0933642525359606,-0.08118750512091426,0.7967063046582924,0.5555741518293965,1.356163429939108,0.0013529607519813776,0.037527352148602956,0.7341088359752052,0.2378790530535346,1.4560919640591028,0.22787112664202352,-0.2886953394674059,1.6669503827238725,-0.6752347436839675,0.0,0.0
-0.04518370322732454,0.5969681665223596,0.6295537537193192,1.0859960450610844,-0.09647266858709579,0.8065467589232468,0.5607668303339779,1.357142000127106,0.0013529607519813776,0.037527352148602956,0.7341088359752052,0.2378790530535346,1.4489530008229878,0.226002058774947,-0.28736354815962684,1.6656198355063478,0.7844158170373524,0.0,0.0
-0.03198380240660301,0.5995719449202104,0.6376864703402614,1.0922728473092311,-0.08472844688412084,0.798650446070026,0.5572021436464684,1.3569415278194874,0.0013529607519813776,0.037527352148602956,0.7341088359752052,0.2378790530535346,1.4544439267405997,0.2274442277518726,-0.28840813592349734,1.6667783700985448,-0.6396608876118925,-0.0,-0.0
-0.048875002623395045,0.595767163552825,0.6277420666152749,1.0848447546508422,-0.09977328162895507,0.8084359334712975,0.562188176847064,1.3577403975207423,0.0013529607519813776,0.037527352148602956,0.7341088359752052,0.2378790530535346,1.4474174333673595,0.22560316396923866,-0.28709144906590506,1.6654291197491675,0.7066194358244327,-0.0,0.0
-0.030252799665349616,0.599296445669331,0.6393548893000356,1.0938814231066778,-0.08321077429551368,0.7971988937729636,0.5572905241376326,1.357625471095533,0.0013529607519813776,0.037527352148602956,0.7341088359752052,0.2378790530535346,1.455161397274062,0.2276385217446692,-0.2885707384581468,1.667103947232458,-0.6334400212233751,0.0,0.0
-0.04697333646588588,0.595466359211718,0.6295745541334,1.0866126554934532,-0.09810448253770965,0.8071662547555568,0.5625397874534072,1.3586021711308827,0.0013529607519813776,0.037527352148602956,0.7341088359752052,0.2378790530535346,1.4482089093298887,0.22581731967167235,-0.2872706088316067,1.6657863599963285,0.7833197595810881,-0.0,-0.0
-0.024334563615666528,0.599631634213792,0.6431070667984347,1.0971150760881465,-0.07791688383965721,0.7930757041121602,0.5561591152527705,1.3582309230728482,0.0013529607519813776,0.037527352148602956,0.7341088359752052,0.2378790530535346,1.457642674744437,0.22829611552736392,-0.28906861291201835,1.6678003938994466,-0.7861855101393999,0.0,0.0
-0.04459843768493895,0.5949641051479198,0.6319190834385687,1.0889155087995994,-0.09602109337184918,0.805005143026799,0.5627735574070617,1.3597204081894119,0.0013529607519813776,0.037527352148602956,0.7341088359752052,0.2378790530535346,1.4491987303096532,0.22608652333249432,-0.28750051135942856,1.6662726196578703,0.8323491504586904,-0.0,-0.0
-0.02319300556834025,0.5990142045603724,0.6446029227553547,1.0986972174448255,-0.07693119573960601,0.791758415679094,0.5566396866348479,1.3592441001924824,0.0013529607519813776,0.037527352148602956,0.7341088359752052,0.2378790530535346,1.4581126071927781,0.22842792178629884,-0.2891945845280106,1.668144582623142,-0.8018967262409958,0.0,0.0
-0.043279646554387166,0.5943369878100161,0.633564234983186,1.090638294475112,-0.09487754086793777,0.8035492425365911,0.5632405398512577,1.3607746641652982,0.0013529607519813776,0.037527352148602956,0.7341088359752052,0.2378790530535346,1.4497474037264022,0.22623921310642192,-0.2876433013428292,1.6666449928666192,0.8245708776355312,-0.0,-0.0
-0.020357228874930747,0.5987428244702191,0.647077672035358,1.1010198132138185,-0.07443410323645831,0.7894093446606478,0.5566120561738298,1.360191373060459,0.0013529607519813776,0.037527352148602956,0.7341088359752052,0.2378790530535346,1.4592871238594802,0.22874461386822373,-0.2894533488289448,1.668629744483902,-0.7958996740517436,0.0,0.0
-0.038705657388258076,0.5943620565925778,0.6371028461602686,1.0938004966883281,-0.09083038047476298,0.8001020185651391,0.5627427365271918,1.3617173083431848,0.0013529607519813776,0.037527352148602956,0.7341088359752052,0.2378790530535346,1.4516500715699256,0.2267473064100097,-0.2880418529738794,1.6672918902557399,0.8333091761270354,-0.0,-0.0
-0.018771557856424592,0.5983856096653208,0.6486645357852046,1.1025786308123642,-0.07304660745742683,0.7879409084917097,0.5567987719457959,1.3609835857876955,0.0013529607519813776,0.037527352148602956,0.7341088359752052,0.2378790530535346,1.4599412509409209,0.2289231793946638,-0.28960663746663384,1.668961951043746,-0.7639782082703965,-0.0,-0.0
-0.03244147543599284,0.5950762733524549,0.6412790803546967,1.0972606570219514,-0.08526317995237472,0.7958748056748719,0.56140812702034,1.3621729017558522,0.0013529607519813776,0.037527352148602956,0.7341088359752052,0.2378790530535346,1.4542541129224138,0.2274361670037878,-0.28855752447796884,1.667978681256284,0.7923545875774299,-0.0,-0.0
-0.011032186811790308,0.5996735437117181,0.6534239831006359,1.1063332893891789,-0.06615397929350314,0.7830126576939445,0.554761174666112,1.3610498737704406,0.0013529607519813776,0.037527352148602956,0.7341088359752052,0.2378790530535346,1.463156006840505,0.22976975977425362,-0.29022549575110257,1.6696915530705325,-0.7359322113108568,-0.0,-0.0
-0.029985730308058355,0.5947919767050223,0.64347596923438,1.0993351189325595,-0.08310398182579144,0.7937928855404643,0.5614371474334011,1.3630679381711512,0.0013529607519813776,0.037527352148602956,0.7341088359752052,0.2378790530535346,1.4552712910289922,0.2277110715990072,-0.2887839786203422,1.6684154106425986,0.7807156635166211,-0.0,-0.0
-0.008892626170675905,0.5994306260461332,0.655332384129259,1.1081300036743051,-0.06427412815982286,0.7811978087117057,0.554787077491022,1.361834389346536,0.0013529607519813776,0.037527352148602956,0.7341088359752052,0.2378790530535346,1.4640371166825106,0.23000813700638117,-0.2904216905173199,1.6700709799602855,-0.7184062901517321,-0.0,0.0
-0.02596223809962719,0.5949596076960788,0.6464485001783095,1.101925583478898,-0.07954157859938665,0.7908519856691026,0.5608696698243864,1.363740865590684,0.0013529607519813776,0.037527352148602956,0.7341088359752052,0.2378790530535346,1.4569392910034706,0.2281555174004448,-0.2891273227287921,1.6689438884727816,0.7757248438907384,-0.0,-0.0
-0.005072436856599256,0.5997262555195785,0.6580190307120773,1.1104119562741044,-0.06088754904346105,0.778503235538023,0.554119726239143,1.3623107985111949,0.0013529607519813776,0.037527352148602956,0.7341088359752052,0.2378790530535346,1.465617076989357,0.23042797556331268,-0.29074102331996504,1.6705327030971666,-0.713571238179211,-0.0,-0.0
-0.02202181993362199,0.5951575090188536,0.6493274064805182,1.1044180879028613,-0.0760523387381436,0.7879922080997933,0.5602843274428893,1.3643649645462885,0.0013529607519813776,0.037527352148602956,0.7341088359752052,0.2378790530535346,1.458571179942134,0.22859013819309482,-0.2894618503111864,1.6694521520077368,0.7752132273504794,0.0,-0.0
-0.0012406595109255604,0.6000664535365591,0.6606714865247698,1.1126440943568672,-0.057489633797520756,0.7758294594421721,0.5534101908756432,1.3627393811117103,0.0013529607519813776,0.037527352148602956,0.7341088359752052,0.2378790530535346,1.4672005998349038,0.2308484243080688,-0.29105922912681814,1.6709834166179474,-0.7103433800721756,-0.0,0.0
-0.02006657949999846,0.5948488368338354,0.651161367446224,1.1061711144684436,-0.07433897326611143,0.7862605648435869,0.5603960902644195,1.36520059016861,0.0013529607519813776,0.037527352148602956,0.7341088359752052,0.2378790530535346,1.4593765149303848,0.22880898533739624,-0.2896451248402864,1.669826081225267,0.7747421508459735,-0.0,0.0
-0.0013767286286199588,0.5993398612752622,0.6612874164268037,1.1134688903059466,-0.05764221081664423,0.7753760857910195,0.5541429494129103,1.363649827170757,0.0013529607519813776,0.037527352148602956,0.7341088359752052,0.2378790530535346,1.4671338187336163,0.23083845540863673,-0.29107774665502995,1.6711808200520064,-0.7086509832669438,-0.0,0.0
-0.014590285067637227,0.5956795516954696,0.6546112109539751,1.108925547713875,-0.0694677306162007,0.7827007853509707,0.5590421369832709,1.3653698661994829,0.0013529607519813776,0.037527352148602956,0.7341088359752052,0.2378790530535346,1.461645015717413,0.22940758907356204,-0.29008560451268894,1.67036786875381,0.7742201165073722,-0.0,0.0
0.0061162157322385835,0.6008815239948027,0.6656047623810396,1.1167208453714095,-0.05096051588293041,0.7708108418495079,0.5518944990238565,1.3633685931639947,0.0013529607519813776,0.037527352148602956,0.7341088359752052,0.2378790530535346,1.4702383164743107,0.2316535531842753,-0.29166264240279977,1.6718016087928793,-0.7071999014215951,-0.0,0.0
-0.010814411989529527,0.595944519183571,0.6572985786897715,1.1112144425763002,-0.06612363767212864,0.7800041111291585,0.558416053782797,1.3658927910361789,0.0013529607519813776,0.037527352148602956,0.7341088359752052,0.2378790530535346,1.4632043163486121,0.22982247712980977,-0.2904022208660804,1.6708343716376175,0.774889335644715,0.0,-0.0
0.01195257262051868,0.6018363375314565,0.6692139006683748,1.1195631148163678,-0.045768327980263986,0.767059147773064,0.5503911874309078,1.3634794741387999,0.0013529607519813776,0.037527352148602956,0.7341088359752052,0.2378790530535346,1.472649896529415,0.23228958921385962,-0.2921280854700712,1.672359581866157,-0.7076535678629796,0.0,0.0
-0.004952492270938642,0.5967153579441407,0.6611135280245501,1.1143102230325985,-0.06091708846910328,0.7760890516575027,0.557091890623143,1.3662478021041506,0.0013529607519813776,0.037527352148602956,0.7341088359752052,0.2378790530535346,1.4656268008215503,0.23046333573109493,-0.2908781743036484,1.6714516860369917,0.7743535136583867,0.0,-0.0
0.015752161163534853,0.602313493427298,0.6717094248496811,1.1215946104759233,-0.04239589781327796,0.764498160617882,0.5495600519597859,1.3637506925921263,0.0013529607519813776,0.037527352148602956,0.7341088359752052,0.2378790530535346,1.474215023844477,0.23270415458823157,-0.29243677589220296,1.6727670649319994,-0.7067551012318737,-0.0,0.0
-0.003051356575702588,0.5964791928578064,0.6628394743557421,1.1159295414571604,-0.05925206181117172,0.7744339380970569,0.5571495222405616,1.3670084799038198,0.0013529607519813776,0.037527352148602956,0.7341088359752052,0.2378790530535346,1.466404221078579,0.23067447502754942,-0.2910528533013184,1.6717990984282194,0.7747914518739731,0.0,-0.0
0.017833814771124945,0.6022062443622336,0.6734467869960048,1.1231721308591631,-0.040566635225045874,0.7628008652936805,0.5494761220889653,1.3643936458170678,0.0013529607519813776,0.037527352148602956,0.7341088359752052,0.2378790530535346,1.475063725203911,0.23293324136515514,-0.292620880109276,1.6731020866227944,-0.710357571196774,0.0,-0.0
0.0008137809790670879,0.5968562225847852,0.6654886119401217,1.1181346715496567,-0.05582683265889287,0.7717412659484355,0.5564125937649339,1.3674285243431932,0.0013529607519813776,0.037527352148602956,0.7341088359752052,0.2378790530535346,1.4679961409501627,0.23109730998276792,-0.2913717058864181,1.6722468231355665,0.7745821837193955,-0.0,0.0
0.021565811579857565,0.6027044506928835,0.675869840186919,1.1251280769492353,-0.03725399267733242,0.7603023036032944,0.5486343525373694,1.3646315537620717,0.0013529607519813776,0.037527352148602956,0.7341088359752052,0.2378790530535346,1.4765985143648,0.23333964602370225,-0.292922414409207,1.6734942469237202,-0.7065978169409096,-0.0,0.0
0.004618974592310494,0.5972560927815321,0.6680692494966395,1.1202682013739762,-0.0524542215845752,0.7691082997381239,0.5556612075114338,1.3678115017785935,0.0013529607519813776,0.037527352148602956,0.7341088359752052,0.2378790530535346,1.4695620257444137,0.23151304400782532,-0.29168416914361345,1.6726795709226954,0.7745006232454181,0.0,-0.0
0.01931411005098118,0.601506703907648,0.675310464039282,1.1250798139384215,-0.03929757133891608,0.7610917657507681,0.5500462431242695,1.3656922223974675,0.0013529607519813776,0.037527352148602956,0.7341088359752052,0.2378790530535346,1.4756524224340568,0.2330995245528157,-0.29277721517293,1.6735300674035969,-0.7098995560510534,-0.0,0.0
0.0005052058542362146,0.5955387825534365,0.6665731936869966,1.1195881902798697,-0.056163420132832,0.7709316041424084,0.557763112677568,1.3691090493559381,0.0013529607519813776,0.037527352148602956,0.7341088359752052,0.2378790530535346,1.4678474169769093,0.23107237197480626,-0.29140011843966906,1.672601569715313,0.7751855493822595,-0.0,0.0
0.019385664117737022,0.600852570138159,0.6760236817365897,1.125953984576578,-0.039267189527301044,0.760513979995205,0.5506987036803804,1.3665861736668923,0.0013529607519813776,0.037527352148602956,0.7341088359752052,0.2378790530535346,1.4756668018659005,0.23311101581833985,-0.292810076187494,1.6737388997595424,-0.7081680097495004,-0.0,-0.0
0.0005885961597899558,0.5948843010542126,0.6672967173303779,1.1204739453697823,-0.05612198793048605,0.770347060289637,0.5584120675678774,1.3699992839233963,0.0013529607519813776,0.037527352148602956,0.7341088359752052,0.2378790530535346,1.4678704942167973,0.2310859912881741,-0.2914346451454437,1.6728120630735748,0.7734597743504051,0.0,-0.0
0.021355499522842238,0.6007348800728002,0.6776846893999482,1.1274648846795132,-0.037538055534134585,0.7588902421750799,0.5506391803596643,1.367224257289478,0.0013529607519813776,0.037527352148602956,0.7341088359752052,0.2378790530535346,1.4764669753798974,0.23332737072827922,-0.2929845137493504,1.6740614368855262,-0.70627764849313,0.0,0.0
0.0042751729701806795,0.595246613370291,0.6698212464001275,1.122570409472822,-0.05285623348777826,0.7677751460736828,0.5577112264244224,1.3704068941971705,0.0013529607519813776,0.037527352148602956,0.7341088359752052,0.2378790530535346,1.4693850527594168,0.2314884828722945,-0.291737996635569,1.673238965532823,0.77395188501523,-0.0,-0.0
0.018946274694986658,0.5994853185349984,0.6770538558202862,1.1273735610923235,-0.03972283118148816,0.7597619828790666,0.5521167448875565,1.3683129101472011,0.0013529607519813776,0.037527352148602956,0.7341088359752052,0.2378790530535346,1.4754568803990242,0.2330705762907447,-0.2928280328790823,1.6740899208882807,-0.7066386374028032,0.0,0.0
5.123932110856488e-06,0.5934841839197699,0.6682481855906048,1.1218406652520267,-0.05670498843260645,0.7696858971419637,0.559871118184489,1.3717217425542518,0.0013529607519813776,0.037527352148602956,0.7341088359752052,0.2378790530535346,1.4676082169673081,0.2310314761731164,-0.29144268741396495,1.6731517296892822,0.7748470944088359,0.0,0.0
0.020009540262219964,0.5991019866420805,0.6782710991082441,1.1285914773465027,-0.03880557247877535,0.7586306349479819,0.5524071670575303,1.3690855318263537,0.0013529607519813776,0.037527352148602956,0.7341088359752052,0.2378790530535346,1.4758812633011906,0.23318907175247522,-0.2929351262929656,1.6743609354186915,-0.6777165265127746,0.0,0.0
0.0008290801871825328,0.5929848923640163,0.669395457901774,1.123042518155317,-0.05600366042269736,0.7686503408123468,0.560297165379719,1.3725841531181833,0.0013529607519813776,0.037527352148602956,0.7341088359752052,0.2378790530535346,1.4679367229986928,0.23112533639499735,-0.2915346076260171,1.6734229689532178,0.7858231396235532,0.0,0.0
0.018340226790489033,0.5979324562622054,0.6781384281501255,1.1289109512056426,-0.040334433666804344,0.758993765849694,0.5537364566966175,1.3702440697794653,0.0013529607519813776,0.037527352148602956,0.7341088359752052,0.2378790530535346,1.4751752397649294,0.23301297840032745,-0.29283913350718604,1.6744725950296284,-0.6557258899047023,-0.0,0.0
-0.00046792510755864353,0.5919918473590787,0.6693773616714443,1.1233996817607714,-0.05719508507139179,0.7688683353206042,0.5614122285463243,1.3735898760540368,0.0013529607519813776,0.037527352148602956,0.7341088359752052,0.2378790530535346,1.4673899386286298,0.23098976778565744,-0.2914640409946078,1.6735350487584209,0.7736742670825166,0.0,0.0
0.011811106260648711,0.5954320029764799,0.675536627904676,1.1275495632755317,-0.04620943577024731,0.7620727142255886,0.5568426215502391,1.3719913572201963,0.0013529607519813776,0.037527352148602956,0.7341088359752052,0.2378790530535346,1.4724628603873589,0.23231310051531964,-0.2923796007846765,1.674279916460711,-0.6914366363186659,0.0,0.0
-0.00928014869629073,0.589029200744987,0.6654517727554402,1.1210451616149797,-0.06510304625829177,0.7733561881260652,0.5651864342887327,1.375389417653569,0.0013529607519813776,0.037527352148602956,0.7341088359752052,0.2378790530535346,1.463741234004313,0.23004344427644788,-0.2908274931627489,1.6731496417941518,0.7802405090395772,-0.0,0.0
0.009456744705710831,0.5939631385141483,0.6751635940053817,1.1277732507209677,-0.04835499968144466,0.7627404772360818,0.5585301232134692,1.3733664756720745,0.0013529607519813776,0.037527352148602956,0.7341088359752052,0.2378790530535346,1.4714744303320793,0.23206431109004702,-0.2922371411487072,1.6743809706115897,-0.7061848620311467,-0.0,0.0
-0.0008671074597162605,0.5869914427832533,0.6635075953749975,1.1201065092551907,-0.057114097586499935,0.7707474001916058,0.5648458645712273,1.3761521613458674,0.0013529607519813776,0.037527352148602956,0.7341088359752052,0.2378790530535346,1.4600849790393713,0.22909874610226577,-0.2902048372919797,1.6728672005231573,0.7557004879974385,-0.0,-0.0
0.013758159200979874,0.5909381163931766,0.6709650228622758,1.125224803780246,-0.04403108232819595,0.762597750599951,0.5594648018783956,1.3743397428695634,0.0013529607519813776,0.037527352148602956,0.7341088359752052,0.2378790530535346,1.4661141153505108,0.23067712358361292,-0.2913147278473552,1.6739020627649415,-0.6968281047705669,0.0,-0.0
-0.00510250244457449,0.5853195460794168,0.6618733668378118,1.1192906577766069,-0.06092821375351578,0.7726954540994757,0.566931157924199,1.3773693086017667,0.0013529607519813776,0.037527352148602956,0.7341088359752052,0.2378790530535346,1.4583298328750962,0.22864489378416494,-0.2899051705451226,1.672726056541632,0.7745984596328079,0.0,-0.0
0.013331397419914882,0.5901451011278201,0.6714190752348556,1.1259267181556591,-0.044445660283309735,0.7623074473108699,0.5602986612392545,1.3752826814178225,0.0013529607519813776,0.037527352148602956,0.7341088359752052,0.2378790530535346,1.4659236218677605,0.2306345763011918,-0.2913096689853052,1.6740747969673906,-0.6853057819226634,0.0,-0.0
-0.007575055576631674,0.5839321325789456,0.6613271407907582,1.1193333708300996,-0.06317403011420505,0.7735151687026555,0.5685567200386855,1.378613295745069,0.0013529607519813776,0.037527352148602956,0.7341088359752052,0.2378790530535346,1.4572995623026173,0.2283827522583091,-0.2897473475426199,1.672766641064686,0.7761686185653359,0.0,0.0
0.009370561768828018,0.5882895005053055,0.6701786273148228,1.1255293531083717,-0.04802656643904783,0.7639035907758212,0.5625403415629017,1.3768027957951825,0.0013529607519813776,0.037527352148602956,0.7341088359752052,0.2378790530535346,1.4642752792988811,0.23021147557826288,-0.291041002892364,1.674029878437649,-0.6316770235400256,-0.0,-0.0
-0.009270424236070583,0.5828884766016851,0.6610430692546351,1.1194793101418452,-0.06471783822143329,0.7740086663881042,0.5697617455517322,1.3795819943363472,0.0013529607519813776,0.037527352148602956,0.7341088359752052,0.2378790530535346,1.456592641851854,0.2282037792574724,-0.2896430496427073,1.6728217043388327,0.7643480721162618,-0.0,-0.0
0.009087620387448283,0.5875510065754751,0.670688545783375,1.126261881010194,-0.048311159409074794,0.7635498480939814,0.5633038119843056,1.3777007734289475,0.0013529607519813776,0.037527352148602956,0.7341088359752052,0.2378790530535346,1.4641455931157399,0.2301845756222882,-0.2910463127683816,1.6742074676206191,-0.6883147689829467,-0.0,-0.0
-0.009686199356664347,0.5821197882830483,0.6614804634683844,1.1201613371687722,-0.06512019152955222,0.7737358701854115,0.5705656365110459,1.3804822068041847,0.0013529607519813776,0.037527352148602956,0.7341088359752052,0.2378790530535346,1.4564121322296624,0.22816334086262166,-0.28963872159111326,1.6729881652919614,0.7671533845929722,-0.0,-0.0
0.011789887133498163,0.5875598608351036,0.6727771794357421,1.1281102625690134,-0.04592848215960458,0.7614871320659268,0.5630283406983424,1.3783072658103936,0.0013529607519813776,0.037527352148602956,0.7341088359752052,0.2378790530535346,1.465243421666687,0.23047972744200682,-0.2912801331885654,1.6746135669453523,-0.7251293872060218,-0.0,-0.0
-0.0034922026781074034,0.583058580445999,0.665362234432983,1.1232480468666997,-0.059614437782863454,0.7697179549038761,0.5690172479046259,1.3806709041197391,0.0013529607519813776,0.037527352148602956,0.7341088359752052,0.2378790530535346,1.4589502444255127,0.22883563841547158,-0.29013822196605915,1.6736451338959064,0.69853815675226,-0.0,-0.0
0.010543779053381925,0.5867836556703879,0.6725776101860017,1.1282272580759503,-0.04706432894584628,0.7618399302438188,0.5639254324029478,1.3790364548243343,0.0013529607519813776,0.037527352148602956,0.7341088359752052,0.2378790530535346,1.464721690413779,0.2303478251185086,-0.29120349418048663,1.6746570395221165,-0.6724620145441047,-0.0,-0.0
-0.09956642222511884,0.5688270814494614,0.6443981177732934,1.1100387049845237,-0.1797267050850361,0.794840252140436,0.5794245267994382,1.3803426332348756,0.0013529607519813776,0.037527352148602956,0.7341088359752052,0.2378790530535346,1.3652191221829457,0.20434541961605196,-0.2731236626435736,1.6591705481003711,0.6969135425610432,-0.0,-0.0
-0.07880518065162254,0.5712391749056324,0.6582679466674747,1.12137226697447,-0.1614625221969875,0.7804979786892521,0.5756465674854597,1.3826084395010814,0.0013529607519813776,0.037527352148602956,0.7341088359752052,0.2378790530535346,1.3735931439315596,0.2066235772441332,-0.2750729506538408,1.663383793786728,-0.6588803134179905,0.0,-0.0
-0.09097088412642812,0.5700550831348482,0.6521889007335907,1.1164843639013384,-0.16981564139582753,0.7885833501789875,0.5792198459221594,1.3826999940557523,0.0013529607519813776,0.037527352148602956,0.7341088359752052,0.2378790530535346,1.3690424912417305,0.2053881229309456,-0.2740374658511203,1.6612366263041396,0.7516147480704864,0.0,-0.0
