muneebpandith/TeleoperationWork/DATASET/TRANSORMER_DATA/training_data_for_transformer1686208553.2747357.csv
J0,J1,J2,J3,J4,J5,J6,J7,J8,J9,J10,J11,J12,J13,J14,J15,ThetaXHG,ThetaYHG,ThetaZHG
0.0416077823587613,0.6245749378346842,0.7026271220902804,1.1743865683940635,-0.045225105801712,0.7610254575512448,0.538320504880208,1.3777056260375768,0.021400653951822786,-0.04224629443450371,0.7633097021971793,0.2378790530535346,1.4846891114037442,0.23587510906446035,-0.2931203742284261,1.6614746257806003,-0.0011161794322247427,-0.0,-0.0
0.040412687409626814,0.6240543506174847,0.702097153729398,1.1741149272934246,-0.04635382888101722,0.7616227374459947,0.5387752630083785,1.3779013300118288,0.021400653951822786,-0.04224629443450371,0.7633097021971793,0.2378790530535346,1.4841848687873984,0.2357454942607317,-0.29303353183303454,1.6614295016662386,-0.01622850687407262,-0.0,-0.0
0.03889512844855407,0.6233968080866784,0.7014204998117644,1.1737654664636048,-0.047786818359405125,0.7623839155658315,0.5393491688478437,1.378145100014995,0.021400653951822786,-0.04224629443450371,0.7633097021971793,0.2378790530535346,1.4835446811624453,0.23558089123558226,-0.29292310766483115,1.6613711114083984,-0.011166634529944552,-0.0,-0.0
0.037432084162734074,0.6227671885281549,0.7007636395237905,1.1734230157825567,-0.0491679780461416,0.7631210968421096,0.5398981047227719,1.3783743184464599,0.021400653951822786,-0.04224629443450371,0.7633097021971793,0.2378790530535346,1.4829276249631038,0.23542218225670256,-0.2928164667066712,1.6613134837762866,-0.007163500125248891,0.0,0.0
0.03627552199489732,0.6222727456129169,0.7002409410327618,1.1731480739923408,-0.050259540541322555,0.7637063972881266,0.5403287301866254,1.378551109668681,0.021400653951822786,-0.04224629443450371,0.7633097021971793,0.2378790530535346,1.482439931678286,0.23529670526790955,-0.2927320250541457,1.6612669109513492,-0.006303985974679285,-0.0,-0.0
0.03457471302992889,0.6215494507450422,0.6994682778822066,1.1727388322216061,-0.051864451341487885,0.7645700787369223,0.5409581392853123,1.378805973953396,0.021400653951822786,-0.04224629443450371,0.7633097021971793,0.2378790530535346,1.4817228579235802,0.23511216467738583,-0.2926076842944035,1.6611972399118056,-0.004104671885270448,-0.0,-0.0
0.032801561995530235,0.6208012530854218,0.6986566241038374,1.1723046348581345,-0.053537148776885285,0.765475017651522,0.5416084061204108,1.3790638385863345,0.021400653951822786,-0.04224629443450371,0.7633097021971793,0.2378790530535346,1.480975457609339,0.23491974751857625,-0.29247780435747056,1.6611227931367865,-0.0010904946911587275,0.0,0.0
0.03101773390850993,0.6200547059778203,0.6978336593299098,1.1718598968348708,-0.055219419943164816,0.7663901379476213,0.5422563863269068,1.379315046176763,0.021400653951822786,-0.04224629443450371,0.7633097021971793,0.2378790530535346,1.4802237348391538,0.23472614234455447,-0.29234687910169893,1.6610459975520495,-0.0007409964765576401,-0.0,-0.0
0.029270166179680465,0.6193294093199406,0.6970210937244381,1.1714163782357196,-0.05686700524127085,0.7672913102321167,0.5428850819726954,1.3795530689591406,0.021400653951822786,-0.04224629443450371,0.7633097021971793,0.2378790530535346,1.4794874640694982,0.23453644296105955,-0.2922183551833289,1.6609688901474917,-0.0019267961734791188,0.0,-0.0
0.027383445274004065,0.618552793977564,0.6961371329252208,1.1709292617949993,-0.05864526574442563,0.7682691517991249,0.5435573728697055,1.379801513634474,0.021400653951822786,-0.04224629443450371,0.7633097021971793,0.2378790530535346,1.4786927436862556,0.23433160626836308,-0.29207932168765266,1.6608836622359553,0.003630094476771176,0.0,-0.0
0.025468489051054317,0.6177716170039838,0.6952326104193853,1.170425769116178,-0.060449573820295734,0.769266997772853,0.5442326392028211,1.3800443425958842,0.021400653951822786,-0.04224629443450371,0.7633097021971793,0.2378790530535346,1.47788631981457,0.23412366806533208,-0.29193790480384574,1.6607949886268785,0.004651295725238519,-0.0,-0.0
0.023625753703988464,0.6170268078786816,0.6943550402414346,1.1699323787041687,-0.062185284232761096,0.7702324446867125,0.5448755174457303,1.3802689119543685,0.021400653951822786,-0.04224629443450371,0.7633097021971793,0.2378790530535346,1.4771104900875054,0.23392353595926882,-0.2918015249465236,1.6607075397327176,0.0013206098224941088,0.0,-0.0
0.0218965554264311,0.616334134924508,0.6935250745060446,1.1694613521628776,-0.06381355679857421,0.7711431230033886,0.5454725355221122,1.3804714390989146,0.021400653951822786,-0.04224629443450371,0.7633097021971793,0.2378790530535346,1.4763826205717934,0.23373570124733814,-0.29167327958736394,1.660623564963443,0.00475375318554893,0.0,0.0
0.020537391270515862,0.6157943019598101,0.6928679460231172,1.1690851865318495,-0.06509302852639438,0.7718623948565604,0.5459371860557534,1.3806245835992235,0.021400653951822786,-0.04224629443450371,0.7633097021971793,0.2378790530535346,1.4758106231499006,0.23358803639117562,-0.2915722792710143,1.660556148434302,0.005696815660955028,0.0,-0.0
0.01858715165067551,0.6150517130692361,0.6919567501279628,1.168561249114251,-0.06693332280820578,0.7729010895017835,0.5466004388311172,1.38083807893313,0.021400653951822786,-0.04224629443450371,0.7633097021971793,0.2378790530535346,1.4749878479877812,0.23337557003970572,-0.2914267508425388,1.6604575636588343,0.004085456891038152,-0.0,-0.0
0.016610981586539657,0.6142795650929987,0.6909881450803489,1.1679979167116439,-0.06879261359382191,0.7739565287117149,0.5472631700942762,1.3810439356671866,0.021400653951822786,-0.04224629443450371,0.7633097021971793,0.2378790530535346,1.474156492586115,0.23316079872684936,-0.2912793455121193,1.6603556082298219,0.006917729165111127,-0.0,-0.0
0.014740674917212473,0.6135560679560802,0.6900639295077801,1.1674553916314716,-0.07055173447605874,0.7749608555386539,0.5478831447414827,1.3812292985429941,0.021400653951822786,-0.04224629443450371,0.7633097021971793,0.2378790530535346,1.473369839029712,0.2329574905804405,-0.29113952245409586,1.6602568941859854,0.002387924064835854,-0.0,-0.0
0.012935667318531418,0.6128889776094795,0.6891997197512051,1.1669444584239048,-0.07225337197655166,0.7759718768397611,0.5485067312326551,1.3814152287750132,0.021400653951822786,-0.04224629443450371,0.7633097021971793,0.2378790530535346,1.4726088069205456,0.23276072663474867,-0.29100393866012286,1.6601593431446438,5.50032892589784e-05,-0.0,0.0
0.011319955095123891,0.612297437661289,0.6884203733010258,1.1664799051105734,-0.07377610773331114,0.7768813080813544,0.5490589917921266,1.3815739271992165,0.021400653951822786,-0.04224629443450371,0.7633097021971793,0.2378790530535346,1.4719277097413,0.23258456282510867,-0.2908823231817666,1.6600702608184377,4.839622116157278e-05,0.0,-0.0
0.010031416725653192,0.6118123359712049,0.6877699216468062,1.1660889638938632,-0.07498700325901096,0.7775833351525914,0.5494725842277652,1.3816840086004423,0.021400653951822786,-0.04224629443450371,0.7633097021971793,0.2378790530535346,1.471386037575498,0.23244441339550403,-0.29078540896319155,1.6599981485043351,0.001705741915615209,0.0,-0.0
0.008323677698821388,0.6111737809283644,0.6869033920025871,1.1655652258744469,-0.0765915058524938,0.7785169600321122,0.550016408301656,1.3818242961049667,0.021400653951822786,-0.04224629443450371,0.7633097021971793,0.2378790530535346,1.4706682307158543,0.23225864188043685,-0.29065677650766214,1.6599012531158859,-0.003394576321017447,-0.0,-0.0
0.00688678820694897,0.6106413756123206,0.686169313973743,1.1651182876082282,-0.0779411606974126,0.779306081724998,0.5504691598314942,1.3819360877096853,0.021400653951822786,-0.04224629443450371,0.7633097021971793,0.2378790530535346,1.4700643644619618,0.23210230318241257,-0.2905483340241438,1.6598182501845815,-0.013908034831739531,-0.0,0.0
0.005375628960376159,0.6100857708421457,0.6853928844773747,1.1646426954471607,-0.07936024840131535,0.7801391462164332,0.5509410457689874,1.382048136485174,0.021400653951822786,-0.04224629443450371,0.7633097021971793,0.2378790530535346,1.4694293676081969,0.2319378559370585,-0.2904340989135397,1.6597296512604212,-0.01216683697733463,-0.0,0.0
0.004219257694156058,0.6096640912282768,0.6847951955685355,1.1642742875911545,-0.08044590130408219,0.7807791600774544,0.5512987078492476,1.3821294396323438,0.021400653951822786,-0.04224629443450371,0.7633097021971793,0.2378790530535346,1.4689435186696187,0.2318119947429901,-0.29034653256088777,1.6596608024195572,-0.0254023320384607,-0.0,0.0
0.0030602609419084414,0.6092441274585938,0.6841934274868297,1.1639016069722674,-0.08153381773597054,0.781422568845833,0.5516545468510188,1.382207525945926,0.021400653951822786,-0.04224629443450371,0.7633097021971793,0.2378790530535346,1.4684566144581557,0.23168583013626132,-0.2902586511447444,1.6595909909540876,-0.02035220049589358,-0.0,0.0
0.0024984695028680086,0.6090418618776253,0.6839004144311448,1.1637192891390296,-0.08206105731921123,0.7817353856506191,0.5518257494366637,1.3822437248345272,0.021400653951822786,-0.04224629443450371,0.7633097021971793,0.2378790530535346,1.4682206238895912,0.23162466667554651,-0.2902159964913134,1.6595567599885261,-0.03951884069248794,0.0,-0.0
0.0011622517450545378,0.6085622746392088,0.6832019592688505,1.1632837185979386,-0.08331498132238133,0.7824805041217298,0.5522314773574635,1.3823279210631285,0.021400653951822786,-0.04224629443450371,0.7633097021971793,0.2378790530535346,1.467659347239563,0.23147917960830036,-0.2901144772878005,1.6594748900325988,-0.018800431327070356,0.0,-0.0
0.0010247814356672015,0.6085151085110414,0.6831324110566712,1.1632401205536462,-0.08344429599653123,0.7825602849901183,0.5522752211382681,1.3823372215549983,0.021400653951822786,-0.04224629443450371,0.7633097021971793,0.2378790530535346,1.4676014577736949,0.231464170125961,-0.29010398953631145,1.6594663342914582,-0.06385929099528391,-0.0,-0.0
0.00010690191936408634,0.6082004284232934,0.6826677925895919,1.1629487041897018,-0.08430770199131088,0.7830931657033077,0.5525670382056729,1.3823989886575274,0.021400653951822786,-0.04224629443450371,0.7633097021971793,0.2378790530535346,1.4672149380663504,0.2313639511325633,-0.2900339524859918,1.6594091318452857,-0.019527511789248386,0.0,-0.0
0.0006483274579544598,0.6083850827687293,0.6829428396127714,1.1631218429854795,-0.08379848299538549,0.7827780917096908,0.5523959179269675,1.3823638601446315,0.021400653951822786,-0.04224629443450371,0.7633097021971793,0.2378790530535346,1.467442916441118,0.2314230737427412,-0.29007530857162417,1.6594431743919953,-0.09058292039290845,0.0,-0.0
-0.0008520201343010732,0.6078718088105101,0.6821822647870341,1.162644088546841,-0.08520970447951953,0.7836499760618233,0.5528717654658876,1.3824633387689405,0.021400653951822786,-0.04224629443450371,0.7633097021971793,0.2378790530535346,1.4668111380145668,0.23125925005768672,-0.28996077789876856,1.65934933062515,-0.012311947941168078,-0.0,-0.0
0.0006888300848559705,0.6084146024042796,0.6829980946343491,1.1631595319544847,-0.0837645224007756,0.7827832081767673,0.5524141679664037,1.3823794652659038,0.021400653951822786,-0.04224629443450371,0.7633097021971793,0.2378790530535346,1.4674581996193163,0.23142708820735977,-0.2900782953576795,1.6594468513901848,-0.1285083195630865,0.0,-0.0
-0.0015125010210176124,0.6076323430104403,0.6818394586866522,1.162431886967808,-0.08582968188625356,0.7840166227210549,0.5530745878936838,1.3825078706841618,0.021400653951822786,-0.04224629443450371,0.7633097021971793,0.2378790530535346,1.466533670453464,0.23118735428174497,-0.2899107015163379,1.6593095715564388,0.0236588532748428,-0.0,0.0
0.001464748072975989,0.6086383142133297,0.683361516212528,1.163396089859766,-0.08303025662647842,0.7822768892230713,0.552143371733981,1.3823272712892594,0.021400653951822786,-0.04224629443450371,0.7633097021971793,0.2378790530535346,1.4677871410486971,0.23151252978955086,-0.2901385370927597,1.6594996830310882,-0.18330628295707227,0.0,0.0
-0.00289440719065363,0.6071402036980684,0.6811587115976165,1.1620168298327518,-0.08713099003895047,0.7848046614998881,0.5535332591198951,1.3826257695116637,0.021400653951822786,-0.04224629443450371,0.7633097021971793,0.2378790530535346,1.4659514606205615,0.2310366063174292,-0.2898060942189684,1.6592291886518018,0.09716244184146043,0.0,0.0
0.0019070895224112738,0.6088121684005455,0.683720684054687,1.1636480019954027,-0.08262907919707718,0.7820893855879993,0.5521268696861354,1.3823895485293929,0.021400653951822786,-0.04224629443450371,0.7633097021971793,0.2378790530535346,1.467967438733037,0.231559740151845,-0.2901731462889945,1.6595389868172175,-0.2680177531416363,-0.0,-0.0
-0.006147303339458384,0.6060359905089234,0.6796586655480786,1.1611100061160162,-0.09020647509257686,0.7867557529411697,0.5547008092236412,1.3829484480659198,0.021400653951822786,-0.04224629443450371,0.7633097021971793,0.2378790530535346,1.4645756504278837,0.23068044931894374,-0.2895592173136432,1.6590413053968107,0.23636017135794654,0.0,-0.0
0.0021099185249450507,0.6088594664224473,0.6841173008514783,1.1639817790949076,-0.0824685104405352,0.782045788517082,0.5523374648172987,1.3826132884019064,0.021400653951822786,-0.04224629443450371,0.7633097021971793,0.2378790530535346,1.468041561902382,0.2315804346942951,-0.29019278136846965,1.6595903301415693,-0.38421007819512965,-0.0,-0.0
-0.010804306951396739,0.6042294014697257,0.6773610450298349,1.1597659230978343,-0.09458634436181221,0.7892587604144329,0.5562435666787607,1.3834066027234497,0.021400653951822786,-0.04224629443450371,0.7633097021971793,0.2378790530535346,1.4626179298395998,0.23017443809861807,-0.2892113060248312,1.6587959350061765,0.4766450560224664,-0.0,-0.0
-0.0027583559767905934,0.6069052591293929,0.6817814809803299,1.1626606158501107,-0.08705208488459659,0.7846157320229152,0.5540147004718822,1.3831747792376523,0.021400653951822786,-0.04224629443450371,0.7633097021971793,0.2378790530535346,1.4659935884659563,0.23105182669436874,-0.2898318623930694,1.6593534126894842,-0.5073022980781973,-0.0,-0.0
-0.02206166122008352,0.6001721558598767,0.6714925842695662,1.156119046274195,-0.10515048183905522,0.79553262399031,0.5596679475146873,1.3841217673990436,0.021400653951822786,-0.04224629443450371,0.7633097021971793,0.2378790530535346,1.457891111524633,0.22894924377722523,-0.28835687869805593,1.658109642205003,0.6689241595358285,-0.0,-0.0
-0.00865681042558129,0.6043239942730669,0.6791636393821038,1.1613338612673278,-0.09262066899616993,0.7875830608526766,0.5562529548145481,1.3841149122608214,0.021400653951822786,-0.04224629443450371,0.7633097021971793,0.2378790530535346,1.4635101387064118,0.23041302311844197,-0.2894039317900524,1.6591292718919295,-0.5841381414846634,-0.0,-0.0
-0.03016917891060013,0.5973503214775336,0.6678666879499232,1.153992160603966,-0.11282288917837537,0.7999634533654533,0.5623181061945188,1.3848495062811537,0.021400653951822786,-0.04224629443450371,0.7633097021971793,0.2378790530535346,1.4544640914244966,0.2280626581694335,-0.2877453840395248,1.657663516645508,0.7351365262134116,-0.0,-0.0
-0.016702417065445493,0.601291767898757,0.6757593873540747,1.1594857509709415,-0.10023542806427524,0.7915940766475628,0.5589332831184467,1.3850472739409097,0.021400653951822786,-0.04224629443450371,0.7633097021971793,0.2378790530535346,1.4602944093355252,0.2295839680552269,-0.2888424073031513,1.658790512638141,-0.6487930583418389,0.0,-0.0
-0.03141369876128339,0.596905399033538,0.6680544753201009,1.1543377416558172,-0.11321226100880044,0.8002159731660395,0.5630211189369051,1.385423768938171,0.021400653951822786,-0.04224629443450371,0.7633097021971793,0.2378790530535346,1.4542936101689985,0.22802235304174392,-0.28773203178206286,1.6577517987843484,0.7580353597869584,-0.0,-0.0
-0.013855390844926804,0.6016419619096279,0.6777527817709307,1.16112464731857,-0.09775653475815556,0.7895806601116078,0.5586217503846338,1.385582335158874,0.021400653951822786,-0.04224629443450371,0.7633097021971793,0.2378790530535346,1.461451072936291,0.22989017453813906,-0.2890793425966261,1.6591393811499342,-0.6801937741591388,0.0,0.0
-0.03515656137505164,0.5954374635231313,0.6671305397475045,1.1540915848298379,-0.11660066300224725,0.8024230049247066,0.5649985229017763,1.386419865303648,0.021400653951822786,-0.04224629443450371,0.7633097021971793,0.2378790530535346,1.4527421747807356,0.22762493687360677,-0.28747332434824013,1.6576669575668492,0.767176864018155,0.0,-0.0
-0.01894743137334076,0.5995130563924205,0.6758675618535052,1.1602764454715162,-0.10230478154586495,0.7921713852454344,0.5608104489707637,1.3866261824008184,0.021400653951822786,-0.04224629443450371,0.7633097021971793,0.2378790530535346,1.4593624637983191,0.2293539139998424,-0.28872489567284215,1.6589857530135332,-0.6969174516129277,0.0,-0.0
-0.040181616726795114,0.5935263844271558,0.6650773565910356,1.153012773072349,-0.12107463556908608,0.8051243769962463,0.5669590517169558,1.3871930612081542,0.021400653951822786,-0.04224629443450371,0.7633097021971793,0.2378790530535346,1.45068737714573,0.2270951071825501,-0.2871156265495446,1.6574567999169934,0.7708142784448272,0.0,-0.0
-0.022422569768182476,0.5979992550190866,0.6751153197370647,1.1602011101739884,-0.10547313163682097,0.7934904819549645,0.5623218756796996,1.3875408804751699,0.021400653951822786,-0.04224629443450371,0.7633097021971793,0.2378790530535346,1.4581545293398408,0.2290471815759201,-0.28853540275412337,1.6589973009331875,-0.7026272800512006,0.0,0.0
-0.04334353519248145,0.5920102264292815,0.6640131788749424,1.1526639900626734,-0.12389674273595139,0.8066697117152647,0.5685156222553428,1.3880537843483653,0.021400653951822786,-0.04224629443450371,0.7633097021971793,0.2378790530535346,1.4493561602631684,0.22675481777627304,-0.2868977748431595,1.6574102659802057,0.772754906813069,0.0,0.0
-0.02694154600888732,0.595883107014306,0.673104598789222,1.1592413152356795,-0.10944867122249358,0.7961123627374125,0.5645382413681004,1.3885924115872887,0.021400653951822786,-0.04224629443450371,0.7633097021971793,0.2378790530535346,1.4560477300274435,0.22850530343115436,-0.2881747298794042,1.6588214204389289,-0.7050023867989988,0.0,0.0
-0.041582872980128,0.5918225961726755,0.6652048291848998,1.1538008919872926,-0.12233331332931059,0.8054338255608343,0.5687374700708379,1.3887773236416814,0.021400653951822786,-0.04224629443450371,0.7633097021971793,0.2378790530535346,1.4498946144192733,0.22690047748641745,-0.2870226635635438,1.6576669227260699,0.7730927187912311,-0.0,0.0
-0.02369355478915676,0.5962771794887519,0.6753642516059796,1.1611013345307502,-0.10662204969163512,0.793675646111406,0.5641222382895904,1.3892013280379472,0.021400653951822786,-0.04224629443450371,0.7633097021971793,0.2378790530535346,1.4574094604619743,0.22886595033419305,-0.2884544319579643,1.6592373637034108,-0.706506046077351,0.0,0.0
-0.04298722024103026,0.5910468863735445,0.6654694020122562,1.1543471237958245,-0.12365243552895831,0.8059021221598714,0.5697932286535929,1.3895998024627207,0.021400653951822786,-0.04224629443450371,0.7633097021971793,0.2378790530535346,1.4492820406661677,0.2267474087341769,-0.28693872457052694,1.6577510213201896,0.7729108819352348,0.0,0.0
-0.03020774603678998,0.5940503079132768,0.6724879302100746,1.1594157710567994,-0.11240217813174407,0.7974548013504055,0.5665243149852489,1.3899506819210559,0.021400653951822786,-0.04224629443450371,0.7633097021971793,0.2378790530535346,1.45466181888748,0.22815494284648657,-0.2879653662537083,1.6588864921515893,-0.7046086223809952,0.0,0.0
-0.051436250294560545,0.5885505219123898,0.6613432072814074,1.151657358208128,-0.13112264057212508,0.8111039031835406,0.5724911628231728,1.3900417641440639,0.021400653951822786,-0.04224629443450371,0.7633097021971793,0.2378790530535346,1.4457245170223685,0.22582223462489426,-0.2862856631143883,1.6571672936511002,0.7728253073808908,0.0,-0.0
-0.035013957513408855,0.5921485072597547,0.6706232743175835,1.158506975971056,-0.11668211196070999,0.8000547462442654,0.5685659937578885,1.3908375945182014,0.021400653951822786,-0.04224629443450371,0.7633097021971793,0.2378790530535346,1.4526349824719362,0.22763317868494026,-0.2876175566277586,1.6587112406718423,-0.7090891635449025,0.0,0.0
-0.04991529897145569,0.5884196527025154,0.662667979747918,1.1528932958212472,-0.12981352460586643,0.809736767452562,0.5726128656384507,1.390721476541731,0.021400653951822786,-0.04224629443450371,0.7633097021971793,0.2378790530535346,1.4463652775549298,0.2259951166482506,-0.2864325471970298,1.6574613999403307,0.7746574772539041,0.0,0.0
-0.031658219922821966,0.5924749715908257,0.6729290527398326,1.1604342009868363,-0.1137571099006326,0.7974925981886883,0.5681937082246235,1.391538429350184,0.021400653951822786,-0.04224629443450371,0.7633097021971793,0.2378790530535346,1.454045068281446,0.22800720538608304,-0.2879099237242748,1.6591597826455515,-0.7076414179661973,-0.0,-0.0
-0.05292187224299119,0.5870182325077988,0.6617146730140505,1.152602074599689,-0.1325029443988912,0.8112074147212194,0.5741090802434593,1.3915479464180862,0.021400653951822786,-0.04224629443450371,0.7633097021971793,0.2378790530535346,1.4451013096839327,0.22567186101250167,-0.28622638785849974,1.6574209620389728,0.7735685588319808,0.0,0.0
-0.034728670138364476,0.590958614014348,0.6720393594105757,1.160243406757302,-0.11650990383811528,0.7989307886901718,0.5698137895329872,1.3924985329726365,0.021400653951822786,-0.04224629443450371,0.7633097021971793,0.2378790530535346,1.4527502346706944,0.22767711668745363,-0.2877028555207397,1.659145826591699,-0.7055873115881351,0.0,-0.0
-0.05389853579235969,0.5861460332177774,0.6618223771928307,1.1530480762003217,-0.13340171188993638,0.811377760853696,0.5750304072411462,1.3923584375307754,0.021400653951822786,-0.04224629443450371,0.7633097021971793,0.2378790530535346,1.4446921026301713,0.22557162803685382,-0.2861806388943002,1.6575434116452157,0.773702938106891,-0.0,0.0
-0.04048811232113107,0.5890574869174334,0.6695076094262776,1.1587433189451128,-0.12198917120483298,0.8025986931871787,0.5719897188067595,1.3930689745791776,0.021400653951822786,-0.04224629443450371,0.7633097021971793,0.2378790530535346,1.4501487144374443,0.22700249351917237,-0.28723500293910353,1.658781418280987,-0.707440185486423,0.0,-0.0
-0.06127747656991457,0.5840114539022156,0.6581254797488139,1.1506041380132837,-0.13971040901120596,0.8158427475925621,0.577221468546508,1.392612090921511,0.021400653951822786,-0.04224629443450371,0.7633097021971793,0.2378790530535346,1.4416913465953507,0.224790002482011,-0.2856257308076865,1.6570234991617985,0.7732587944719209,0.0,-0.0
-0.0441769080165958,0.5874831501068015,0.668163713889521,1.1581757844534741,-0.12517136969204282,0.8044846650666789,0.5735793817719583,1.3938100968503404,0.021400653951822786,-0.04224629443450371,0.7633097021971793,0.2378790530535346,1.4486475812132615,0.22661655319982021,-0.2869810584820327,1.6586744354847651,-0.7061385133389534,0.0,-0.0
-0.05956783387898004,0.5841690892399,0.6601801439497046,1.1523830303173606,-0.13794342617707603,0.8141069947052212,0.577249543829636,1.3933513022615642,0.021400653951822786,-0.04224629443450371,0.7633097021971793,0.2378790530535346,1.442551971924821,0.22502074547273454,-0.28581640320332286,1.6573758816326072,0.7735083152914372,0.0,-0.0
-0.0381741885476202,0.5881791906779368,0.6718773676932193,1.1612080084916365,-0.12022213254122721,0.800323870631756,0.5727287051102441,1.3947104974636821,0.021400653951822786,-0.04224629443450371,0.7633097021971793,0.2378790530535346,1.451025639806561,0.22724503041506755,-0.28746326426026897,1.6593611210158405,-0.7073279207972549,-0.0,-0.0
-0.05674454850863579,0.584193314108742,0.6628144423248943,1.154725166948006,-0.13516568546978402,0.8121227333291813,0.5777181627904477,1.3946133772445626,0.021400653951822786,-0.04224629443450371,0.7633097021971793,0.2378790530535346,1.443655863385679,0.22531756371724468,-0.2860646948472643,1.6578523743413947,0.7742163141027641,-0.0,-0.0
-0.03590743575666039,0.5882215240588908,0.6740864095234989,1.1631590233833988,-0.11847490232181648,0.7984331980735578,0.5728127950108273,1.3955716001358132,0.021400653951822786,-0.04224629443450371,0.7633097021971793,0.2378790530535346,1.4519040039940327,0.22748177830315044,-0.28766257303825693,1.6597525039183303,-0.7082757093404773,0.0,-0.0
-0.05602456642118903,0.5835763000462763,0.6639677456495399,1.155999021567694,-0.13462562692103933,0.8111260189725659,0.5782821228561896,1.3955625829015816,0.021400653951822786,-0.04224629443450371,0.7633097021971793,0.2378790530535346,1.4439442546287558,0.22540068547467657,-0.2861559438971763,1.658147621247061,0.7742184078219446,0.0,-0.0
-0.03471169875611753,0.5874911516604239,0.6750374389481342,1.1642906133064281,-0.11751172720159549,0.7971101303762075,0.5732247255609971,1.3965126446063676,0.021400653951822786,-0.04224629443450371,0.7633097021971793,0.2378790530535346,1.4523967905270903,0.2276184175084023,-0.2877918764958321,1.6600858553510405,-0.7082696742702623,-0.0,-0.0
-0.05597394810824515,0.5829694024145241,0.6650936668794546,1.1572431978366642,-0.13415125020104207,0.8101529470335115,0.5789041595306301,1.3965576549554612,0.021400653951822786,-0.04224629443450371,0.7633097021971793,0.2378790530535346,1.4442011568316822,0.22547596299253253,-0.28624293743074447,1.6584478411889163,0.7737700063194841,0.0,0.0
-0.03668057022069528,0.5865267941264445,0.6751020037053956,1.1647288161672638,-0.11865847453311956,0.7974814335181479,0.5743034114269387,1.397391815029808,0.021400653951822786,-0.04224629443450371,0.7633097021971793,0.2378790530535346,1.4518486508680661,0.22748240466221464,-0.2877217861914094,1.6601941687129447,-0.7072602886879054,0.0,0.0
-0.057217444314156714,0.5820479189299763,0.6651518186656811,1.1576609210905713,-0.13518467958609282,0.8104733513183328,0.579895977519078,1.3973720054232892,0.021400653951822786,-0.04224629443450371,0.7633097021971793,0.2378790530535346,1.4437112538656198,0.22535450201316803,-0.2861816518064374,1.6585527099064503,0.7744764419984167,0.0,-0.0
-0.03531630215020863,0.5858691008614191,0.6762459998963992,1.1660015386574178,-0.11808861110060982,0.7964562055691686,0.5748641472172443,1.3983516733006076,0.021400653951822786,-0.04224629443450371,0.7633097021971793,0.2378790530535346,1.4521477808742005,0.22756857658489843,-0.28781510349093903,1.6604932046946357,-0.7077475612862468,-0.0,-0.0
-0.056011532600368244,0.5813117620048869,0.666266817239458,1.1589408222725324,-0.1347413403989197,0.8095269133203022,0.580526820837602,1.3983637258557189,0.021400653951822786,-0.04224629443450371,0.7633097021971793,0.2378790530535346,1.4439527572172706,0.2254257262413647,-0.2862655570324571,1.6588490499815005,0.7742523281416722,0.0,-0.0
-0.03460692035928677,0.5852569497608106,0.6773675499709325,1.167238505809735,-0.11755869569761904,0.795456206975149,0.5754460900610527,1.3993214744163185,0.021400653951822786,-0.04224629443450371,0.7633097021971793,0.2378790530535346,1.4524272026272007,0.22764969175609412,-0.28790501099299703,1.660790629434697,-0.7084499274366544,-0.0,0.0
-0.05255886065544274,0.5812789521416172,0.6687371386283645,1.1611490620207638,-0.13200394096998452,0.806777525597657,0.5803802555566273,1.3993576849825282,0.021400653951822786,-0.04224629443450371,0.7633097021971793,0.2378790530535346,1.4453225658617563,0.2257920453152196,-0.2865628596070755,1.659372491912388,0.7745916599327941,-0.0,0.0
-0.02977234931961033,0.585439075000771,0.6800887360522945,1.1695780111892662,-0.11421354034964097,0.7923099327385269,0.574986345065463,1.400183316079862,0.021400653951822786,-0.04224629443450371,0.7633097021971793,0.2378790530535346,1.4540891230109947,0.22809147057529972,-0.2882521484819154,1.6613386651160675,-0.7081882227304442,-0.0,-0.0
-0.05034477783812617,0.5807155358679938,0.670369840535739,1.1628175894911945,-0.1307737085100376,0.8051740323540756,0.5807908556283359,1.400412004312798,0.021400653951822786,-0.04224629443450371,0.7633097021971793,0.2378790530535346,1.4459515895333301,0.2259651906145372,-0.2867222064731616,1.659761579185821,0.7740275558615576,0.0,0.0
-0.027628621138980295,0.5849452659121168,0.681599306562301,1.171107925505279,-0.11303816830180669,0.7907973903446128,0.575352092072676,1.4011603100031607,0.021400653951822786,-0.04224629443450371,0.7633097021971793,0.2378790530535346,1.4546849553042698,0.228255468714442,-0.2884019090472199,1.661700653941888,-0.707329506622463,0.0,-0.0
-0.046724638048565144,0.5806560249491132,0.6729095478611022,1.1650921298497574,-0.1279848493403637,0.802371051543599,0.5806391600914058,1.4014257198412847,0.021400653951822786,-0.04224629443450371,0.7633097021971793,0.2378790530535346,1.4473451508669941,0.22633799234168206,-0.2870244266954145,1.6602936850728722,0.7745844306983802,-0.0,-0.0
-0.03128578966310919,0.5836288016500603,0.6804412029308582,1.1705965248069872,-0.11592767151481229,0.792666921520279,0.5768500637075599,1.4018202657761074,0.021400653951822786,-0.04224629443450371,0.7633097021971793,0.2378790530535346,1.4532770765762781,0.22789277877484793,-0.2881607526920856,1.6615816675637611,-0.706413863417845,0.0,0.0
-0.05139000462847061,0.5790034821220814,0.6707881252903788,1.1638599006065078,-0.13161739956656943,0.8049082264512195,0.582282206896067,1.401945632170152,0.021400653951822786,-0.04224629443450371,0.7633097021971793,0.2378790530535346,1.4455720074545189,0.22587849934342358,-0.2867091000145127,1.660067396859563,0.7748611159661299,-0.0,-0.0
-0.029234168508420418,0.5830857491087167,0.6817798005415929,1.1719934551297317,-0.11432431290677467,0.7908635980451587,0.5770134879037349,1.402723220403428,0.021400653951822786,-0.04224629443450371,0.7633097021971793,0.2378790530535346,1.454081713561036,0.22811076816503836,-0.2883471490901861,1.6619672809850272,-0.706862307733372,0.0,0.0
-0.04842402292091817,0.5788312301740434,0.67299344236595,1.1658823586376774,-0.12933885544405155,0.8025278586470724,0.5822769661565375,1.4029241094278324,0.021400653951822786,-0.04224629443450371,0.7633097021971793,0.2378790530535346,1.446713264272256,0.2261850437663426,-0.2869622055147752,1.6605400422771204,0.7742657816619405,-0.0,-0.0
-0.03287952634635352,0.5819017087565029,0.6808401840306311,1.171626408249985,-0.11685778821806414,0.7924502265296052,0.5783965069033992,1.4033888248908086,0.021400653951822786,-0.04224629443450371,0.7633097021971793,0.2378790530535346,1.4528500848059995,0.22779417422306408,-0.2881395982629234,1.6618854563719188,-0.7081993508343634,0.0,0.0
-0.05413427378993248,0.5773108747173353,0.670982827538257,1.1647022345146616,-0.13348094077082764,0.8054495269988103,0.5841147564702033,1.403469164601868,0.021400653951822786,-0.04224629443450371,0.7633097021971793,0.2378790530535346,1.444692225654466,0.22566084803863617,-0.2866010989385174,1.6602708201903444,0.7745853130809266,0.0,-0.0
-0.03416362586741866,0.5810680608708586,0.6812548089947794,1.1723230751812337,-0.11745526796425476,0.79237664148803,0.5793075926353571,1.4042891384645781,0.021400653951822786,-0.04224629443450371,0.7633097021971793,0.2378790530535346,1.4525739822875223,0.2277294408830996,-0.2881216337955603,1.6620539157375693,-0.7073349358440263,0.0,-0.0
-0.04866299957945102,0.5778399648636303,0.6743046330810799,1.1674390994024928,-0.12911655309284537,0.8015092184035564,0.5833021212168575,1.404321898237901,0.021400653951822786,-0.04224629443450371,0.7633097021971793,0.2378790530535346,1.446853384998528,0.22623317924955108,-0.28704206840194413,1.6609164795003395,0.7735820456942807,0.0,-0.0
-0.02717350778604783,0.5820900368667814,0.6851478845692908,1.1753682769712626,-0.11186284400534896,0.7875882624168593,0.5779236151000138,1.4049504673662065,0.021400653951822786,-0.04224629443450371,0.7633097021971793,0.2378790530535346,1.4553304808568122,0.22845606176110758,-0.28866750766664306,1.662770153904225,-0.7065096958162478,0.0,-0.0
-0.047262633200782535,0.57737682180065,0.675764664333637,1.1689152758655097,-0.1280326793088316,0.8000661901298871,0.5837010880340588,1.4052997431596792,0.021400653951822786,-0.04224629443450371,0.7633097021971793,0.2378790530535346,1.4474068825969795,0.22638604052194386,-0.2871838381109099,1.661270527548281,0.774187276334192,0.0,0.0
-0.02698822755705696,0.5814393314810243,0.6859405639646492,1.1763240971392845,-0.11175337687001198,0.7869687826971823,0.5785768084924946,1.405832810173143,0.021400653951822786,-0.04224629443450371,0.7633097021971793,0.2378790530535346,1.4554000278190555,0.22848167281635898,-0.28871392428435894,1.6630025634936418,-0.7063682558011752,0.0,0.0
-0.04789649624965304,0.5767010134033397,0.6764714221205117,1.1698088717187227,-0.12811547225732525,0.7995904698756402,0.5844295711945201,1.4061918391155033,0.021400653951822786,-0.04224629443450371,0.7633097021971793,0.2378790530535346,1.4473860175682718,0.22638794783524419,-0.28721377632976863,1.6614881169402025,0.7745965019868991,0.0,0.0
-0.027646847963823995,0.5805838400396209,0.6863638138739626,1.1770317508282266,-0.11230711154014403,0.7868707962911259,0.5794546119760273,1.4067133142857402,0.021400653951822786,-0.04224629443450371,0.7633097021971793,0.2378790530535346,1.4551444199327046,0.22842219899486915,-0.28869882824242443,1.6631694512938822,-0.7063298164189666,-0.0,-0.0
-0.04256365792957806,0.577217652820998,0.679593884816583,1.1723673665774577,-0.12397841809497302,0.795886547352223,0.5836139581705899,1.4069474453986535,0.021400653951822786,-0.04224629443450371,0.7633097021971793,0.2378790530535346,1.4494301081332164,0.22692901084651607,-0.28762850716329147,1.6620848022979662,0.7738327149255446,-0.0,-0.0
-0.01931714760688377,0.5818867731797208,0.6907342166617813,1.1803820100717932,-0.10582145062865904,0.781430363041392,0.5776989985230895,1.407293909068771,0.021400653951822786,-0.04224629443450371,0.7633097021971793,0.2378790530535346,1.4583327430475466,0.2292613134214349,-0.2893227737537966,1.663950598809678,-0.7075228517216267,0.0,-0.0
-0.03782182308327041,0.5772373617969871,0.6822541973787728,1.174707771140484,-0.12027870026723908,0.7924058366941502,0.5830963737685115,1.407897862443911,0.021400653951822786,-0.04224629443450371,0.7633097021971793,0.2378790530535346,1.451262841094832,0.22741647099498977,-0.2880104529955066,1.662686671640009,0.773640303207108,-0.0,0.0
-0.015380855642487642,0.5819165843413909,0.6928296207079374,1.1822169937653875,-0.10274340249736272,0.7785775960201546,0.5772103970597691,1.4080146537836455,0.021400653951822786,-0.04224629443450371,0.7633097021971793,0.2378790530535346,1.4598521410447929,0.22966502758829407,-0.2896365784016218,1.6644318132080318,-0.7065307607382921,-0.0,-0.0
-0.035498679679316664,0.5768019612770882,0.6838435901030601,1.1762783912105637,-0.11895465991615486,0.7907816804842729,0.5833933184844851,1.40885834220083,0.021400653951822786,-0.04224629443450371,0.7633097021971793,0.2378790530535346,1.451930838288165,0.22759932264031463,-0.2881726279238893,1.663057448215239,0.7739143262462115,-0.0,0.0
-0.014828062624977607,0.5811882169582681,0.6935042478776494,1.1830921491394377,-0.10280164298487798,0.7780882797948112,0.5779126793003226,1.4088940755514,0.021400653951822786,-0.04224629443450371,0.7633097021971793,0.2378790530535346,1.4598376800634527,0.22966876532457906,-0.2896665854898484,1.6646452374750162,-0.7074774826438379,-0.0,-0.0
-0.03826891746222703,0.5754149684399263,0.6833703811849358,1.1763998142717962,-0.12116552910718471,0.7919142536552228,0.5849158430706066,1.4098453575088665,0.021400653951822786,-0.04224629443450371,0.7633097021971793,0.2378790530535346,1.4508685968503778,0.22732963898100117,-0.28800908141742965,1.6630890136560876,0.7740275452657982,-0.0,-0.0
-0.018143635040060085,0.5795961416546603,0.6928666273741108,1.1831456222642145,-0.10544534311364054,0.7794921006942677,0.5796707348238002,1.4099960313649134,0.021400653951822786,-0.04224629443450371,0.7633097021971793,0.2378790530535346,1.4585618911996991,0.22934430167085895,-0.289466804018613,1.6646617918350606,-0.7074407078537027,0.0,-0.0
-0.039503604577010076,0.5744483420761819,0.6835164114475021,1.1769052118300214,-0.12217004381172097,0.7921734572823693,0.5859367702477895,1.4107138121171774,0.021400653951822786,-0.04224629443450371,0.7633097021971793,0.2378790530535346,1.450395138774352,0.2272129971867866,-0.28795231711462993,1.6632093137452708,0.7738638542327807,0.0,-0.0
-0.019438997260030108,0.5785787163585525,0.6930222688683527,1.1836767367670002,-0.10650094981713518,0.779761204478576,0.5807478026650762,1.410916253706622,0.021400653951822786,-0.04224629443450371,0.7633097021971793,0.2378790530535346,1.45806098060172,0.22922103257474727,-0.28940658178788525,1.6647886791047322,-0.7071079350645899,0.0,-0.0
-0.03969785663306572,0.5734988551147396,0.6837342467758312,1.1774665771549977,-0.12232098819641543,0.7917898706918371,0.5866335499484152,1.411538851993263,0.021400653951822786,-0.04224629443450371,0.7633097021971793,0.2378790530535346,1.450338586415316,0.22720508578239598,-0.28797262767958043,1.6634022480613981,0.774054288024117,-0.0,-0.0
-0.017450821534796067,0.5780639128550684,0.6942852448171579,1.184988600029505,-0.10494953096796979,0.7780251940342622,0.5808853508389903,1.4117716991448046,0.021400653951822786,-0.04224629443450371,0.7633097021971793,0.2378790530535346,1.4588337809068574,0.22943056967889722,-0.2895843041043404,1.66515375924483,-0.707782734296532,-0.0,-0.0
-0.03826925759757364,0.5728495436967879,0.6849122464903671,1.1787577564181029,-0.1217128206849022,0.7907171872423733,0.5871911081053106,1.4125174260339595,0.021400653951822786,-0.04224629443450371,0.7633097021971793,0.2378790530535346,1.450656372442256,0.2272964389750534,-0.28806929690776156,1.6637077601249028,0.7745896802827282,0.0,0.0
-0.015869212999981615,0.5776790395328731,0.6957936290821597,1.1864670789071916,-0.1037244097538751,0.7764873982705852,0.5812071555809032,1.4127216739310569,0.021400653951822786,-0.04224629443450371,0.7633097021971793,0.2378790530535346,1.4594480430758896,0.22959944683972075,-0.28973553877884406,1.6655102561674568,-0.7073619874537057,-0.0,-0.0
-0.03524299290766594,0.5729399134878793,0.6873889147276879,1.1809077854185313,-0.11889427050019574,0.7879342620417005,0.58696329758233,1.4134576497309372,0.021400653951822786,-0.04224629443450371,0.7633097021971793,0.2378790530535346,1.452052885064089,0.22766985531856707,-0.28836796251652985,1.6642185690395297,0.7735337996132194,0.0,-0.0
-0.0135150877172916,0.5777464335005605,0.6978211524122012,1.1882255326344,-0.10143897227729456,0.7742268503554305,0.5810252823118611,1.4134918173553466,0.021400653951822786,-0.04224629443450371,0.7633097021971793,0.2378790530535346,1.4605765453543629,0.2299014404018623,-0.2899769759370712,1.6659245141169223,-0.7062628491697759,-0.0,0.0
-0.033859852692831136,0.5724409071426327,0.6887060886107247,1.182262860531979,-0.11733580780672175,0.7861475045612001,0.5871523276157004,1.414383175208395,0.021400653951822786,-0.04224629443450371,0.7633097021971793,0.2378790530535346,1.452832592179985,0.22788174816322335,-0.28854955402644994,1.6646022702246333,0.7740813460077117,0.0,0.0
-0.012032435348914825,0.5773885324396588,0.6992450595882441,1.1896171121932555,-0.10091093785870821,0.7729080938997294,0.5811991898317019,1.4142123865478056,0.021400653951822786,-0.04224629443450371,0.7633097021971793,0.2378790530535346,1.4611337278208036,0.23005448090994762,-0.2901129937815973,1.6662409012181003,-0.7069102059225792,0.0,0.0
-0.02990877086356465,0.572519911809115,0.6910338045994968,1.1842821971595838,-0.11477996943014084,0.7836074667831693,0.5868349570029728,1.4151405112240578,0.021400653951822786,-0.04224629443450371,0.7633097021971793,0.2378790530535346,1.4541395784789775,0.22823068239851668,-0.2888259143779899,1.6650603652937426,0.7740863796711973,0.0,0.0
-0.007051183991552291,0.5773224546103697,0.7010514819356741,1.1912273944536194,-0.09687481007998489,0.7696997032859685,0.5805449899934574,1.414927787487231,0.021400653951822786,-0.04224629443450371,0.7633097021971793,0.2378790530535346,1.4628702986727198,0.23051466861607475,-0.29046414366367374,1.6667440234548443,-0.7074984847860357,-0.0,-0.0
-0.02754004029343557,0.5717839392168871,0.6920806858978974,1.1854834219055614,-0.11234115029047881,0.7815090001104168,0.5869835970395015,1.4161594493155223,0.021400653951822786,-0.04224629443450371,0.7633097021971793,0.2378790530535346,1.4550778584512292,0.2284842108099624,-0.2890372572989654,1.6654754900586712,0.774389524571214,0.0,-0.0
-0.006297751363589756,0.5769858136252617,0.7024245233114363,1.1925645073981765,-0.09530565811694655,0.7683525987237073,0.5809007015775826,1.415834932937622,0.021400653951822786,-0.04224629443450371,0.7633097021971793,0.2378790530535346,1.463377342981783,0.2306546349590874,-0.2905903394977496,1.6670487196492858,-0.7080594185052154,-0.0,-0.0
-0.02508982771563247,0.5719353387020086,0.6943229999272059,1.1873991745899097,-0.11045588257399888,0.7795291551560488,0.5869735097279939,1.416978742220112,0.021400653951822786,-0.04224629443450371,0.7633097021971793,0.2378790530535346,1.4560124002096204,0.22873588363070102,-0.2892437721431906,1.6658628851639337,0.7745375888446185,-0.0,0.0
-0.00947249250657874,0.5755171586257684,0.7013380548875527,1.192175556811426,-0.09824524651394687,0.7701462407526604,0.5825522910624028,1.4166699492711414,0.021400653951822786,-0.04224629443450371,0.7633097021971793,0.2378790530535346,1.4619571673694318,0.23028996949256247,-0.29035322019450277,1.666970355754831,-0.7072086439298796,0.0,0.0
-0.029958094557227213,0.569871008373803,0.6920047841712813,1.18615981727263,-0.11471037255677219,0.7823909329485804,0.58903023112332,1.417751919953563,0.021400653951822786,-0.04224629443450371,0.7633097021971793,0.2378790530535346,1.4539532754236923,0.2282032598830202,-0.28888408300596624,1.665642907286052,0.7746379019918191,0.0,0.0
-0.01024315362400487,0.574447248154556,0.70140350732395,1.1926473279421477,-0.09987470939875474,0.7705098656486279,0.5835511089501901,1.417477922368356,0.021400653951822786,-0.04224629443450371,0.7633097021971793,0.2378790530535346,1.4614352722553074,0.2301611364024213,-0.2902882975751564,1.6670895847490939,-0.7046547633958864,-0.0,0.0
-0.024659876792487233,0.5706258966738649,0.6950153689513795,1.1885148678691557,-0.11113727608141427,0.7789162837991724,0.5879439324166101,1.4181667274554923,0.021400653951822786,-0.04224629443450371,0.7633097021971793,0.2378790530535346,1.4559615857884898,0.22873363581690268,-0.2892822049484399,1.666172188889598,0.7776958379361419,0.0,0.0
-0.0022933680993706546,0.5760186503994607,0.7054733897968252,1.1956137246434706,-0.0936974815329427,0.7655021676589207,0.5816450365266033,1.4177498430211448,0.021400653951822786,-0.04224629443450371,0.7633097021971793,0.2378790530535346,1.464447578013718,0.23095233473179796,-0.29086589512072497,1.6677539988987444,-0.7024522061371187,0.0,0.0
-0.02071851392811443,0.5708921668463033,0.6975591077443778,1.1906463647070928,-0.10810612465064257,0.7760752568894268,0.5874923975865384,1.4189248908435292,0.021400653951822786,-0.04224629443450371,0.7633097021971793,0.2378790530535346,1.457451952513973,0.2291303928577389,-0.2895909576107063,1.666653960865694,0.7784353202667982,0.0,0.0
-0.00467003121545026,0.5746818024223953,0.7046523677538283,1.195406800716675,-0.09555743610254933,0.7665007085942912,0.5828605020603944,1.4184993663441487,0.021400653951822786,-0.04224629443450371,0.7633097021971793,0.2378790530535346,1.463552989609192,0.2307245638815617,-0.2907247472295188,1.6677596594189297,-0.7000633446540091,0.0,0.0
-0.025522690324286435,0.5692186108252737,0.6959915233770602,1.1899160317006197,-0.11189742947289638,0.7785524858575799,0.5894158257845376,1.4197306955312419,0.021400653951822786,-0.04224629443450371,0.7633097021971793,0.2378790530535346,1.455620745873401,0.22865771480368755,-0.2892755654631908,1.6664882628660265,0.7766607192518408,0.0,0.0
-0.00279413000681002,0.5744105970018288,0.7062161173941762,1.1968804784391898,-0.09413748883241416,0.7648672465075999,0.5830317830237702,1.4193508410411455,0.021400653951822786,-0.04224629443450371,0.7633097021971793,0.2378790530535346,1.464256249559769,0.23091613494884922,-0.29088838873886513,1.6681073972852538,-0.6941631837294588,0.0,0.0
-0.02392682874423684,0.5688088185794753,0.6975070914452326,1.1914033378566367,-0.11069967656925567,0.7770343914490432,0.5897377226409812,1.4206754294139963,0.021400653951822786,-0.04224629443450371,0.7633097021971793,0.2378790530535346,1.4562213905925188,0.22882307630353493,-0.28942348527745054,1.666839247091081,0.7822895489686721,0.0,0.0
-0.003423491435783573,0.5735483942791176,0.7066727309414559,1.1976103177305264,-0.09467693155156023,0.7647276234924154,0.5839262534656302,1.4202695344660479,0.021400653951822786,-0.04224629443450371,0.7633097021971793,0.2378790530535346,1.4640070146274649,0.23085883660586815,-0.2908749981671388,1.6682825499789218,-0.695371300372582,0.0,0.0
-0.018048724000616263,0.5696850593834264,0.7006319035231967,1.1938046425560882,-0.10613701842708897,0.773158730821109,0.588551946944266,1.421164922796222,0.021400653951822786,-0.04224629443450371,0.7633097021971793,0.2378790530535346,1.4584496500251523,0.22941088393371334,-0.2898611652258799,1.6674009046676939,0.7747067719523066,0.0,0.0
0.0044364531996640665,0.5753623761373843,0.7108816241824306,1.2005986441383971,-0.08859596974784589,0.7598476003035989,0.5819827112919861,1.4204570981488218,0.021400653951822786,-0.04224629443450371,0.7633097021971793,0.2378790530535346,1.4669654428034737,0.23163542206737275,-0.2914389172385395,1.6689140578585853,-0.7017415654640028,0.0,0.0
-0.014157670329172267,0.5699803581840858,0.7031120612606065,1.1958639192285523,-0.10314602735762828,0.7703714845945726,0.5880799352051913,1.4218849272397331,0.021400653951822786,-0.04224629443450371,0.7633097021971793,0.2378790530535346,1.4599164327348246,0.22980129402350968,-0.2901636749915648,1.6678672893069708,0.7804630276462922,0.0,0.0
0.008063283515069353,0.5757363315674205,0.7130921279545512,1.2023878454150148,-0.08580403398993125,0.7573169800452022,0.5814505409758167,1.4210147424311537,0.021400653951822786,-0.04224629443450371,0.7633097021971793,0.2378790530535346,1.468328858352534,0.23199750115049678,-0.2917157965319407,1.669319366875865,-0.6975993087436008,0.0,0.0
-0.013036665520390223,0.5697639209470692,0.7047896186477006,1.197414487328021,-0.10236223254520538,0.7691985349946946,0.588506812936328,1.4227908162783103,0.021400653951822786,-0.04224629443450371,0.7633097021971793,0.2378790530535346,1.4603125550570633,0.2299129048188057,-0.2902712182309702,1.6681665525321427,0.7736162231784262,-0.0,-0.0
0.010128515140916217,0.575545886330656,0.7147081450374861,1.203869136719616,-0.08423882308918067,0.7555856392395381,0.5815399652889958,1.4218351773146485,0.021400653951822786,-0.04224629443450371,0.7633097021971793,0.2378790530535346,1.4690988247843573,0.23220646743262585,-0.2918903701248301,1.669670824774925,-0.7040432344864299,-0.0,-0.0
-0.008697853940180963,0.5701545174595459,0.707365944446566,1.199515050103703,-0.09901605878050493,0.7661415808051195,0.5878967362219343,1.423494999089989,0.021400653951822786,-0.04224629443450371,0.7633097021971793,0.2378790530535346,1.4619494799303732,0.23034785615774075,-0.2906049193475572,1.6686617577417568,0.7729646654629316,-0.0,-0.0
0.014437755193666062,0.5760916456109475,0.7171035092175849,1.205748886024604,-0.08090666064350917,0.7526624719360699,0.5807789988811196,1.4223415561050212,0.021400653951822786,-0.04224629443450371,0.7633097021971793,0.2378790530535346,1.47072154063029,0.23263613857007295,-0.2922139638678775,1.6701140164996215,-0.7057213635222574,-0.0,-0.0
-0.006611803924512719,0.5699201012057254,0.7090448153443194,1.201068085403797,-0.09743852892230731,0.7643588156981145,0.588029495352022,1.424378378595354,0.021400653951822786,-0.04224629443450371,0.7633097021971793,0.2378790530535346,1.4627292915713366,0.23055987677033432,-0.29078362398560936,1.669030467926827,0.7735198031648078,0.0,0.0
0.016131231059593392,0.5761080384199769,0.7189550276151144,1.2073537000704277,-0.0796759718277346,0.7511955324675166,0.5809746155316025,1.4231557287286758,0.021400653951822786,-0.04224629443450371,0.7633097021971793,0.2378790530535346,1.4713273660005906,0.23280213778181755,-0.29235718063208394,1.6704305758637195,-0.7051159664046304,-0.0,-0.0
-0.002355558395270199,0.5703968846362304,0.7116047572797642,1.2031194754410037,-0.0941622849719862,0.7614078416606702,0.587373766458288,1.4249976644123525,0.021400653951822786,-0.04224629443450371,0.7633097021971793,0.2378790530535346,1.4643283339526456,0.23098428877496505,-0.29110682698052603,1.6694963909466898,0.7733841953623656,0.0,0.0
0.01364759923456842,0.5748634053320535,0.7184620657284584,1.2073957590319986,-0.08165738282221652,0.7522242190483243,0.5823022259720898,1.4240030398723653,0.021400653951822786,-0.04224629443450371,0.7633097021971793,0.2378790530535346,1.4703765988571882,0.23256052189672227,-0.29220872481903415,1.6704479734375668,-0.7060964111711675,-0.0,-0.0
-0.006965709172293558,0.5685767532949008,0.7101817430907288,1.202572204722509,-0.09780268391663346,0.7636711770252353,0.5893557912529422,1.4259496576190942,0.021400653951822786,-0.04224629443450371,0.7633097021971793,0.2378790530535346,1.462577349885824,0.23053379505442267,-0.2908117377059406,1.66938192421542,0.7738274273138359,-0.0,0.0
0.01441292658880624,0.5741273291002351,0.7191117567611033,1.2082404782615912,-0.0810690774432855,0.7512598058484206,0.5827212128211002,1.4248188233552301,0.021400653951822786,-0.04224629443450371,0.7633097021971793,0.2378790530535346,1.470670940376866,0.23264491011031146,-0.29229336674759865,1.6707035169096265,-0.705545835187976,0.0,0.0
-0.006606564113692318,0.567962519476452,0.7110679028880381,1.2035774864322786,-0.0975729835782287,0.762940831247119,0.589957149812181,1.4268389976337328,0.021400653951822786,-0.04224629443450371,0.7633097021971793,0.2378790530535346,1.4627026347478662,0.23057439551692055,-0.2908673804056212,1.6696226312001887,0.7738130600117304,0.0,0.0
0.01645522681102706,0.5739653235932134,0.7206846693819168,1.209668890202064,-0.07952256497664287,0.74956217031969,0.5827876381114006,1.425606264845875,0.021400653951822786,-0.04224629443450371,0.7633097021971793,0.2378790530535346,1.4714286747563763,0.232850512577664,-0.2924640881806557,1.671043393657799,-0.7060002626660523,0.0,0.0
-0.004061566088399329,0.5676240418782315,0.7125337997265968,1.2049830056778075,-0.09559651720294157,0.7608877963313956,0.5898983917119418,1.4276536537997353,0.021400653951822786,-0.04224629443450371,0.7633097021971793,0.2378790530535346,1.4636729821869665,0.2308358233709174,-0.29107921478523924,1.6700116516869774,0.773734267009842,0.0,0.0
0.016113853112301332,0.5731934117748108,0.7212383063559052,1.2104428446312812,-0.07983922657152813,0.7492723741560728,0.5835590638991329,1.4264763592320258,0.021400653951822786,-0.04224629443450371,0.7633097021971793,0.2378790530535346,1.4712849978173976,0.2328206096004013,-0.29246819779397676,1.6712254430093447,-0.7030170545590295,0.0,0.0
0.0012296579331606394,0.5687871540226997,0.7155857472930345,1.207197768568735,-0.09152683521454354,0.7575147201227712,0.5887212758776071,1.4279518309900272,0.021400653951822786,-0.04224629443450371,0.7633097021971793,0.2378790530535346,1.4656481055759203,0.23135611574674456,-0.29146131781436874,1.6704729969182113,0.7755007062855866,0.0,0.0
0.024404033022877476,0.5751088326414555,0.7249484692752463,1.2129408476301171,-0.07337097886167837,0.7442807388387833,0.5812299552223987,1.426354502520952,0.021400653951822786,-0.04224629443450371,0.7633097021971793,0.2378790530535346,1.4744123428545137,0.23363932735003148,-0.29305169209444454,1.6718111488361842,-0.7029533751373591,0.0,0.0
0.0055649403758007455,0.5692888134399436,0.7180494903528111,1.20914761666914,-0.08818286204955526,0.7545304370150474,0.5880096728103685,1.4285372118003958,0.021400653951822786,-0.04224629443450371,0.7633097021971793,0.2378790530535346,1.4672748786024774,0.23178770382631253,-0.2917880518686374,1.6709344637574066,0.7753953899496254,0.0,0.0
0.02181808523346849,0.5738341038439423,0.7244995617438136,1.2130298116395697,-0.07544227103839889,0.7453303298194619,0.5826447380935104,1.4272778326538296,0.021400653951822786,-0.04224629443450371,0.7633097021971793,0.2378790530535346,1.4734201666985118,0.23338752077357575,-0.2928980512843013,1.6718384075877513,-0.7023999262149406,-0.0,0.0
0.0008784829293577955,0.5674483825260778,0.7167440269711773,1.2087088888676543,-0.0918978008727411,0.7567869424674413,0.5900939832675753,1.4295897494086096,0.021400653951822786,-0.04224629443450371,0.7633097021971793,0.2378790530535346,1.4654922289447583,0.23132971623790488,-0.29149057981513965,1.670838106806771,0.7739165415111049,0.0,0.0
0.02351969649522398,0.5738919768204035,0.72631357316856,1.2145799934762624,-0.07420598628372636,0.7438796151674402,0.5828065425840269,1.428056193066122,0.021400653951822786,-0.04224629443450371,0.7633097021971793,0.2378790530535346,1.474025359915446,0.23355317809978757,-0.29303946292698313,1.6721449136459763,-0.7059122804332375,-0.0,0.0
0.004865914411631998,0.5679072315525518,0.7191316969060034,1.2106097983567567,-0.08883230972684496,0.7540255288440224,0.5894736288471736,1.4301685949382597,0.021400653951822786,-0.04224629443450371,0.7633097021971793,0.2378790530535346,1.466982936184628,0.23172562046797407,-0.2917914171759667,1.6712710706706737,0.7743515489711307,-0.0,0.0
0.028118555206013026,0.5743893522555737,0.7283805696018579,1.216184400977165,-0.07060974782121174,0.740844377944055,0.5818259558129741,1.428407863633141,0.021400653951822786,-0.04224629443450371,0.7633097021971793,0.2378790530535346,1.475765457330986,0.23401260776555355,-0.2933788456190354,1.672571092905652,-0.7063173882018697,-0.0,0.0
0.0069900274423846075,0.5677373092871122,0.7207752782784838,1.2120982724331268,-0.08722797588259064,0.7522496000087213,0.5895490392837051,1.4310016620372346,0.021400653951822786,-0.04224629443450371,0.7633097021971793,0.2378790530535346,1.467769696826779,0.23193928609419662,-0.2919688924502953,1.671626429650342,0.7744036103040148,0.0,-0.0
0.03036685079005398,0.5743332586582088,0.729990571928425,1.2175972565697017,-0.06890385229328687,0.7390552112087087,0.5817830955332849,1.4291365115762573,0.021400653951822786,-0.04224629443450371,0.7633097021971793,0.2378790530535346,1.4765951478057366,0.2342367769004733,-0.29356045124943986,1.6729087755437513,-0.7073252319918496,-0.0,-0.0
0.011824782041608674,0.5681922968845208,0.723055781350236,1.213903124407901,-0.08345675913971581,0.7489919955277984,0.5886084332028106,1.431487206312969,0.021400653951822786,-0.04224629443450371,0.7633097021971793,0.2378790530535346,1.4695976321334165,0.23242290127090315,-0.29232950108232514,1.6721019859946928,0.7744194956612203,0.0,0.0
0.03516188181156926,0.5749447008897498,0.7320780183727456,1.219173552733147,-0.06515169335691232,0.7359514648021517,0.5806772110371616,1.4294004155541427,0.021400653951822786,-0.04224629443450371,0.7633097021971793,0.2378790530535346,1.4784067908152259,0.23471430677989613,-0.2939099224668994,1.67332682370623,-0.7074047883159469,-0.0,-0.0
0.014079410166327442,0.5680861702808911,0.7247252794501885,1.215386449616071,-0.08175089599906385,0.7471576228758897,0.5886153760736673,1.4322833334824683,0.021400653951822786,-0.04224629443450371,0.7633097021971793,0.2378790530535346,1.4704309267140168,0.23264854908183108,-0.2925141423619414,1.6724564253679643,0.7740861501827446,-0.0,-0.0
0.036994318504579266,0.5750844770482721,0.7339118005617449,1.2207024216103601,-0.06381564846026294,0.7344431985598937,0.5807664393024495,1.4301405213069445,0.021400653951822786,-0.04224629443450371,0.7633097021971793,0.2378790530535346,1.4790562465299881,0.23489141578023576,-0.2940578608854672,1.6736309114736883,-0.706454578356882,0.0,0.0
0.017995218357209092,0.5688412877406996,0.7273503950198644,1.2173718198106793,-0.07877784244297137,0.7445030954095162,0.5879716195454368,1.4328023457355987,0.021400653951822786,-0.04224629443450371,0.7633097021971793,0.2378790530535346,1.4718712825083533,0.23303095942413316,-0.29280287765430546,1.6728628573324478,0.7742287417952743,-0.0,-0.0
0.040847379470409825,0.5759732518051329,0.7363544478851181,1.2224752054813255,-0.06088226920380946,0.7319250972917495,0.5800069489585165,1.430492570526612,0.021400653951822786,-0.04224629443450371,0.7633097021971793,0.2378790530535346,1.4804713711382014,0.23526586477142483,-0.29433578524341897,1.6739915144531652,-0.7081519671153236,0.0,0.0
0.019804508630419337,0.5689249106919522,0.7292276019233834,1.218959828202125,-0.07746377802743425,0.7429737267671458,0.5881110233648271,1.4335993017055102,0.021400653951822786,-0.04224629443450371,0.7633097021971793,0.2378790530535346,1.4725138132801636,0.23320667804172504,-0.29295151326429625,1.6731791935472162,0.774369983896755,0.0,0.0
0.0431074105920744,0.5759807757345018,0.737912225606604,1.2238121948961456,-0.059167446771737395,0.7301634395958251,0.5799066794659898,1.4311612127838624,0.021400653951822786,-0.04224629443450371,0.7633097021971793,0.2378790530535346,1.4813009885328228,0.23548966826571685,-0.2945148403126238,1.6743129023390317,-0.7075133929599272,0.0,0.0
0.022363325297790063,0.5686877540791522,0.7305998485372918,1.2202322314638392,-0.07547931580216138,0.7409748494363999,0.5879479128120843,1.4343062952581167,0.021400653951822786,-0.04224629443450371,0.7633097021971793,0.2378790530535346,1.473477699570974,0.23346591241386216,-0.2931572111637629,1.6735364783631113,0.7767774862931702,0.0,0.0
0.042948512098827794,0.5752554730908465,0.7385602520456048,1.2246394619920655,-0.05935048666129216,0.7297475788487316,0.5806351091191451,1.4320545270299627,0.021400653951822786,-0.04224629443450371,0.7633097021971793,0.2378790530535346,1.4812186482309164,0.2354762962082303,-0.29453059227026424,1.674509597407152,-0.7048969091357533,0.0,0.0
0.021808323085688305,0.568106742551221,0.7314732004720365,1.2212005871902438,-0.07601224125000056,0.7407971851216005,0.5888427254268566,1.4352548023068135,0.021400653951822786,-0.04224629443450371,0.7633097021971793,0.2378790530535346,1.47323123014213,0.23340984745392124,-0.29314421150210684,1.6737148878154717,0.7740877956794452,0.0,0.0
0.04527249803922692,0.5752856157500951,0.7401391861873736,1.2259846069397669,-0.057586340579690164,0.727951640842732,0.5805104224813665,1.4327157181131434,0.021400653951822786,-0.04224629443450371,0.7633097021971793,0.2378790530535346,1.4820707525835657,0.2357059829880908,-0.29471348769150757,1.674833203964571,-0.70436460117446,-0.0,-0.0
0.024268252811442483,0.5681087434360242,0.733177033789083,1.2226659642714088,-0.07414661117345017,0.7388738936251725,0.5887397917942787,1.435989155430098,0.021400653951822786,-0.04224629443450371,0.7633097021971793,0.2378790530535346,1.4741369617927098,0.23365412803987817,-0.2933398259170146,1.6740669187794728,0.773303459415564,0.0,0.0
0.04487653747896114,0.5747557533970151,0.7410722298875865,1.2269805684227564,-0.057997254971508636,0.7276769976036915,0.5813613495835132,1.4336676310993874,0.021400653951822786,-0.04224629443450371,0.7633097021971793,0.2378790530535346,1.4818791112292884,0.23566448351231611,-0.29471070751067774,1.6750223353421336,-0.7057673508982363,-0.0,-0.0
0.030356428989731114,0.5696049079378492,0.7360020948562386,1.2245393623932128,-0.06941586465385505,0.7352177641616229,0.5870252373736887,1.4359077855573807,0.021400653951822786,-0.04224629443450371,0.7633097021971793,0.2378790530535346,1.4764111299502094,0.23425009988944198,-0.2937634970906035,1.6744908270156775,0.7740065110946106,0.0,0.0
0.05338652153811486,0.5772533923557832,0.7445938874094946,1.2290769862632325,-0.05135144849092635,0.7228667472221405,0.5785625457885338,1.4330351007602073,0.021400653951822786,-0.04224629443450371,0.7633097021971793,0.2378790530535346,1.4850657098016717,0.23649497065583458,-0.2952861161308412,1.6754919768447205,-0.7067225428451346,0.0,-0.0
0.03480635546414787,0.5704171732430462,0.7383671228299717,1.2262690099102562,-0.06598479781047434,0.7323301283354342,0.5860548296334459,1.4362214920118965,0.021400653951822786,-0.04224629443450371,0.7633097021971793,0.2378790530535346,1.4780629267469547,0.23468644112423573,-0.29408409134696295,1.6748867080191403,0.7734348880691228,-0.0,-0.0
0.05100290308129274,0.5759091657796956,0.744290461869992,1.2293135068759757,-0.05327186300175774,0.7237270476483606,0.5799922173576173,1.4340595979961521,0.021400653951822786,-0.04224629443450371,0.7633097021971793,0.2378790530535346,1.4841494794818313,0.23626401627061813,-0.2951498801669302,1.6755565912485073,-0.7094645403458812,0.0,0.0
0.029658984146631606,0.5684203770586572,0.7374237942386824,1.2261987338178866,-0.07011418214790385,0.7346858238195091,0.5885390918354767,1.4376195824052576,0.021400653951822786,-0.04224629443450371,0.7633097021971793,0.2378790530535346,1.4760917704512115,0.2341819491154391,-0.2937631678340656,1.674835408450836,0.7755615508885633,0.0,-0.0
0.05319909575661291,0.5759202810293536,0.7458054065565439,1.2306059091581762,-0.05160989772105781,0.7220087655233421,0.579898079676624,1.4347219681932097,0.021400653951822786,-0.04224629443450371,0.7633097021971793,0.2378790530535346,1.4849496769804043,0.23648022952568282,-0.2953228060973653,1.6758691414997797,-0.7114077336976914,-0.0,-0.0
0.034206420518987896,0.5691938425666117,0.7397625615887202,1.2279173131536454,-0.06660191634928112,0.7317123721375438,0.5875666889912505,1.4379693868394818,0.021400653951822786,-0.04224629443450371,0.7633097021971793,0.2378790530535346,1.4777816127435508,0.2346286493768236,-0.294092074847556,1.675247138072529,0.7703495218140467,-0.0,-0.0
0.057548639603189226,0.5770963559366615,0.7483133766536374,1.232315466785718,-0.0482845345250044,0.7192943710451688,0.5788552866931469,1.4348946951546468,0.021400653951822786,-0.04224629443450371,0.7633097021971793,0.2378790530535346,1.48654378071769,0.23690034832177656,-0.2956274536662226,1.6762193287984373,-0.7160575612794653,-0.0,-0.0
0.03690769073524523,0.569362821616594,0.74154406676314,1.229381549553574,-0.06455034727503958,0.7297109053767419,0.5873053253115372,1.4385917243132875,0.021400653951822786,-0.04224629443450371,0.7633097021971793,0.2378790530535346,1.4787713758056225,0.23489417063764334,-0.29429910139950854,1.675586821933385,0.7690738449820252,-0.0,-0.0
0.05811018934366572,0.5766304433426533,0.749216373340365,1.2332588462919887,-0.04790575214892927,0.7184967526946938,0.5793052432767309,1.435689219199347,0.021400653951822786,-0.04224629443450371,0.7633097021971793,0.2378790530535346,1.4867281905517002,0.23695621467056988,-0.29568939842749364,1.6764427731366593,-0.7256573346586744,-0.0,-0.0
0.03740261168489696,0.5688543504974944,0.7424442407778671,1.2303407039990335,-0.06422453770931785,0.7289346321055027,0.587798576407772,1.4394157511291823,0.021400653951822786,-0.04224629443450371,0.7633097021971793,0.2378790530535346,1.4789343377603166,0.2349445454416671,-0.2943581251568856,1.6758135586431395,0.764599733962433,-0.0,-0.0
0.06100107064995451,0.5769618069567076,0.7509636477555716,1.2346291096381128,-0.045698934743545847,0.7164658279689992,0.5788779968478186,1.436167684675183,0.021400653951822786,-0.04224629443450371,0.7633097021971793,0.2378790530535346,1.4877858959074217,0.23723844610690023,-0.2959039766596756,1.6767606219407452,-0.7228546762669973,-0.0,-0.0
0.04057976792781216,0.5692029301939713,0.744382159522163,1.2318698953795484,-0.06179967195582545,0.7266910129599911,0.5873432138329434,1.4399571865127079,0.021400653951822786,-0.04224629443450371,0.7633097021971793,0.2378790530535346,1.4801008212163174,0.23525578583829146,-0.2945953168062671,1.6761677558842718,0.7617117913670342,-0.0,-0.0
0.06215132684247873,0.5764362913859351,0.751679745439958,1.235434509368032,-0.044816180419843664,0.7153442397973183,0.5790644121699294,1.4368484396426424,0.021400653951822786,-0.04224629443450371,0.7633097021971793,0.2378790530535346,1.4882101728956207,0.23735627655279842,-0.29600682050121796,1.6770032036966134,-0.7189088228171366,-0.0,-0.0
0.04175643436366817,0.5686607142439587,0.7451370427275809,1.2327160914465503,-0.06089865708922886,0.7255286941489213,0.5875546472469579,1.4406771267152254,0.021400653951822786,-0.04224629443450371,0.7633097021971793,0.2378790530535346,1.480537744226575,0.23537717131921718,-0.29470194446897235,1.676422452464472,0.7595415018657233,-0.0,-0.0
0.06507734730029875,0.5768201885253674,0.7533979349316555,1.2367583149341381,-0.042579609238636344,0.713323542197012,0.5785834443726384,1.4372726641188962,0.021400653951822786,-0.04224629443450371,0.7633097021971793,0.2378790530535346,1.4892801319857811,0.23764129769376408,-0.29622168902685764,1.6773099713278394,-0.7172321389378241,-0.0,-0.0
0.046705947231363384,0.5697342090293627,0.7475925037992035,1.234416978705882,-0.0570735546427277,0.7224351824619356,0.5863125337844258,1.440826002363875,0.021400653951822786,-0.04224629443450371,0.7633097021971793,0.2378790530535346,1.4823695542396567,0.23585957149902975,-0.2950500383790784,1.676811924376032,0.7610891880525944,-0.0,-0.0
0.06343981820246272,0.575494384321949,0.7530933235198554,1.2369866941976355,-0.04388611894872128,0.7137519442959126,0.5797326202435249,1.4382138231174493,0.021400653951822786,-0.04224629443450371,0.7633097021971793,0.2378790530535346,1.4886588219786794,0.23748698501907237,-0.296137641535995,1.6774113790014218,-0.7130091091619123,-0.0,-0.0
0.04276497128589482,0.5675789985262267,0.7464977148849223,1.234278369593374,-0.06019136748406109,0.7240465315365957,0.5883781751625209,1.4421398818570927,0.021400653951822786,-0.04224629443450371,0.7633097021971793,0.2378790530535346,1.4808871067929281,0.2354824736379442,-0.2948176449201646,1.67683517714846,0.7646096769094286,-0.0,-0.0
0.06347229949685865,0.5748495102092493,0.7538040661542633,1.237829442838743,-0.043924543015452094,0.7132326262396655,0.5803815345955077,1.4390830017554854,0.021400653951822786,-0.04224629443450371,0.7633097021971793,0.2378790530535346,1.4886429942595782,0.23749102422709764,-0.29616446548483477,1.6776130011332306,-0.708342715094457,0.0,-0.0
0.04838861910070813,0.5692801586330227,0.7492511118434202,1.2359989315183268,-0.055848324906543435,0.7207620282322006,0.5867035785508601,1.4419505680780702,0.021400653951822786,-0.04224629443450371,0.7633097021971793,0.2378790530535346,1.4829623583770069,0.23602573384916326,-0.2951996085351509,1.6771916671696594,0.7713140014924277,0.0,0.0
0.06970727885805628,0.5766722376808802,0.7562013272038596,1.2391996668519933,-0.039044411181095987,0.7097398012895553,0.5782677968175691,1.4385588568347436,0.021400653951822786,-0.04224629443450371,0.7633097021971793,0.2378790530535346,1.4909698839009762,0.23809737297036562,-0.2965819418699475,1.677938555651849,-0.7058356942735616,0.0,-0.0
0.05512347475873387,0.5709516813946609,0.7516968934812073,1.2374680093864865,-0.05055892851519452,0.7168945915845197,0.5845054199552854,1.441509166021392,0.021400653951822786,-0.04224629443450371,0.7633097021971793,0.2378790530535346,1.4854867969480896,0.23668469706407383,-0.29565689416248364,1.677574822233847,0.7729539852592119,0.0,-0.0
0.07809725581934387,0.5794512349212076,0.7593418323294524,1.2408497307747905,-0.03247217660223936,0.7052265726745262,0.5751975176021533,1.437551282586198,0.021400653951822786,-0.04224629443450371,0.7633097021971793,0.2378790530535346,1.494100766652975,0.2389104588865849,-0.2971332373803363,1.6783049022339647,-0.7065389468308223,0.0,0.0
0.0589783342172676,0.5719751175386054,0.7540233762952003,1.2390680273876042,-0.04762901239012444,0.7144375221037356,0.5836417720006621,1.4417572594849175,0.021400653951822786,-0.04224629443450371,0.7633097021971793,0.2378790530535346,1.486886658310813,0.23705479592999257,-0.29592720626701224,1.6779022351479242,0.7741310762434437,0.0,-0.0
0.07552842117352312,0.5779774216345037,0.7591361992570107,1.2412115429261936,-0.03455917627072272,0.706084596532832,0.5768241108470387,1.438775225136626,0.021400653951822786,-0.04224629443450371,0.7633097021971793,0.2378790530535346,1.4931076111828419,0.23866117836097478,-0.2969891234219936,1.678400046420817,-0.7071798219196277,-0.0,-0.0
0.05477320689259392,0.569652160328422,0.7529244762963618,1.238986580271078,-0.05096409726333448,0.7161257261421401,0.585884559856499,1.443213484587904,0.021400653951822786,-0.04224629443450371,0.7633097021971793,0.2378790530535346,1.485302198883974,0.2366522321953637,-0.2956804622189481,1.6779385101425364,0.7738202306769701,0.0,-0.0
0.07548984853624552,0.5773064565557547,0.7598290321281702,1.242044141739807,-0.03465735761446566,0.7055927546123774,0.5775056126428517,1.4396704345137477,0.021400653951822786,-0.04224629443450371,0.7633097021971793,0.2378790530535346,1.4930615449314601,0.23865762948752448,-0.29701095618203455,1.6786006011648078,-0.7054619949838534,-0.0,0.0
0.06079988025292179,0.5714154831979169,0.7554310949573534,1.2404693594581049,-0.04626741436171015,0.7127017004316407,0.5839158353785561,1.442805554898185,0.021400653951822786,-0.04224629443450371,0.7633097021971793,0.2378790530535346,1.4875401782895632,0.2372364084672934,-0.2960851262225847,1.6782733872614846,0.7733728084998138,0.0,0.0
0.08386346888406518,0.5801488978392716,0.7628911604386023,1.2436003309568417,-0.028093242036051888,0.7011374229737021,0.5743750060546343,1.438583027239496,0.021400653951822786,-0.04224629443450371,0.7633097021971793,0.2378790530535346,1.496183812829103,0.23946787132695516,-0.2975577774459567,1.6789457469416424,-0.7060684953350275,0.0,0.0
0.06549024887329809,0.5723528260981002,0.757410535801444,1.2418062719071346,-0.04305231166146659,0.7100924376184692,0.5828631594718101,1.4429401736026197,0.021400653951822786,-0.04224629443450371,0.7633097021971793,0.2378790530535346,1.489072851534246,0.23764045233377132,-0.2963762438566529,1.678598842020836,0.7739281077063193,0.0,-0.0
0.08856023670168897,0.5812465942423549,0.7647020729134564,1.2447330818190097,-0.02485808366780418,0.6986356576871031,0.5731729527635022,1.438526617212613,0.021400653951822786,-0.04224629443450371,0.7633097021971793,0.2378790530535346,1.4977210520583153,0.23987146656745376,-0.2978431750653379,1.6792268283116172,-0.7067704018755384,0.0,0.0
0.06776912776200955,0.572504552131338,0.75891844385481,1.2430270686908818,-0.04133326674107528,0.7083870829940746,0.5826454695898896,1.4434960421066312,0.021400653951822786,-0.04224629443450371,0.7633097021971793,0.2378790530535346,1.4898931856143633,0.23786134795820174,-0.29654839570272473,1.6788853845640193,0.7741324876984742,-0.0,0.0
0.09073417732427436,0.5813509543480806,0.7659850638645616,1.2457779767395205,-0.022653518237408736,0.696690669351829,0.57261984289566,1.4388640205819712,0.021400653951822786,-0.04224629443450371,0.7633097021971793,0.2378790530535346,1.4987670292577373,0.24014976871547647,-0.2980500209770418,1.6795050914512655,-0.706750206868647,0.0,0.0
0.07087331909763504,0.5732210902240827,0.7608596388526113,1.244405023876787,-0.038436843660726215,0.7059601509658303,0.5817756058238936,1.4437346671782354,0.021400653951822786,-0.04224629443450371,0.7633097021971793,0.2378790530535346,1.4912719459668826,0.2382260468587466,-0.29681410642285205,1.6792045508508888,0.7762061222615763,0.0,0.0
0.09346894038766065,0.5820365931364492,0.7676931638198603,1.246966460779246,-0.0200459980876032,0.6945543982833373,0.5717791344933614,1.43900519257161,0.021400653951822786,-0.04224629443450371,0.7633097021971793,0.2378790530535346,1.5000034135261338,0.24047628857848424,-0.29828575189582857,1.6797737154196284,-0.6949209014704334,0.0,0.0
0.07286348213803714,0.5732996859458432,0.7622221359782284,1.245526221385895,-0.03689745661330149,0.7043594111375872,0.5816563305930088,1.4443452359395599,0.021400653951822786,-0.04224629443450371,0.7633097021971793,0.2378790530535346,1.4920050925353319,0.2384246383422686,-0.29697166799565855,1.679486217064009,0.7742992649009875,-0.0,0.0
0.09500474025729685,0.5820034620554183,0.7688472375694085,1.247949379641259,-0.018869536341340747,0.6932359340125405,0.5717909584105328,1.439622656370863,0.021400653951822786,-0.04224629443450371,0.7633097021971793,0.2378790530535346,1.5005592536853365,0.2406285106522198,-0.29841035544921596,1.6800225812172476,-0.7043648479057125,-0.0,-0.0
0.07385297836638749,0.5729876871234872,0.7632831742624293,1.246534131209046,-0.036173247873230396,0.7032619888498262,0.5819807053113951,1.4451682693092875,0.021400653951822786,-0.04224629443450371,0.7633097021971793,0.2378790530535346,1.4923506715017607,0.23852339822002136,-0.29706393841336654,1.6797429366556178,0.7726317879283505,-0.0,-0.0
0.09390145964487139,0.580897900566231,0.7692504423209922,1.2486883630419814,-0.019846395131842172,0.6932124020096819,0.5730173115355397,1.4408561351860678,0.021400653951822786,-0.04224629443450371,0.7633097021971793,0.2378790530535346,1.5000932249277819,0.2405179708247307,-0.29836480494406836,1.6802192483088978,-0.7075788301671452,0.0,-0.0
0.07258919696560319,0.5718501436375386,0.7636041580788905,1.247218009857548,-0.03727680556889513,0.7033484588293152,0.5832433557169466,1.4463825783729753,0.021400653951822786,-0.04224629443450371,0.7633097021971793,0.2378790530535346,1.4918289381462166,0.23839786022669573,-0.2970073663805488,1.679924989989468,0.7740055710798673,-0.0,-0.0
0.09482933807598534,0.5805822914918568,0.7702699509300057,1.2496597847975137,-0.019170278437114073,0.6921621298358633,0.5733478410496843,1.4416679994752666,0.021400653951822786,-0.04224629443450371,0.7633097021971793,0.2378790530535346,1.500411096701122,0.24060951082060733,-0.2984514507343602,1.6804677533387842,-0.7080311174599903,0.0,-0.0
0.07356254346212786,0.5715258162426358,0.7646666047468792,1.2482311857823323,-0.03656666481874832,0.7022544853802072,0.5835816674383117,1.447217511810483,0.021400653951822786,-0.04224629443450371,0.7633097021971793,0.2378790530535346,1.4921675954005342,0.2384949211238492,-0.29709868899905634,1.6801831591099592,0.7735658045069156,-0.0,-0.0
0.09366278363977056,0.579446407841268,0.7706599225745344,1.2503987186150574,-0.020199447183982908,0.6921665677465674,0.5746082899176871,1.442921400209918,0.021400653951822786,-0.04224629443450371,0.7633097021971793,0.2378790530535346,1.499920842574679,0.2404927681711672,-0.2984020017663688,1.6806645040487105,-0.7089056658292376,-0.0,-0.0
0.07874459966882666,0.573120357866853,0.7666998094351108,1.2493638125646342,-0.03239922651204678,0.6992710309476918,0.5817568903460377,1.4467693692541523,0.021400653951822786,-0.04224629443450371,0.7633097021971793,0.2378790530535346,1.4941429214074338,0.2390101208138568,-0.2974524600784174,1.6804556761838243,0.772426698759343,-0.0,-0.0
0.09992528411688127,0.5818587252390666,0.773112951584044,1.251584041023467,-0.014627537342951486,0.6884701653474009,0.5718412556919886,1.441868022015476,0.021400653951822786,-0.04224629443450371,0.7633097021971793,0.2378790530535346,1.50255802950509,0.24117634444702304,-0.29885896711845994,1.6809223245310903,-0.7157322967575032,0.0,-0.0
0.07880513849991579,0.5727003769759877,0.7677288596288369,1.250380455975013,-0.031923494696638875,0.6983401838837799,0.5821965785828221,1.447634549237156,0.021400653951822786,-0.04224629443450371,0.7633097021971793,0.2378790530535346,1.4943690923755215,0.2390779619151832,-0.29752367408463276,1.6806985785823467,0.7678161203471753,-0.0,-0.0
0.0977863304952334,0.5806066446654919,0.7735509186372116,1.2524023842604637,-0.01595672029021741,0.6889587816788085,0.5735882531602154,1.4433841740884108,0.021400653951822786,-0.04224629443450371,0.7633097021971793,0.2378790530535346,1.501673420563897,0.24095817527592048,-0.2987437133598196,1.6810979293234118,-0.7074401165619638,0.0,-0.0
0.07632774576282501,0.5710452843561662,0.7676472343261385,1.250914047879111,-0.03408193387077435,0.6990269975521809,0.5840041714988697,1.449114480562241,0.021400653951822786,-0.04224629443450371,0.7633097021971793,0.2378790530535346,1.4933825508849907,0.23883246675679493,-0.2973882232572833,1.6808470580636536,0.7701954730815544,0.0,-0.0
0.0980982997170546,0.580029905339488,0.7744148546069036,1.2533369322220076,-0.016388791063724085,0.6882135118410746,0.5741968915158119,1.444335171342763,0.021400653951822786,-0.04224629443450371,0.7633097021971793,0.2378790530535346,1.5017515496747584,0.24098803850255832,-0.2987900737140829,1.6813320637582208,-0.7054840887768671,-0.0,-0.0
0.0764697043588528,0.5703841034019018,0.7684739971354012,1.2518507785321344,-0.03404899956989203,0.6983571635998583,0.5847021371164249,1.450114794468046,0.021400653951822786,-0.04224629443450371,0.7633097021971793,0.2378790530535346,1.4933994520569844,0.23884654264102848,-0.29742487251916566,1.681081678037305,0.7732092267297751,-0.0,-0.0
0.09813331641427721,0.5793284508800347,0.7752040786850636,1.2542537593299146,-0.016443021289754032,0.6875980206390286,0.5749402987566898,1.4453605173157646,0.021400653951822786,-0.04224629443450371,0.7633097021971793,0.2378790530535346,1.5017224731245156,0.24099043331572076,-0.29881893678256194,1.6815633439598288,-0.7038239468415087,0.0,0.0
0.07927645297603045,0.570919186569111,0.7700241549304149,1.2529600202292654,-0.031839544112494955,0.6964439465046282,0.5840977617114422,1.450392552178001,0.021400653951822786,-0.04224629443450371,0.7633097021971793,0.2378790530535346,1.4944450904583126,0.23912430741093757,-0.2976292866813251,1.6813446108725143,0.7743830184373284,0.0,-0.0
0.1010102599023511,0.5799850866145414,0.7766760468003789,1.2552500607766808,-0.013557402838772888,0.6857060821988735,0.5742322686663488,1.445528608305762,0.021400653951822786,-0.04224629443450371,0.7633097021971793,0.2378790530535346,1.502795410454183,0.24127418119935629,-0.2990236962968167,1.681798477456582,-0.7034590207802447,0.0,0.0
0.07927932954333727,0.5702003064882888,0.7708096970914533,1.2538817369602822,-0.03131192302951197,0.6958123633193009,0.5848980452444771,1.4514755943651843,0.021400653951822786,-0.04224629443450371,0.7633097021971793,0.2378790530535346,1.4944074981259912,0.23912440979251656,-0.2976568440418774,1.6815765237066396,0.7777648606575996,-0.0,0.0
0.10074168181185372,0.5791521282418345,0.7773792980770888,1.256141216236959,-0.013859784357587557,0.685233432690422,0.5751200661488702,1.4466334226597377,0.021400653951822786,-0.04224629443450371,0.7633097021971793,0.2378790530535346,1.5026484537232916,0.2412463489564135,-0.29903312813529725,1.6820252842258376,-0.6946624431564444,0.0,0.0
0.08089102518170697,0.5702236656155718,0.772009947932356,1.2548814845146024,-0.030635680356452807,0.6944828113323743,0.5848418799980863,1.4520326909091736,0.021400653951822786,-0.04224629443450371,0.7633097021971793,0.2378790530535346,1.4949914696221283,0.23928358220445675,-0.2977848204818249,1.6818190613680477,0.7832124467881846,0.0,0.0
0.10127804916165446,0.5787763005290463,0.7781969833432548,1.256962263801626,-0.014053370311547107,0.684464337705315,0.5755145278611927,1.4473836256885975,0.021400653951822786,-0.04224629443450371,0.7633097021971793,0.2378790530535346,1.5028178105632999,0.24129828377821552,-0.2990896500529818,1.6822297999801519,-0.6801742403814721,0.0,0.0
0.08006945553688058,0.5692212155710412,0.7724778004727558,1.2556390434965057,-0.03138081846983995,0.6943360867091128,0.5859155392357049,1.4531671095095646,0.021400653951822786,-0.04224629443450371,0.7633097021971793,0.2378790530535346,1.4946402678429584,0.23920212284846024,-0.2977571275055473,1.6820143054163545,0.7784687322268297,0.0,0.0
0.0993615199033994,0.5772895158467352,0.7783594455391808,1.2576374211856534,-0.015151473775612538,0.6848176808893711,0.5771379558238402,1.4488358790086753,0.021400653951822786,-0.04224629443450371,0.7633097021971793,0.2378790530535346,1.502040812540047,0.24110772144163434,-0.29899220957579326,1.6824112224799936,-0.6878358756874992,0.0,0.0
0.08438654194580884,0.5705875063858235,0.7742722388608182,1.2566477326836598,-0.027380653630137065,0.6918211042522759,0.5844419884883443,1.4528601898159073,0.021400653951822786,-0.04224629443450371,0.7633097021971793,0.2378790530535346,1.496272606581665,0.23962839758317894,-0.2980501102729609,1.6822443727317624,0.7744759784489802,0.0,0.0
0.10601001015504913,0.5797723590178913,0.7807114287291868,1.2587052721526761,-0.009780002764882657,0.6812943967528288,0.5744186088929235,1.4477631654939156,0.021400653951822786,-0.04224629443450371,0.7633097021971793,0.2378790530535346,1.5045718992258645,0.24176364896340835,-0.2994286625313515,1.6826441169677446,-0.6966827935247055,0.0,0.0
0.08688490929992344,0.5710210822856444,0.775702702089218,1.2576886988143614,-0.025421427655829,0.6900762052534949,0.5839508330736296,1.4531799150392917,0.021400653951822786,-0.04224629443450371,0.7633097021971793,0.2378790530535346,1.4971962391945974,0.2398746358876092,-0.2982330176598505,1.6824930785999106,0.7777745627844027,0.0,0.0
0.10841487159166203,0.5802470139812331,0.7820262754535839,1.2596316469749582,-0.007283499152745322,0.6800031043834851,0.5742849805645177,1.4482300496648304,0.021400653951822786,-0.04224629443450371,0.7633097021971793,0.2378790530535346,1.50545967542349,0.24199975424559642,-0.2996019411048588,1.6828654508955612,-0.6976492549218952,0.0,0.0
0.08602897440484132,0.569923765410796,0.7762518535532708,1.2585466214031469,-0.026233107925397223,0.6898623989435153,0.5851157665061195,1.4544348217727951,0.021400653951822786,-0.04224629443450371,0.7633097021971793,0.2378790530535346,1.4968258169895479,0.23978943901895663,-0.2982060057923238,1.6827143052094828,0.7786379512341072,0.0,0.0
0.10774494114394877,0.5791999638171025,0.782661921397393,1.2605408191754595,-0.007942607997210482,0.6796758013947308,0.5753991188649776,1.4494915217934385,0.021400653951822786,-0.04224629443450371,0.7633097021971793,0.2378790530535346,1.5051538283695753,0.24193178105175311,-0.2995871073598831,1.6830996943076544,-0.705884457082579,-0.0,0.0
0.0876575168028954,0.5699589058545843,0.7774558493436134,1.259541396489112,-0.02494331128836131,0.6885440114497952,0.5850927567639858,1.4550193953199122,0.021400653951822786,-0.04224629443450371,0.7633097021971793,0.2378790530535346,1.4974127059259055,0.2399494929374085,-0.2983343380673741,1.6829564301795943,0.7754988259463128,0.0,0.0
0.10935535006856738,0.5792798670206581,0.783803445337257,1.2614641819802233,-0.006662296946063833,0.678407451462211,0.5753295423232064,1.450011646957437,0.021400653951822786,-0.04224629443450371,0.7633097021971793,0.2378790530535346,1.505732010059988,0.2420890796476784,-0.299711650888042,1.6833249529068204,-0.705656104810815,-0.0,0.0
0.08703452235441847,0.5689588330193541,0.7780766428953101,1.260423566967407,-0.025559579102945793,0.6882188120574073,0.5861562178707124,1.4562246557124001,0.021400653951822786,-0.04224629443450371,0.7633097021971793,0.2378790530535346,1.4971315147996818,0.23988727412178334,-0.29832217204024253,1.683182472591534,0.7767014855768775,-0.0,0.0
0.10853089588081133,0.578171722300803,0.7843885904464667,1.2623528889478797,-0.007451479518460008,0.6781564612155546,0.5765079088865593,1.4513013610167365,0.021400653951822786,-0.04224629443450371,0.7633097021971793,0.2378790530535346,1.5053672263518079,0.24200587011368294,-0.29968675574227804,1.6835548320574008,-0.7007995702154244,-0.0,0.0
0.08838303029894808,0.568882438157817,0.7791895141210324,1.2613816961650435,-0.024505220395045192,0.6870379169933987,0.5862504464359602,1.4568628029524464,0.021400653951822786,-0.04224629443450371,0.7633097021971793,0.2378790530535346,1.497610525957813,0.24001950070987815,-0.298432204803275,1.6834170466470164,0.7775653921812185,0.0,0.0
0.10324637692910454,0.5752821222570482,0.7835216244844484,1.2626761084724278,-0.011981420096551034,0.6801036497079913,0.5795485746236433,1.45342075816572,0.021400653951822786,-0.04224629443450371,0.7633097021971793,0.2378790530535346,1.503303470120553,0.24148371428237803,-0.29937416817746215,1.683665229996757,-0.6878438079657492,0.0,0.0
0.08106994410911535,0.5652358394432846,0.7776025117822648,1.2613810096332039,-0.030729056709786238,0.6900328026767073,0.5900798203995239,1.4592753413813604,0.021400653951822786,-0.04224629443450371,0.7633097021971793,0.2378790530535346,1.4947807542332463,0.23929852329780266,-0.2979872493444067,1.6834553908168042,0.7761525862504626,0.0,0.0
0.10243490034986326,0.5741975895903828,0.7840867363977501,1.2635416963291997,-0.012756031626005006,0.6798684001051641,0.5806998916015884,1.4546709612541717,0.021400653951822786,-0.04224629443450371,0.7633097021971793,0.2378790530535346,1.5029471363454348,0.24140225235526558,-0.2993495263031456,1.6838883612199242,-0.6934060349087278,0.0,0.0
0.08233429773608295,0.5651180017440802,0.7786928063534753,1.2623368702552291,-0.029744975063094772,0.6888924126817351,0.5902160164973268,1.4599323988562538,0.021400653951822786,-0.04224629443450371,0.7633097021971793,0.2378790530535346,1.495228529903611,0.2394226684153171,-0.2980921200987194,1.6836893052256783,0.7759992917387764,0.0,0.0
0.09728567102676221,0.5714174350454309,0.7832002520210228,1.2638114630065287,-0.01716439026482451,0.6818009578034688,0.5836229940462095,1.4566749208227696,0.021400653951822786,-0.04224629443450371,0.7633097021971793,0.2378790530535346,1.5009417566169119,0.24089420171221926,-0.29904394477863705,1.6839835546540285,-0.6908863169330542,-0.0,0.0
0.07501309153194104,0.5615309062564903,0.7770324508933102,1.2622560073965083,-0.035966724324521554,0.6919483893327711,0.5939800411073822,1.4622465826990458,0.021400653951822786,-0.04224629443450371,0.7633097021971793,0.2378790530535346,1.4924033454643784,0.23870179841049652,-0.29764477007347645,1.6837064508713224,0.7740433971724575,0.0,0.0
0.09432796442562405,0.5694542485952551,0.7830866544315125,1.2644318009955822,-0.019740407731865545,0.6826111948480206,0.5856915614543168,1.458345999088237,0.021400653951822786,-0.04224629443450371,0.7633097021971793,0.2378790530535346,1.499769325154746,0.24060201466906264,-0.2988818691640173,1.6841551510218036,-0.6943901058142207,0.0,0.0
0.07850309025489718,0.5625014333568793,0.7786260838320271,1.2632371823433204,-0.03309028084877659,0.6898824024177612,0.592972898051251,1.4621963623645606,0.021400653951822786,-0.04224629443450371,0.7633097021971793,0.2378790530535346,1.4937103895076216,0.23904513791022414,-0.29788559537794085,1.6839349661254477,0.7781696317191136,0.0,0.0
0.10019600392137588,0.5715141316622455,0.7853030240223673,1.2655340584551484,-0.014853288282700685,0.6794868989655691,0.5835440227060567,1.4576597230458606,0.021400653951822786,-0.04224629443450371,0.7633097021971793,0.2378790530535346,1.5019857783653625,0.24117858710631182,-0.29927025716291317,1.6844028214337525,-0.6980669540402705,0.0,0.0
0.0800357478585876,0.5624795334080471,0.7798142354195353,1.264240079362384,-0.031882313426653514,0.6886029701396793,0.5930086761736331,1.4628164368511283,0.021400653951822786,-0.04224629443450371,0.7633097021971793,0.2378790530535346,1.4942597237062947,0.23919563686225642,-0.2980080351975194,1.6841791863357758,0.7764119685411293,0.0,0.0
0.10167785944650692,0.5715202646881028,0.7864224078502559,1.2664662181093347,-0.01368284446700575,0.6782701777822041,0.5835508640134773,1.4582272885281378,0.021400653951822786,-0.04224629443450371,0.7633097021971793,0.2378790530535346,1.5025136388979812,0.2413230892938078,-0.2993869302872141,1.6846305160176358,-0.7008213586132596,0.0,0.0
0.0792172653943501,0.5614064331780912,0.7803605003711299,1.2650891134457583,-0.03266056038705212,0.6883875367492563,0.5941461644772745,1.4640360754143638,0.021400653951822786,-0.04224629443450371,0.7633097021971793,0.2378790530535346,1.4939078006474704,0.23911481072610288,-0.29798312878287375,1.6843966813300488,0.7804277475689906,0.0,0.0
0.10099859874367965,0.5704773775820212,0.7870411934526985,1.2673619142585384,-0.014348061232954061,0.6779635939993774,0.5846584961285349,1.4594638790688803,0.021400653951822786,-0.04224629443450371,0.7633097021971793,0.2378790530535346,1.5022081223846782,0.24125481099329138,-0.2993711543691032,1.6848600909021834,-0.7042301643050883,-0.0,0.0
0.07857258231317502,0.5604039243910877,0.7809614571148358,1.2659583629783555,-0.03329282272421061,0.6880884844100834,0.5952096598188019,1.4652200629353795,0.021400653951822786,-0.04224629443450371,0.7633097021971793,0.2378790530535346,1.493622459528674,0.23905114185920104,-0.29796936925317025,1.6846182423169849,0.7788599014670332,0.0,0.0
0.10016101115932162,0.5693725241966635,0.7876065688574,1.2682358227165846,-0.015145852668258325,0.6777370876330312,0.5858306733688262,1.460726336864528,0.021400653951822786,-0.04224629443450371,0.7633097021971793,0.2378790530535346,1.501842924772327,0.241171058797553,-0.29934514219272734,1.6850848153128735,-0.6984835891786555,0.0,0.0
0.07999787861854138,0.5603425673584848,0.782110708205825,1.2669421599260613,-0.032175033846896905,0.6868650202072354,0.5952871146244568,1.465855705183388,0.021400653951822786,-0.04224629443450371,0.7633097021971793,0.2378790530535346,1.4941300590652686,0.23919083629105392,-0.29808449724236247,1.684858329940005,0.7743700386969283,0.0,0.0
0.10172499605289642,0.5694144326667729,0.7887491574592752,1.2691733682550237,-0.013906687773301125,0.6764826519524116,0.5858004977322794,1.4612748903142165,0.021400653951822786,-0.04224629443450371,0.7633097021971793,0.2378790530535346,1.502401073585556,0.24132337423384562,-0.2994667224652815,1.685313589023445,-0.702617683867319,0.0,0.0
0.07928168844679104,0.5593123997785221,0.7826877404353985,1.267801158492962,-0.03286762257961106,0.6866018064117949,0.5963798289347025,1.4670516840641898,0.021400653951822786,-0.04224629443450371,0.7633097021971793,0.2378790530535346,1.4938176126437335,0.23912014235958007,-0.2980660458289473,1.6850776229579918,0.7738168253413528,0.0,0.0
0.0989689267761126,0.5675103703533378,0.7887267130578295,1.269848160083636,-0.01631773194272351,0.6771744754972681,0.5878085661016645,1.462938509746533,0.021400653951822786,-0.04224629443450371,0.7633097021971793,0.2378790530535346,1.5013061999017483,0.24105143289927516,-0.29931861299804935,1.6854974339133253,-0.7038078072968122,0.0,0.0
0.07653426622727756,0.5575065750597377,0.7825642267780085,1.2683589872704761,-0.03525876797529737,0.6873710735514764,0.5982816279254122,1.4685692171459055,0.021400653951822786,-0.04224629443450371,0.7633097021971793,0.2378790530535346,1.492736821483256,0.23885030560279555,-0.2979157498409396,1.6852308027031107,0.7741013116468156,0.0,-0.0
0.09828098972733217,0.5664714375353306,0.7893324708472145,1.2707323839539284,-0.016989094567104717,0.6768822624955347,0.5889112051140031,1.4641597175099772,0.021400653951822786,-0.04224629443450371,0.7633097021971793,0.2378790530535346,1.500999313751393,0.24098257751360685,-0.29930198304648814,1.6857235895634064,-0.7052474470401795,0.0,0.0
0.0763021855337771,0.5563701005245028,0.7828984239074701,1.269057765243243,-0.03549552505880789,0.6868693497747526,0.5991187517335235,1.4696198172207806,0.021400653951822786,-0.04224629443450371,0.7633097021971793,0.2378790530535346,1.4926316102042836,0.23883270138298923,-0.2979308982520755,1.685454858358938,0.7757058407394362,0.0,0.0
0.09740996958802373,0.5653554324316072,0.7898485528133411,1.2715719388084323,-0.01780846417174307,0.6767071846541269,0.5900545003984069,1.4653662384135022,0.021400653951822786,-0.04224629443450371,0.7633097021971793,0.2378790530535346,1.5006260305318033,0.24089608001231233,-0.29927253678672666,1.6859342657214904,-0.6975733825870716,0.0,0.0
0.07753899167190784,0.5562510735574369,0.7840009351239786,1.270024893269329,-0.03453571853087664,0.6857608355131396,0.5992527242636967,1.470256991598066,0.021400653951822786,-0.04224629443450371,0.7633097021971793,0.2378790530535346,1.49306711654262,0.23895344354539494,-0.2980326231138884,1.6856822683595956,0.7805379848313253,0.0,0.0
0.0923087963863768,0.5625659708691652,0.7888346269500048,1.2717472203862406,-0.02215700485706385,0.6786707578039312,0.5928826786558208,1.4672471750636675,0.021400653951822786,-0.04224629443450371,0.7633097021971793,0.2378790530535346,1.498659321623827,0.24039657633413325,-0.2989699545052295,1.6860093812273491,-0.6906388164660899,0.0,0.0
0.07022869369459682,0.5526237105823366,0.7821480183872342,1.2698090521582281,-0.04072188612942346,0.6888724558370893,0.6029223431901832,1.472434352868147,0.021400653951822786,-0.04224629443450371,0.7633097021971793,0.2378790530535346,1.490273578351681,0.23823900449120713,-0.29758658695884305,1.6856750702131664,0.7781381779690552,0.0,0.0
0.08907804711913417,0.5604695527449634,0.7885438319976802,1.2722746175437059,-0.024949239791435308,0.6796570053987038,0.5950124541273459,1.4688858146829726,0.021400653951822786,-0.04224629443450371,0.7633097021971793,0.2378790530535346,1.497396679618414,0.2400800280758744,-0.29878991174996167,1.6861579599511591,-0.6892803984902447,-0.0,0.0
0.07357459881442256,0.5535666376396357,0.7837646721465475,1.2708168732729614,-0.03797436532475403,0.6868834717054654,0.6019803725677831,1.4724156837884588,0.021400653951822786,-0.04224629443450371,0.7633097021971793,0.2378790530535346,1.4915163308449744,0.23856591932659046,-0.2978163332442529,1.6858989343412718,0.7753248303282839,0.0,-0.0
0.09510860819253944,0.5626405368998623,0.7909537258437559,1.2734916720381373,-0.019943443006657752,0.676440523800191,0.5928314071795749,1.4682167012617993,0.021400653951822786,-0.04224629443450371,0.7633097021971793,0.2378790530535346,1.4996559998243617,0.2406684165764485,-0.2991865955065946,1.6864168709894245,-0.6986861202095304,0.0,-0.0
0.07589343948974815,0.5539081509724266,0.7852216919213307,1.271911337841058,-0.03610777372327974,0.6852562974868411,0.6016494858179593,1.4728324776664208,0.021400653951822786,-0.04224629443450371,0.7633097021971793,0.2378790530535346,1.4923611533401666,0.23879228985193524,-0.29798662082633653,1.6861504725669627,0.7522710247233474,-0.0,-0.0
0.09152015451064383,0.5605480555207297,0.7903796921359297,1.2737804416766658,-0.023017554714064074,0.6777202675734414,0.5949545029653931,1.4697148269709777,0.021400653951822786,-0.04224629443450371,0.7633097021971793,0.2378790530535346,1.4982673442154861,0.24031730289451828,-0.2989785224507683,1.6865095292372156,-0.7337459417744782,-0.0,-0.0
0.07038332082110536,0.5510597501167316,0.7839474048638366,1.271895186718447,-0.040783431838052775,0.687512943334066,0.6045322639152466,1.4746249006419798,0.021400653951822786,-0.04224629443450371,0.7633097021971793,0.2378790530535346,1.490252950715127,0.23825444514572677,-0.2976549173106923,1.6861799484268987,0.7437918427848005,-0.0,-0.0
0.09253918364454575,0.5602852382533489,0.7914611318245511,1.274781166261013,-0.022246377160617472,0.6766805469566136,0.595234489136476,1.4704641498772995,0.021400653951822786,-0.04224629443450371,0.7633097021971793,0.2378790530535346,1.4986138933019442,0.24041581649725915,-0.29906737391679006,1.6867468519289706,-0.7178874485920878,-0.0,-0.0
0.0734034117774085,0.5516667644681668,0.7856686595551876,1.2731132771328812,-0.0383328590610368,0.6855246324241806,0.6039338298165644,1.4749429524775945,0.021400653951822786,-0.04224629443450371,0.7633097021971793,0.2378790530535346,1.491361112044122,0.23854919258822055,-0.29787073463254354,1.6864570971616315,0.747560663627393,-0.0,-0.0
0.09523211931747645,0.5608566452301837,0.7929643329299545,1.2758264163446906,-0.02005913197753074,0.6749290495798501,0.5946713993657171,1.4707139673344087,0.021400653951822786,-0.04224629443450371,0.7633097021971793,0.2378790530535346,1.4995986941045043,0.24067759182292994,-0.2992580268301288,1.6869850139130638,-0.7164023768730122,-0.0,-0.0
0.07420184020728021,0.5512996936628823,0.7866907615510442,1.2741042425630127,-0.03774780345216147,0.6845815526103215,0.6043191341425146,1.4757488014370368,0.021400653951822786,-0.04224629443450371,0.7633097021971793,0.2378790530535346,1.4916273735145598,0.2386269917221937,-0.2979465349518631,1.6866927918281993,0.7365882360757947,-0.0,-0.0
0.09419062731951636,0.5594538210521907,0.7930017472998397,1.2763745564426525,-0.02097107160701215,0.6748722063459072,0.5957931598491177,1.471840407279161,0.021400653951822786,-0.04224629443450371,0.7633097021971793,0.2378790530535346,1.4991858966182237,0.24057981838090045,-0.2992184995149772,1.6871703021139342,-0.7124306488745494,0.0,0.0
0.07828106851603893,0.5522568262956811,0.7882209075467707,1.2750320940180444,-0.034348886319183314,0.6821956808862699,0.6030648148184181,1.475609793319193,0.021400653951822786,-0.04224629443450371,0.7633097021971793,0.2378790530535346,1.4931603631408434,0.23902930246773815,-0.29822596157800996,1.6869412512127147,0.7916497444251921,0.0,0.0
0.09735484228245718,0.5604202446682885,0.7944522727507508,1.2772291803531308,-0.01836654301270611,0.6730467493035424,0.5948266142793065,1.4717306991430985,0.021400653951822786,-0.04224629443450371,0.7633097021971793,0.2378790530535346,1.5003578504874449,0.2408874491203054,-0.29943196749697304,1.6873590796302982,-0.6188454522198056,0.0,0.0
0.07678445490494687,0.5510164427148706,0.7883775331690691,1.2756201464415486,-0.03567505981977106,0.682437415954845,0.604329682954934,1.4767371522349297,0.021400653951822786,-0.04224629443450371,0.7633097021971793,0.2378790530535346,1.492564491674405,0.2388832070119728,-0.2981525296688112,1.6870932750140033,0.7964576946281484,0.0,0.0
0.08976808144138863,0.5565429943336444,0.7926515249793914,1.277152355572004,-0.024799895756883395,0.6761853168036407,0.5987536729529392,1.4741409814553394,0.021400653951822786,-0.04224629443450371,0.7633097021971793,0.2378790530535346,1.497459769112926,0.24014748620611853,-0.29897414228193125,1.687387072111415,-0.598079389698209,-0.0,-0.0
0.07041352968137604,0.5479202781715017,0.7866923016516013,1.2753548202784373,-0.041057057243673686,0.6852023956462916,0.6074614164384573,1.478535360995641,0.021400653951822786,-0.04224629443450371,0.7633097021971793,0.2378790530535346,1.4901428947263364,0.2382627106121943,-0.2977629378177021,1.6870671437923868,0.74561795920101,-0.0,-0.0
0.08613577844591652,0.5544585137373718,0.7920314382058646,1.2774032185730222,-0.027906295954276177,0.6775114480732747,0.6008677850028445,1.475601915877569,0.021400653951822786,-0.04224629443450371,0.7633097021971793,0.2378790530535346,1.4960611011886404,0.23979319645529248,-0.2987629598729391,1.6874699944590807,-0.7314711712068155,-0.0,-0.0
0.06569028526813428,0.5454642043651563,0.7856132650682653,1.2753615854940104,-0.04506525583999091,0.6871285410887591,0.6099475220505486,1.4800825059811935,0.021400653951822786,-0.04224629443450371,0.7633097021971793,0.2378790530535346,1.4883412889007548,0.23780301828744993,-0.2974799778646951,1.6870966544636143,0.7178928686301568,-0.0,-0.0
0.08679564763173134,0.5540874667273479,0.7929427753987014,1.2783026302101166,-0.027430117110956106,0.6766853463412831,0.6012543827920916,1.4763544471767134,0.021400653951822786,-0.04224629443450371,0.7633097021971793,0.2378790530535346,1.4962752147164138,0.2398568243531311,-0.2988272926456204,1.687684223024183,-0.6870163220270055,0.0,0.0
0.06641827975391246,0.5451038913472901,0.7865667887036806,1.2762949513092352,-0.04453323044122906,0.6862562843588043,0.6103226818514039,1.4808409354403964,0.021400653951822786,-0.04224629443450371,0.7633097021971793,0.2378790530535346,1.4885844789278622,0.23787422264392627,-0.29754991949750775,1.6873179164035963,0.7879571533417928,0.0,0.0
0.0781410570911126,0.5499063116072429,0.7906243564579845,1.277910792203462,-0.03473716130829321,0.6804649018630098,0.6054817861201899,1.478756334855526,0.021400653951822786,-0.04224629443450371,0.7633097021971793,0.2378790530535346,1.492989343852234,0.23901442221749983,-0.2982974213994214,1.6876404538871628,-0.37147645359836096,0.0,0.0
0.05534876384148252,0.5404867456846523,0.7835607166904957,1.2754895601293956,-0.05387786461016256,0.6914358252342843,0.6153373668785981,1.4833697984991558,0.021400653951822786,-0.04224629443450371,0.7633097021971793,0.2378790530535346,1.484384892112039,0.23679227170608252,-0.29685502589037893,1.6871366909463983,0.7763985307124439,0.0,-0.0
0.07281030044802542,0.5471101126853849,0.7896033388910846,1.2780927344018473,-0.039283663436812145,0.6825594787855335,0.6084150505457987,1.4806569380283099,0.021400653951822786,-0.04224629443450371,0.7633097021971793,0.2378790530535346,1.490946803082367,0.2384945861143421,-0.29798147052309143,1.6877089968487617,-0.5530677847629552,-0.0,-0.0
